(.../pcb-gcode-3.6.2.4/pcb-gcode.ulp)
(Copyright 2005 - 2012 by John Johnson)
(See readme.txt for licensing terms.)
(This file generated from the board:)
(.../RailRoadModule/RailRoadModule.brd)
(Current profile is .../pcb-gcode-3.6.2.4/profiles/grbl-NuggetMill.pp  )
(This file generated 2022/07/19 14:17)
(Settings from pcb-machine.h)
(spindle on time = 1.0000)
(  Tool Size)
(0.600000 )
(spindle speed = 30000.0000)
(tool change at 0.000000 0.000000 12.700000 )
(feed rate xy = F50    )
(feed rate z  = F25    )
(Z Axis Settings)
(  High     Up        Down     Drill)
(10.000000 	1.000000 	-0.070000 	-1.600000 )
(Settings from pcb-defaults.h)
(isolate min = 0.0254)
(isolate max = 0.5000)
(isolate step = 0.1000)
(Generated top outlines, bottom outlines, bottom drill, )
(Unit of measure: mm)
(Metric Mode)
G21
(Absolute Coordinates)
G90
G0 Z10.000000 
G0 X0.000000 Y0.000000 
M3
G4 P1
G0 Z1.000000 
G0 X-1.246734 Y4.312169 
G1 Z-0.070000 F25    
G1 X-1.327472 Y4.258225 F50    
G1 X-1.383231 Y4.220966 
G1 X-1.534900 Y4.158144 
G1 X-1.695912 Y4.126116 
G1 X-1.860081 Y4.126116 
G1 X-2.011966 Y4.156328 
G1 X-2.172759 Y4.220966 
G1 X-2.712647 Y4.444597 
G1 X-3.287350 Y4.444597 
G1 X-3.818297 Y4.224672 
G1 X-4.224675 Y3.818297 
G1 X-4.444597 Y3.287350 
G1 X-4.444597 Y2.712647 
G1 X-4.220969 Y2.172763 
G1 X-4.159825 Y2.025144 
G1 X-4.126116 Y1.860081 
G1 X-4.126116 Y1.695912 
G1 X-4.158144 Y1.534900 
G1 X-4.220966 Y1.383231 
G1 X-4.256772 Y1.329650 
G1 X-4.312169 Y1.246734 
G1 X-4.428253 Y1.130653 
G1 X-4.564750 Y1.039447 
G1 X-4.716419 Y0.976625 
G1 X-4.877428 Y0.944597 
G1 X-27.044797 Y0.944597 
G1 X-27.112738 Y0.876656 
G1 X-27.249234 Y0.785450 
G1 X-27.400903 Y0.722628 
G1 X-27.561916 Y0.690600 
G1 X-36.912081 Y0.690600 
G1 X-37.073094 Y0.722628 
G1 X-37.224762 Y0.785450 
G1 X-37.361259 Y0.876656 
G1 X-37.429200 Y0.944597 
G1 X-42.122566 Y0.944597 
G1 X-42.274450 Y0.974809 
G1 X-42.435244 Y1.039447 
G1 X-42.571741 Y1.130653 
G1 X-42.687825 Y1.246734 
G1 X-42.741769 Y1.327472 
G1 X-42.779028 Y1.383231 
G1 X-42.841850 Y1.534900 
G1 X-42.873878 Y1.695912 
G1 X-42.873878 Y1.860081 
G1 X-42.843666 Y2.011966 
G1 X-42.779028 Y2.172759 
G1 X-42.555397 Y2.712647 
G1 X-42.555397 Y3.287350 
G1 X-42.775319 Y3.818297 
G1 X-43.181697 Y4.224675 
G1 X-43.712644 Y4.444597 
G1 X-44.287344 Y4.444597 
G1 X-44.859234 Y4.207713 
G1 X-44.900503 Y4.190619 
G1 X-45.010900 Y4.144888 
G1 X-45.171912 Y4.112859 
G1 X-45.336081 Y4.112859 
G1 X-45.497091 Y4.144884 
G1 X-45.587750 Y4.182441 
G1 X-45.648762 Y4.207709 
G1 X-45.738150 Y4.267437 
G1 X-45.785256 Y4.298913 
G1 X-45.901341 Y4.414994 
G1 X-45.992547 Y4.551494 
G1 X-46.055369 Y4.703159 
G1 X-46.087397 Y4.864172 
G1 X-46.087397 Y9.602794 
G1 X-46.155341 Y9.670737 
G1 X-46.246547 Y9.807234 
G1 X-46.309369 Y9.958903 
G1 X-46.341397 Y10.119916 
G1 X-46.341397 Y64.302081 
G1 X-46.309369 Y64.463094 
G1 X-46.246547 Y64.614762 
G1 X-46.155341 Y64.751259 
G1 X-46.087397 Y64.819203 
G1 X-46.087397 Y67.135822 
G1 X-46.055369 Y67.296834 
G1 X-45.994359 Y67.444116 
G1 X-45.901341 Y67.585000 
G1 X-45.787069 Y67.699266 
G1 X-45.741778 Y67.730128 
G1 X-45.648762 Y67.792284 
G1 X-45.584122 Y67.819056 
G1 X-45.497091 Y67.855109 
G1 X-45.338347 Y67.886681 
G1 X-45.171912 Y67.887134 
G1 X-45.010900 Y67.855106 
G1 X-44.906703 Y67.811944 
G1 X-44.859234 Y67.792284 
G1 X-44.287344 Y67.555397 
G1 X-43.712644 Y67.555397 
G1 X-43.181697 Y67.775319 
G1 X-42.775319 Y68.181697 
G1 X-42.555397 Y68.712644 
G1 X-42.555397 Y69.287344 
G1 X-42.781509 Y69.833231 
G1 X-42.842456 Y69.980369 
G1 X-42.876362 Y70.145912 
G1 X-42.876362 Y70.310081 
G1 X-42.844334 Y70.471094 
G1 X-42.781512 Y70.622762 
G1 X-42.690306 Y70.759259 
G1 X-42.574225 Y70.875341 
G1 X-42.437728 Y70.966547 
G1 X-42.286059 Y71.029369 
G1 X-42.125050 Y71.061397 
G1 X-4.874944 Y71.061397 
G1 X-4.723059 Y71.031184 
G1 X-4.562266 Y70.966547 
G1 X-4.425769 Y70.875341 
G1 X-4.309687 Y70.759259 
G1 X-4.218481 Y70.622762 
G1 X-4.155659 Y70.471094 
G1 X-4.123631 Y70.310081 
G1 X-4.123631 Y70.145912 
G1 X-4.153844 Y69.994028 
G1 X-4.218481 Y69.833234 
G1 X-4.444597 Y69.287347 
G1 X-4.444597 Y68.712644 
G1 X-4.224672 Y68.181697 
G1 X-3.818297 Y67.775322 
G1 X-3.287350 Y67.555397 
G1 X-2.712647 Y67.555397 
G1 X-2.172763 Y67.779025 
G1 X-2.025144 Y67.840169 
G1 X-1.860081 Y67.873878 
G1 X-1.695912 Y67.873878 
G1 X-1.534900 Y67.841850 
G1 X-1.383231 Y67.779028 
G1 X-1.329650 Y67.743222 
G1 X-1.246734 Y67.687825 
G1 X-1.130653 Y67.571741 
G1 X-1.039447 Y67.435244 
G1 X-0.976625 Y67.283575 
G1 X-0.944597 Y67.122566 
G1 X-0.944597 Y55.504800 
G1 X-0.976625 Y55.343787 
G1 X-1.039447 Y55.192119 
G1 X-1.130653 Y55.055622 
G1 X-1.246734 Y54.939541 
G1 X-1.383231 Y54.848334 
G1 X-1.534900 Y54.785513 
G1 X-1.695912 Y54.753484 
G1 X-1.860078 Y54.753484 
G1 X-2.021091 Y54.785513 
G1 X-2.172759 Y54.848334 
G1 X-2.309256 Y54.939541 
G1 X-2.425337 Y55.055622 
G1 X-3.277341 Y55.907625 
G1 X-3.368547 Y56.044122 
G1 X-3.431369 Y56.195791 
G1 X-3.463397 Y56.356803 
G1 X-3.463397 Y56.679891 
G1 X-3.607203 Y57.027072 
G1 X-3.872922 Y57.292791 
G1 X-4.220103 Y57.436597 
G1 X-6.103891 Y57.436597 
G1 X-6.451072 Y57.292791 
G1 X-6.716791 Y57.027072 
G1 X-6.860597 Y56.679891 
G1 X-6.860597 Y54.796103 
G1 X-6.716791 Y54.448922 
G1 X-6.451072 Y54.183203 
G1 X-5.952147 Y53.976544 
G1 X-5.815647 Y53.885337 
G1 X-5.758516 Y53.828203 
G1 X-5.699566 Y53.769256 
G1 X-5.608363 Y53.632756 
G1 X-5.545538 Y53.481088 
G1 X-5.519128 Y53.348303 
G1 X-5.513513 Y53.320078 
G1 X-5.513513 Y53.155909 
G1 X-5.545541 Y52.994897 
G1 X-5.606550 Y52.847616 
G1 X-5.699569 Y52.706731 
G1 X-5.756703 Y52.649600 
G1 X-5.815650 Y52.590650 
G1 X-5.952150 Y52.499447 
G1 X-6.451075 Y52.292788 
G1 X-6.716791 Y52.027072 
G1 X-6.860597 Y51.679891 
G1 X-6.860597 Y51.356803 
G1 X-6.892625 Y51.195791 
G1 X-6.955447 Y51.044122 
G1 X-7.046653 Y50.907625 
G1 X-7.162734 Y50.791544 
G1 X-8.612737 Y49.341541 
G1 X-8.749234 Y49.250334 
G1 X-8.900903 Y49.187512 
G1 X-9.061916 Y49.155484 
G1 X-9.226081 Y49.155484 
G1 X-9.387094 Y49.187512 
G1 X-9.538763 Y49.250334 
G1 X-9.675259 Y49.341541 
G1 X-9.791341 Y49.457622 
G1 X-9.882547 Y49.594119 
G1 X-9.945369 Y49.745787 
G1 X-9.977397 Y49.906800 
G1 X-9.977397 Y58.897188 
G1 X-9.945369 Y59.058200 
G1 X-9.882547 Y59.209869 
G1 X-9.791341 Y59.346366 
G1 X-9.755422 Y59.382281 
G1 X-7.610450 Y61.527256 
G1 X-7.530284 Y61.607422 
G1 X-7.494369 Y61.643341 
G1 X-7.357872 Y61.734547 
G1 X-7.206203 Y61.797369 
G1 X-7.045194 Y61.829397 
G1 X-6.722103 Y61.829397 
G1 X-6.374922 Y61.973203 
G1 X-6.109203 Y62.238922 
G1 X-5.965397 Y62.586103 
G1 X-5.965397 Y64.469891 
G1 X-6.109200 Y64.817069 
G1 X-6.374925 Y65.082791 
G1 X-6.722103 Y65.226597 
G1 X-8.605891 Y65.226597 
G1 X-8.953072 Y65.082791 
G1 X-9.218791 Y64.817072 
G1 X-9.425450 Y64.318147 
G1 X-9.516656 Y64.181647 
G1 X-9.573791 Y64.124516 
G1 X-9.632737 Y64.065566 
G1 X-9.769237 Y63.974362 
G1 X-9.920906 Y63.911538 
G1 X-10.053691 Y63.885128 
G1 X-10.081916 Y63.879512 
G1 X-10.246084 Y63.879512 
G1 X-10.407097 Y63.911541 
G1 X-10.554378 Y63.972547 
G1 X-10.695263 Y64.065569 
G1 X-10.752394 Y64.122703 
G1 X-10.811344 Y64.181650 
G1 X-10.902547 Y64.318150 
G1 X-11.109206 Y64.817075 
G1 X-11.374922 Y65.082791 
G1 X-11.722103 Y65.226597 
G1 X-13.605891 Y65.226597 
G1 X-13.953072 Y65.082791 
G1 X-14.218791 Y64.817072 
G1 X-14.362597 Y64.469891 
G1 X-14.362597 Y64.310963 
G1 X-14.362597 Y64.229775 
G1 X-14.362597 Y64.146803 
G1 X-14.394628 Y63.985772 
G1 X-14.432969 Y63.893219 
G1 X-14.457447 Y63.834122 
G1 X-14.487344 Y63.789381 
G1 X-14.548653 Y63.697625 
G1 X-14.609369 Y63.636913 
G1 X-14.664734 Y63.581544 
G1 X-15.201450 Y63.044834 
G1 X-15.346628 Y62.694341 
G1 X-15.409450 Y62.542669 
G1 X-15.431747 Y62.509303 
G1 X-15.422600 Y62.463325 
G1 X-15.422597 Y62.382150 
G1 X-15.422594 Y62.299159 
G1 X-15.422597 Y42.614491 
G1 X-15.452813 Y42.462606 
G1 X-15.517447 Y42.301812 
G1 X-15.549597 Y42.224200 
G1 X-15.549597 Y41.595794 
G1 X-15.309119 Y41.015222 
G1 X-14.864769 Y40.570872 
G1 X-14.267628 Y40.323531 
G1 X-14.115956 Y40.260709 
G1 X-13.979456 Y40.169503 
G1 X-13.865191 Y40.055231 
G1 X-13.834328 Y40.009941 
G1 X-13.772172 Y39.916925 
G1 X-13.745400 Y39.852284 
G1 X-13.709347 Y39.765253 
G1 X-13.684056 Y39.638084 
G1 X-13.677322 Y39.604247 
G1 X-13.677322 Y39.440075 
G1 X-13.709350 Y39.279066 
G1 X-13.772172 Y39.127397 
G1 X-13.863378 Y38.990897 
G1 X-14.415291 Y38.438994 
G1 X-14.498984 Y38.355294 
G1 X-14.632769 Y38.265906 
G1 X-14.787153 Y38.201266 
G1 X-14.864769 Y38.169122 
G1 X-15.309116 Y37.724775 
G1 X-15.549597 Y37.144200 
G1 X-15.549597 Y36.515794 
G1 X-15.309119 Y35.935222 
G1 X-14.864772 Y35.490875 
G1 X-14.284200 Y35.250397 
G1 X-13.655794 Y35.250397 
G1 X-13.075222 Y35.490875 
G1 X-12.630875 Y35.935225 
G1 X-12.598728 Y36.012828 
G1 X-12.536900 Y36.162103 
G1 X-12.444700 Y36.301009 
G1 X-11.707259 Y37.038453 
G1 X-11.570759 Y37.129659 
G1 X-11.419091 Y37.192481 
G1 X-11.258081 Y37.224509 
G1 X-11.093913 Y37.224509 
G1 X-10.932903 Y37.192484 
G1 X-10.842244 Y37.154928 
G1 X-10.781231 Y37.129659 
G1 X-10.727650 Y37.093853 
G1 X-10.644734 Y37.038456 
G1 X-10.528653 Y36.922375 
G1 X-10.437447 Y36.785875 
G1 X-10.374625 Y36.634206 
G1 X-10.342597 Y36.473197 
G1 X-10.342597 Y32.731056 
G1 X-10.171294 Y32.317494 
G1 X-10.110341 Y32.170338 
G1 X-10.076441 Y32.004812 
G1 X-10.076441 Y31.840644 
G1 X-10.108469 Y31.679631 
G1 X-10.171291 Y31.527963 
G1 X-10.260681 Y31.394184 
G1 X-10.378578 Y31.275384 
G1 X-10.515075 Y31.184178 
G1 X-10.666744 Y31.121356 
G1 X-10.827753 Y31.089328 
G1 X-10.991922 Y31.089328 
G1 X-11.152934 Y31.121356 
G1 X-11.304603 Y31.184178 
G1 X-11.438381 Y31.273569 
G1 X-11.557181 Y31.391466 
G1 X-12.328616 Y32.162900 
G1 X-12.442891 Y32.277175 
G1 X-12.480259 Y32.332203 
G1 X-12.535906 Y32.415481 
G1 X-12.598728 Y32.567150 
G1 X-12.630878 Y32.644772 
G1 X-13.075222 Y33.089119 
G1 X-13.655794 Y33.329597 
G1 X-14.284200 Y33.329597 
G1 X-14.864772 Y33.089119 
G1 X-15.309119 Y32.644772 
G1 X-15.549597 Y32.064200 
G1 X-15.549597 Y31.435794 
G1 X-15.309119 Y30.855222 
G1 X-14.864772 Y30.410878 
G1 X-14.787156 Y30.378728 
G1 X-14.635481 Y30.315906 
G1 X-14.554381 Y30.261713 
G1 X-14.498991 Y30.224706 
G1 X-14.382906 Y30.108625 
G1 X-13.068650 Y28.794366 
G1 X-13.013253 Y28.711450 
G1 X-12.977447 Y28.657869 
G1 X-12.914625 Y28.506200 
G1 X-12.884412 Y28.354309 
G1 X-12.882597 Y26.460912 
G1 X-12.914625 Y26.299900 
G1 X-12.977447 Y26.148231 
G1 X-13.068653 Y26.011734 
G1 X-13.184734 Y25.895653 
G1 X-13.321231 Y25.804447 
G1 X-13.472900 Y25.741625 
G1 X-13.633912 Y25.709597 
G1 X-14.284200 Y25.709597 
G1 X-14.864772 Y25.469119 
G1 X-15.309122 Y25.024769 
G1 X-15.341266 Y24.947166 
G1 X-15.403097 Y24.797891 
G1 X-15.495294 Y24.658984 
G1 X-15.579700 Y24.574584 
G1 X-15.696028 Y24.458253 
G1 X-15.708628 Y24.394903 
G1 X-15.771450 Y24.243234 
G1 X-15.862656 Y24.106738 
G1 X-16.607819 Y23.361578 
G1 X-16.665603 Y23.214109 
G1 X-16.692597 Y23.148937 
G1 X-16.692597 Y22.033469 
G1 X-16.692597 Y21.951503 
G1 X-16.692597 Y21.885859 
G1 X-16.696478 Y21.853078 
G1 X-16.711819 Y21.789228 
G1 X-16.724625 Y21.724847 
G1 X-16.734828 Y21.693456 
G1 X-16.762309 Y21.633872 
G1 X-16.787447 Y21.573178 
G1 X-16.803578 Y21.544381 
G1 X-16.842184 Y21.491263 
G1 X-16.878653 Y21.436681 
G1 X-16.948334 Y21.367000 
G1 X-16.994734 Y21.320600 
G1 X-17.020659 Y21.300166 
G1 X-17.076641 Y21.265872 
G1 X-17.131231 Y21.229394 
G1 X-17.160644 Y21.214409 
G1 X-17.222272 Y21.191688 
G1 X-17.282900 Y21.166572 
G1 X-17.314672 Y21.157612 
G1 X-17.379541 Y21.147350 
G1 X-17.443912 Y21.134544 
G1 X-17.476819 Y21.131956 
G1 X-17.542434 Y21.134544 
G1 X-17.608078 Y21.134544 
G1 X-17.640859 Y21.138425 
G1 X-17.704709 Y21.153766 
G1 X-17.769091 Y21.166572 
G1 X-17.800481 Y21.176775 
G1 X-17.860066 Y21.204256 
G1 X-17.920759 Y21.229394 
G1 X-17.949556 Y21.245525 
G1 X-17.989778 Y21.274756 
G1 X-18.007681 Y21.219653 
G1 X-18.084813 Y21.068269 
G1 X-18.184678 Y20.930816 
G1 X-18.304816 Y20.810678 
G1 X-18.442269 Y20.710812 
G1 X-18.593653 Y20.633681 
G1 X-18.755237 Y20.581178 
G1 X-18.923047 Y20.554600 
G1 X-19.092950 Y20.554600 
G1 X-19.260759 Y20.581178 
G1 X-19.422344 Y20.633681 
G1 X-19.573728 Y20.710812 
G1 X-19.697284 Y20.800581 
G1 X-19.768075 Y20.800581 
G1 X-19.801375 Y20.756425 
G1 X-19.828806 Y20.715369 
G1 X-19.872459 Y20.666241 
G1 X-19.909987 Y20.634187 
G1 X-20.185097 Y20.359078 
G1 X-20.301184 Y20.242988 
G1 X-20.381922 Y20.189044 
G1 X-20.437681 Y20.151784 
G1 X-20.502322 Y20.125009 
G1 X-20.589353 Y20.088959 
G1 X-20.748097 Y20.057384 
G1 X-20.914531 Y20.056934 
G1 X-21.066416 Y20.087147 
G1 X-21.227209 Y20.151784 
G1 X-21.363709 Y20.242991 
G1 X-22.076344 Y20.955628 
G1 X-22.131741 Y21.038544 
G1 X-22.167547 Y21.092125 
G1 X-22.192816 Y21.153137 
G1 X-22.230372 Y21.243797 
G1 X-22.262397 Y21.404806 
G1 X-22.262397 Y21.673259 
G1 X-22.253994 Y21.715500 
G1 X-22.230372 Y21.834266 
G1 X-22.167550 Y21.985934 
G1 X-22.141044 Y22.025600 
G1 X-22.557841 Y22.025600 
G1 X-22.640600 Y22.047775 
G1 X-22.714797 Y22.090616 
G1 X-22.775381 Y22.151200 
G1 X-22.818222 Y22.225397 
G1 X-22.840397 Y22.308156 
G1 X-22.840397 Y22.778700 
G1 X-22.848397 Y22.818916 
G1 X-22.848397 Y22.983081 
G1 X-22.840397 Y23.023297 
G1 X-22.840397 Y23.493841 
G1 X-22.818222 Y23.576600 
G1 X-22.775381 Y23.650797 
G1 X-22.714797 Y23.711381 
G1 X-22.640600 Y23.754222 
G1 X-22.557841 Y23.776397 
G1 X-21.472156 Y23.776397 
G1 X-21.389397 Y23.754222 
G1 X-21.355084 Y23.734409 
G1 X-21.311191 Y23.734409 
G1 X-21.284259 Y23.761341 
G1 X-21.147762 Y23.852547 
G1 X-20.996094 Y23.915369 
G1 X-20.835081 Y23.947397 
G1 X-20.130319 Y23.947397 
G1 X-19.969309 Y23.915369 
G1 X-19.845481 Y23.864075 
G1 X-19.817647 Y23.852547 
G1 X-19.736041 Y23.798016 
G1 X-19.692525 Y23.794997 
G1 X-19.659619 Y23.794997 
G1 X-19.611228 Y23.785369 
G1 X-19.562197 Y23.779566 
G1 X-19.530881 Y23.769388 
G1 X-19.498606 Y23.762969 
G1 X-19.453012 Y23.744081 
G1 X-19.423206 Y23.734397 
G1 X-19.320084 Y23.734397 
G1 X-19.251106 Y23.762969 
G1 X-19.090094 Y23.794997 
G1 X-18.925897 Y23.794997 
G1 X-18.764884 Y23.762969 
G1 X-18.695906 Y23.734397 
G1 X-18.592788 Y23.734397 
G1 X-17.444997 Y24.881603 
G1 X-17.444997 Y26.064809 
G1 X-18.274941 Y26.894753 
G1 X-18.366147 Y27.031250 
G1 X-18.397347 Y27.106581 
G1 X-18.489287 Y27.106581 
G1 X-18.641669 Y26.954200 
G1 X-19.458328 Y26.954200 
G1 X-20.035797 Y27.531669 
G1 X-20.035797 Y27.834931 
G1 X-20.183244 Y27.773856 
G1 X-20.344256 Y27.741828 
G1 X-20.508422 Y27.741828 
G1 X-20.669434 Y27.773856 
G1 X-20.821103 Y27.836678 
G1 X-20.957600 Y27.927884 
G1 X-21.073681 Y28.043966 
G1 X-21.116547 Y28.086834 
G1 X-21.230819 Y28.201100 
G1 X-21.284762 Y28.281838 
G1 X-21.322022 Y28.337597 
G1 X-21.380053 Y28.477706 
G1 X-21.535997 Y28.854181 
G1 X-22.013813 Y29.332000 
G1 X-22.459641 Y29.516666 
G1 X-22.530387 Y29.545969 
G1 X-22.559000 Y29.565088 
G1 X-22.666888 Y29.637172 
G1 X-22.991534 Y29.961816 
G1 X-23.039262 Y30.033250 
G1 X-23.082744 Y30.098319 
G1 X-23.108231 Y30.159856 
G1 X-23.145566 Y30.249981 
G1 X-23.177594 Y30.410994 
G1 X-23.177594 Y30.575166 
G1 X-23.165212 Y30.637400 
G1 X-23.145569 Y30.736172 
G1 X-23.082747 Y30.887841 
G1 X-23.065081 Y30.914275 
G1 X-22.991544 Y31.024341 
G1 X-22.875463 Y31.140422 
G1 X-22.804028 Y31.188150 
G1 X-22.738959 Y31.231631 
G1 X-22.657419 Y31.265403 
G1 X-22.587297 Y31.294453 
G1 X-22.157341 Y31.472544 
G1 X-22.010900 Y31.533200 
G1 X-21.844656 Y31.567397 
G1 X-20.390313 Y31.567397 
G1 X-20.229300 Y31.535369 
G1 X-20.077631 Y31.472547 
G1 X-19.941134 Y31.381341 
G1 X-19.873206 Y31.313409 
G1 X-19.610713 Y31.313409 
G1 X-19.458328 Y31.465797 
G1 X-18.641669 Y31.465797 
G1 X-18.489284 Y31.313409 
G1 X-18.397350 Y31.313409 
G1 X-18.366147 Y31.388744 
G1 X-18.274941 Y31.525241 
G1 X-18.158859 Y31.641322 
G1 X-17.444997 Y32.355184 
G1 X-17.444997 Y33.684809 
G1 X-18.385184 Y34.624997 
G1 X-19.731525 Y34.624997 
G1 X-19.817650 Y34.567447 
G1 X-19.969319 Y34.504625 
G1 X-20.130331 Y34.472597 
G1 X-22.076425 Y34.472597 
G1 X-22.237437 Y34.504625 
G1 X-22.320728 Y34.539128 
G1 X-22.389103 Y34.567447 
G1 X-22.618816 Y34.662600 
G1 X-23.980775 Y34.662600 
G1 X-24.048719 Y34.594653 
G1 X-24.185216 Y34.503447 
G1 X-24.336884 Y34.440625 
G1 X-24.497897 Y34.408597 
G1 X-24.662094 Y34.408597 
G1 X-24.823106 Y34.440625 
G1 X-24.974775 Y34.503447 
G1 X-25.111272 Y34.594653 
G1 X-25.143113 Y34.594656 
G1 X-25.214547 Y34.546928 
G1 X-25.279616 Y34.503447 
G1 X-25.341153 Y34.477959 
G1 X-25.431278 Y34.440625 
G1 X-25.592291 Y34.408597 
G1 X-25.815359 Y34.408597 
G1 X-25.881025 Y34.406019 
G1 X-25.913784 Y34.408597 
G1 X-25.978244 Y34.421422 
G1 X-26.043166 Y34.431703 
G1 X-26.074797 Y34.440625 
G1 X-26.135528 Y34.465781 
G1 X-26.197184 Y34.488528 
G1 X-26.226466 Y34.503447 
G1 X-26.281106 Y34.539959 
G1 X-26.337156 Y34.574306 
G1 X-26.362962 Y34.594653 
G1 X-26.409400 Y34.641094 
G1 X-26.704475 Y34.662600 
G1 X-26.764647 Y34.622394 
G1 X-26.944050 Y34.548084 
G1 X-27.134503 Y34.510200 
G1 X-28.649494 Y34.510200 
G1 X-28.839947 Y34.548084 
G1 X-29.019350 Y34.622394 
G1 X-29.180809 Y34.730278 
G1 X-29.318119 Y34.867587 
G1 X-29.426003 Y35.029047 
G1 X-29.500312 Y35.208450 
G1 X-29.538197 Y35.398903 
G1 X-29.538197 Y35.593094 
G1 X-29.500312 Y35.783547 
G1 X-29.426003 Y35.962950 
G1 X-29.318119 Y36.124409 
G1 X-29.180809 Y36.261719 
G1 X-29.019350 Y36.369603 
G1 X-28.839947 Y36.443913 
G1 X-28.649494 Y36.481797 
G1 X-27.134503 Y36.481797 
G1 X-26.944050 Y36.443913 
G1 X-26.764647 Y36.369603 
G1 X-26.704475 Y36.329397 
G1 X-25.413397 Y36.329397 
G1 X-25.413397 Y36.356081 
G1 X-25.405397 Y36.396303 
G1 X-25.405397 Y36.866841 
G1 X-25.383222 Y36.949600 
G1 X-25.340381 Y37.023797 
G1 X-25.279797 Y37.084381 
G1 X-25.211178 Y37.124000 
G1 X-25.279797 Y37.163616 
G1 X-25.318778 Y37.202600 
G1 X-26.704475 Y37.202600 
G1 X-26.764647 Y37.162394 
G1 X-26.944050 Y37.088084 
G1 X-27.134503 Y37.050200 
G1 X-28.649494 Y37.050200 
G1 X-28.839947 Y37.088084 
G1 X-28.983747 Y37.147650 
G1 X-30.042600 Y36.088794 
G1 X-30.042600 Y14.315203 
G1 X-29.671163 Y13.943763 
G1 X-29.520366 Y13.992762 
G1 X-29.314312 Y14.025397 
G1 X-25.295684 Y14.025397 
G1 X-25.089631 Y13.992762 
G1 X-24.891222 Y13.928294 
G1 X-24.705337 Y13.833581 
G1 X-24.536559 Y13.710956 
G1 X-22.353000 Y11.527397 
G1 X-16.031397 Y11.527397 
G1 X-16.031397 Y16.974062 
G1 X-16.051222 Y17.008397 
G1 X-16.073397 Y17.091156 
G1 X-16.073397 Y18.176841 
G1 X-16.051222 Y18.259600 
G1 X-16.008381 Y18.333797 
G1 X-15.947797 Y18.394381 
G1 X-15.873600 Y18.437222 
G1 X-15.790841 Y18.459397 
G1 X-15.320294 Y18.459397 
G1 X-15.280081 Y18.467397 
G1 X-15.115916 Y18.467397 
G1 X-15.075703 Y18.459397 
G1 X-14.605156 Y18.459397 
G1 X-14.522397 Y18.437222 
G1 X-14.448200 Y18.394381 
G1 X-14.387616 Y18.333797 
G1 X-14.344775 Y18.259600 
G1 X-14.322600 Y18.176841 
G1 X-14.322600 Y17.091156 
G1 X-14.344775 Y17.008397 
G1 X-14.364600 Y16.974062 
G1 X-14.364600 Y11.485397 
G1 X-13.536397 Y11.485397 
G1 X-13.536397 Y16.960062 
G1 X-13.556222 Y16.994397 
G1 X-13.578397 Y17.077156 
G1 X-13.578397 Y18.162841 
G1 X-13.556222 Y18.245600 
G1 X-13.513381 Y18.319797 
G1 X-13.452797 Y18.380381 
G1 X-13.378600 Y18.423222 
G1 X-13.295841 Y18.445397 
G1 X-12.825300 Y18.445397 
G1 X-12.785081 Y18.453397 
G1 X-12.620916 Y18.453397 
G1 X-12.580697 Y18.445397 
G1 X-12.110156 Y18.445397 
G1 X-12.027397 Y18.423222 
G1 X-11.953200 Y18.380381 
G1 X-11.892616 Y18.319797 
G1 X-11.849775 Y18.245600 
G1 X-11.827600 Y18.162841 
G1 X-11.827600 Y17.077156 
G1 X-11.849775 Y16.994397 
G1 X-11.869600 Y16.960062 
G1 X-11.869600 Y11.485397 
G1 X-7.515684 Y11.485397 
G1 X-7.309631 Y11.452763 
G1 X-7.111222 Y11.388294 
G1 X-6.925338 Y11.293581 
G1 X-6.756559 Y11.170956 
G1 X-6.706000 Y11.120397 
G1 X-6.295881 Y11.120397 
G1 X-6.122631 Y11.178622 
G1 X-5.953581 Y11.205397 
G1 X-4.258416 Y11.205397 
G1 X-4.089366 Y11.178622 
G1 X-3.926581 Y11.125731 
G1 X-3.774078 Y11.048025 
G1 X-3.635606 Y10.947419 
G1 X-3.514578 Y10.826391 
G1 X-3.413972 Y10.687919 
G1 X-3.336266 Y10.535416 
G1 X-3.283375 Y10.372631 
G1 X-3.256600 Y10.203581 
G1 X-3.256600 Y10.032416 
G1 X-3.283375 Y9.863366 
G1 X-3.336266 Y9.700581 
G1 X-3.413972 Y9.548078 
G1 X-3.514578 Y9.409606 
G1 X-3.635606 Y9.288578 
G1 X-3.774078 Y9.187972 
G1 X-3.926581 Y9.110266 
G1 X-4.089366 Y9.057375 
G1 X-4.258416 Y9.030600 
G1 X-5.953581 Y9.030600 
G1 X-6.122631 Y9.057375 
G1 X-6.285416 Y9.110266 
G1 X-6.437919 Y9.187972 
G1 X-6.706000 Y9.199600 
G1 X-6.756559 Y9.149041 
G1 X-6.925338 Y9.026416 
G1 X-7.111222 Y8.931703 
G1 X-7.309631 Y8.867234 
G1 X-7.515684 Y8.834600 
G1 X-15.260312 Y8.834600 
G1 X-15.466366 Y8.867234 
G1 X-15.495191 Y8.876600 
G1 X-22.520809 Y8.876600 
G1 X-22.549631 Y8.867234 
G1 X-22.755684 Y8.834600 
G1 X-22.964312 Y8.834600 
G1 X-23.170366 Y8.867234 
G1 X-23.368775 Y8.931703 
G1 X-23.554659 Y9.026416 
G1 X-23.723437 Y9.149041 
G1 X-25.948997 Y11.374600 
G1 X-29.314312 Y11.374600 
G1 X-29.350987 Y11.380409 
G1 X-29.646600 Y11.084794 
G1 X-29.646600 Y9.020413 
G1 X-29.543972 Y8.879919 
G1 X-29.466266 Y8.727416 
G1 X-29.413375 Y8.564631 
G1 X-29.386600 Y8.395581 
G1 X-29.386600 Y6.700416 
G1 X-29.413375 Y6.531366 
G1 X-29.466266 Y6.368581 
G1 X-29.543972 Y6.216078 
G1 X-29.644578 Y6.077606 
G1 X-29.646600 Y4.735916 
G1 X-29.678628 Y4.574903 
G1 X-29.741450 Y4.423234 
G1 X-29.832656 Y4.286738 
G1 X-29.948738 Y4.170656 
G1 X-30.117600 Y4.001797 
G1 X-30.117600 Y3.762156 
G1 X-30.139775 Y3.679397 
G1 X-30.182616 Y3.605200 
G1 X-30.243200 Y3.544616 
G1 X-30.317397 Y3.501775 
G1 X-30.400156 Y3.479600 
G1 X-31.485841 Y3.479600 
G1 X-31.568600 Y3.501775 
G1 X-31.642797 Y3.544616 
G1 X-31.703381 Y3.605200 
G1 X-31.746222 Y3.679397 
G1 X-31.768397 Y3.762156 
G1 X-31.768397 Y4.232703 
G1 X-31.776397 Y4.272916 
G1 X-31.776397 Y4.437081 
G1 X-31.768397 Y4.477294 
G1 X-31.768397 Y4.947841 
G1 X-31.746222 Y5.030600 
G1 X-31.703381 Y5.104797 
G1 X-31.642797 Y5.165381 
G1 X-31.568600 Y5.208222 
G1 X-31.485841 Y5.230397 
G1 X-31.313397 Y5.230397 
G1 X-31.313397 Y6.091341 
G1 X-31.404025 Y6.216078 
G1 X-31.481731 Y6.368581 
G1 X-31.534622 Y6.531366 
G1 X-31.561397 Y6.700416 
G1 X-31.561397 Y8.395581 
G1 X-31.534622 Y8.564631 
G1 X-31.481731 Y8.727416 
G1 X-31.404025 Y8.879919 
G1 X-31.313397 Y9.004656 
G1 X-31.313397 Y11.512081 
G1 X-31.281369 Y11.673094 
G1 X-31.218547 Y11.824763 
G1 X-31.127341 Y11.961259 
G1 X-31.011259 Y12.077341 
G1 X-30.586600 Y12.501997 
G1 X-31.523341 Y13.438738 
G1 X-31.614547 Y13.575234 
G1 X-31.677369 Y13.726903 
G1 X-31.709397 Y13.887916 
G1 X-31.709397 Y36.516081 
G1 X-31.677369 Y36.677094 
G1 X-31.614547 Y36.828763 
G1 X-31.523341 Y36.965259 
G1 X-29.805259 Y38.683341 
G1 X-29.668762 Y38.774547 
G1 X-29.517094 Y38.837369 
G1 X-29.356081 Y38.869397 
G1 X-29.079522 Y38.869397 
G1 X-29.019350 Y38.909603 
G1 X-28.839947 Y38.983913 
G1 X-28.649494 Y39.021797 
G1 X-27.134503 Y39.021797 
G1 X-26.944050 Y38.983913 
G1 X-26.764647 Y38.909603 
G1 X-26.704475 Y38.869397 
G1 X-20.729203 Y38.869397 
G1 X-19.756397 Y39.842203 
G1 X-19.756397 Y44.883600 
G1 X-20.494084 Y44.883600 
G1 X-20.627078 Y44.786972 
G1 X-20.779581 Y44.709266 
G1 X-20.942366 Y44.656375 
G1 X-21.111416 Y44.629600 
G1 X-22.806581 Y44.629600 
G1 X-22.975631 Y44.656375 
G1 X-23.138416 Y44.709266 
G1 X-23.290919 Y44.786972 
G1 X-23.428044 Y44.886600 
G1 X-23.509062 Y44.886600 
G1 X-23.543397 Y44.866775 
G1 X-23.626156 Y44.844600 
G1 X-24.711841 Y44.844600 
G1 X-24.794600 Y44.866775 
G1 X-24.868797 Y44.909616 
G1 X-24.929381 Y44.970200 
G1 X-24.972222 Y45.044397 
G1 X-24.994397 Y45.127156 
G1 X-24.994397 Y45.597697 
G1 X-25.002397 Y45.637916 
G1 X-25.002397 Y45.802081 
G1 X-24.994397 Y45.842300 
G1 X-24.994397 Y46.312841 
G1 X-24.972222 Y46.395600 
G1 X-24.929381 Y46.469797 
G1 X-24.868797 Y46.530381 
G1 X-24.794600 Y46.573222 
G1 X-24.711841 Y46.595397 
G1 X-23.626156 Y46.595397 
G1 X-23.543397 Y46.573222 
G1 X-23.509062 Y46.553397 
G1 X-23.419784 Y46.553397 
G1 X-23.290919 Y46.647025 
G1 X-23.138416 Y46.724731 
G1 X-22.975631 Y46.777622 
G1 X-22.806581 Y46.804397 
G1 X-21.111416 Y46.804397 
G1 X-20.942366 Y46.777622 
G1 X-20.779581 Y46.724731 
G1 X-20.627078 Y46.647025 
G1 X-20.494084 Y46.550397 
G1 X-19.756397 Y46.550397 
G1 X-19.756397 Y55.915794 
G1 X-22.787203 Y58.946600 
G1 X-28.090081 Y58.946600 
G1 X-28.251094 Y58.978628 
G1 X-28.402763 Y59.041450 
G1 X-28.539259 Y59.132656 
G1 X-28.655341 Y59.248737 
G1 X-29.925341 Y60.518738 
G1 X-30.016547 Y60.655234 
G1 X-30.079369 Y60.806903 
G1 X-30.111397 Y60.967916 
G1 X-30.111397 Y62.520397 
G1 X-30.157600 Y62.532775 
G1 X-30.231797 Y62.575616 
G1 X-30.292381 Y62.636200 
G1 X-30.335222 Y62.710397 
G1 X-30.357397 Y62.793156 
G1 X-30.357397 Y64.386841 
G1 X-30.335222 Y64.469600 
G1 X-30.292381 Y64.543797 
G1 X-30.231797 Y64.604381 
G1 X-30.157600 Y64.647222 
G1 X-30.074841 Y64.669397 
G1 X-28.481156 Y64.669397 
G1 X-28.398397 Y64.647222 
G1 X-28.324200 Y64.604381 
G1 X-28.263616 Y64.543797 
G1 X-28.220775 Y64.469600 
G1 X-28.198600 Y64.386841 
G1 X-28.198600 Y62.793156 
G1 X-28.220775 Y62.710397 
G1 X-28.263616 Y62.636200 
G1 X-28.324200 Y62.575616 
G1 X-28.398397 Y62.532775 
G1 X-28.444600 Y62.520397 
G1 X-28.444600 Y61.395203 
G1 X-27.662794 Y60.613397 
G1 X-22.359916 Y60.613397 
G1 X-22.198903 Y60.581369 
G1 X-22.047234 Y60.518547 
G1 X-21.910737 Y60.427341 
G1 X-18.391738 Y56.908341 
G1 X-18.275656 Y56.792259 
G1 X-18.184450 Y56.655763 
G1 X-18.121628 Y56.504094 
G1 X-18.089600 Y56.343081 
G1 X-18.089600 Y39.414916 
G1 X-18.121628 Y39.253903 
G1 X-18.184450 Y39.102234 
G1 X-18.275656 Y38.965738 
G1 X-19.852737 Y37.388656 
G1 X-19.989234 Y37.297450 
G1 X-20.140903 Y37.234628 
G1 X-20.301916 Y37.202600 
G1 X-23.841219 Y37.202600 
G1 X-23.880200 Y37.163616 
G1 X-23.948819 Y37.124000 
G1 X-23.880200 Y37.084381 
G1 X-23.819616 Y37.023797 
G1 X-23.776775 Y36.949600 
G1 X-23.754600 Y36.866841 
G1 X-23.754600 Y36.460588 
G1 X-23.712763 Y36.488547 
G1 X-23.561094 Y36.551369 
G1 X-23.400081 Y36.583397 
G1 X-20.095056 Y36.583397 
G1 X-19.561162 Y36.804541 
G1 X-17.691541 Y38.674163 
G1 X-17.470397 Y39.208056 
G1 X-17.470397 Y56.549937 
G1 X-17.691541 Y57.083831 
G1 X-18.275425 Y57.667713 
G1 X-21.619163 Y61.011453 
G1 X-22.153056 Y61.232597 
G1 X-27.000538 Y61.232597 
G1 X-27.161550 Y61.264625 
G1 X-27.222556 Y61.289897 
G1 X-27.313216 Y61.327447 
G1 X-27.360322 Y61.358925 
G1 X-27.449716 Y61.418653 
G1 X-27.563981 Y61.532925 
G1 X-27.594844 Y61.578216 
G1 X-27.657000 Y61.671231 
G1 X-27.683772 Y61.735872 
G1 X-27.719825 Y61.822903 
G1 X-27.745119 Y61.950075 
G1 X-27.751850 Y61.983913 
G1 X-27.751850 Y62.148081 
G1 X-27.719822 Y62.309094 
G1 X-27.685784 Y62.391266 
G1 X-27.657000 Y62.460759 
G1 X-27.579397 Y62.648103 
G1 X-27.579397 Y64.531891 
G1 X-27.723203 Y64.879072 
G1 X-27.988922 Y65.144791 
G1 X-28.336103 Y65.288597 
G1 X-30.219887 Y65.288597 
G1 X-30.567072 Y65.144791 
G1 X-30.832791 Y64.879072 
G1 X-31.043584 Y64.370163 
G1 X-31.134791 Y64.233666 
G1 X-31.250872 Y64.117584 
G1 X-31.387369 Y64.026378 
G1 X-31.539037 Y63.963556 
G1 X-31.700047 Y63.931528 
G1 X-31.864216 Y63.931528 
G1 X-32.025228 Y63.963556 
G1 X-32.176897 Y64.026378 
G1 X-32.313394 Y64.117584 
G1 X-32.429475 Y64.233666 
G1 X-32.520681 Y64.370163 
G1 X-32.735203 Y64.888072 
G1 X-33.000925 Y65.153791 
G1 X-33.348103 Y65.297597 
G1 X-35.231891 Y65.297597 
G1 X-35.579072 Y65.153791 
G1 X-35.844791 Y64.888072 
G1 X-36.051450 Y64.389147 
G1 X-36.142656 Y64.252647 
G1 X-36.199791 Y64.195516 
G1 X-36.258738 Y64.136566 
G1 X-36.395238 Y64.045362 
G1 X-36.546906 Y63.982537 
G1 X-36.679691 Y63.956128 
G1 X-36.707916 Y63.950513 
G1 X-36.872084 Y63.950513 
G1 X-37.033097 Y63.982541 
G1 X-37.180378 Y64.043547 
G1 X-37.321263 Y64.136569 
G1 X-37.378394 Y64.193703 
G1 X-37.437344 Y64.252650 
G1 X-37.528547 Y64.389150 
G1 X-37.735206 Y64.888075 
G1 X-38.000922 Y65.153791 
G1 X-38.348103 Y65.297597 
G1 X-40.231891 Y65.297597 
G1 X-40.579072 Y65.153791 
G1 X-40.844791 Y64.888072 
G1 X-40.988597 Y64.540891 
G1 X-40.988597 Y62.657103 
G1 X-40.917450 Y62.485341 
G1 X-40.856350 Y62.337825 
G1 X-40.822597 Y62.172659 
G1 X-40.822597 Y60.671056 
G1 X-40.601453 Y60.137163 
G1 X-40.078734 Y59.614444 
G1 X-36.737622 Y56.273337 
G1 X-36.676459 Y56.212172 
G1 X-36.621541 Y56.157256 
G1 X-36.530334 Y56.020759 
G1 X-36.467512 Y55.869091 
G1 X-36.435484 Y55.708078 
G1 X-36.435484 Y55.543912 
G1 X-36.467512 Y55.382900 
G1 X-36.530334 Y55.231231 
G1 X-36.621541 Y55.094734 
G1 X-36.737622 Y54.978653 
G1 X-36.874119 Y54.887447 
G1 X-37.025787 Y54.824625 
G1 X-37.186800 Y54.792597 
G1 X-40.928938 Y54.792597 
G1 X-41.462831 Y54.571453 
G1 X-41.871450 Y54.162834 
G1 X-41.987437 Y53.882819 
G1 X-42.042625 Y53.749575 
G1 X-42.078431 Y53.695994 
G1 X-42.133828 Y53.613078 
G1 X-42.249909 Y53.496997 
G1 X-44.113016 Y51.633900 
G1 X-44.674600 Y51.072309 
G1 X-44.674600 Y16.237681 
G1 X-44.606656 Y16.169741 
G1 X-40.228831 Y11.791913 
G1 X-40.137625 Y11.655416 
G1 X-39.966453 Y11.242162 
G1 X-37.446653 Y8.722366 
G1 X-37.355447 Y8.585869 
G1 X-37.292625 Y8.434200 
G1 X-37.260597 Y8.273188 
G1 X-37.260597 Y6.446528 
G1 X-37.000788 Y5.819284 
G1 X-36.520709 Y5.339206 
G1 X-35.893466 Y5.079397 
G1 X-35.210950 Y5.079397 
G1 X-35.059066 Y5.049181 
G1 X-34.898272 Y4.984547 
G1 X-34.761775 Y4.893341 
G1 X-34.645691 Y4.777259 
G1 X-34.591747 Y4.696522 
G1 X-34.554488 Y4.640763 
G1 X-34.491666 Y4.489094 
G1 X-34.251459 Y3.909175 
G1 X-34.202128 Y3.842309 
G1 X-34.146231 Y3.758662 
G1 X-34.126469 Y3.710953 
G1 X-34.083403 Y3.606994 
G1 X-33.943787 Y3.269919 
G1 X-33.678072 Y3.004203 
G1 X-33.330894 Y2.860397 
G1 X-30.255103 Y2.860397 
G1 X-29.907922 Y3.004203 
G1 X-29.642206 Y3.269919 
G1 X-29.502597 Y3.606972 
G1 X-29.439769 Y3.758653 
G1 X-29.349363 Y3.893950 
G1 X-29.286578 Y3.957134 
G1 X-29.248538 Y3.995175 
G1 X-29.027397 Y4.529056 
G1 X-29.027397 Y5.267859 
G1 X-29.029975 Y5.333491 
G1 X-29.027397 Y5.366266 
G1 X-29.014572 Y5.430734 
G1 X-29.004294 Y5.495634 
G1 X-28.995369 Y5.527278 
G1 X-28.970216 Y5.588000 
G1 X-28.947472 Y5.649653 
G1 X-28.932547 Y5.678947 
G1 X-28.896041 Y5.733581 
G1 X-28.861697 Y5.789625 
G1 X-28.841341 Y5.815444 
G1 X-28.794894 Y5.861887 
G1 X-28.767409 Y5.891622 
G1 X-28.767409 Y6.083100 
G1 X-28.864025 Y6.216078 
G1 X-28.941731 Y6.368581 
G1 X-28.994622 Y6.531366 
G1 X-29.021397 Y6.700416 
G1 X-29.021397 Y8.395581 
G1 X-28.994622 Y8.564631 
G1 X-28.941731 Y8.727416 
G1 X-28.864025 Y8.879919 
G1 X-28.767409 Y9.012897 
G1 X-28.767409 Y9.204372 
G1 X-28.794894 Y9.234106 
G1 X-28.841341 Y9.280550 
G1 X-28.861697 Y9.306369 
G1 X-28.896041 Y9.362416 
G1 X-28.932547 Y9.417047 
G1 X-28.947472 Y9.446341 
G1 X-28.970216 Y9.507997 
G1 X-28.995369 Y9.568716 
G1 X-29.004294 Y9.600359 
G1 X-29.014572 Y9.665263 
G1 X-29.027397 Y9.729728 
G1 X-29.029975 Y9.762503 
G1 X-29.027397 Y9.828138 
G1 X-29.027397 Y10.004081 
G1 X-28.995369 Y10.165094 
G1 X-28.932547 Y10.316762 
G1 X-28.841341 Y10.453259 
G1 X-28.725259 Y10.569341 
G1 X-28.588763 Y10.660547 
G1 X-28.437094 Y10.723369 
G1 X-28.276081 Y10.755397 
G1 X-26.468600 Y10.755397 
G1 X-26.307588 Y10.723369 
G1 X-26.155919 Y10.660547 
G1 X-26.019422 Y10.569341 
G1 X-25.903341 Y10.453259 
G1 X-24.054016 Y8.603931 
G1 X-23.720534 Y8.411397 
G1 X-6.570913 Y8.411397 
G1 X-6.437919 Y8.508025 
G1 X-6.285416 Y8.585731 
G1 X-6.122631 Y8.638622 
G1 X-5.953581 Y8.665397 
G1 X-4.258416 Y8.665397 
G1 X-4.089366 Y8.638622 
G1 X-3.926581 Y8.585731 
G1 X-3.774078 Y8.508025 
G1 X-3.641100 Y8.411409 
G1 X-3.599519 Y8.411409 
G1 X-3.581831 Y8.444847 
G1 X-3.551284 Y8.483591 
G1 X-3.523872 Y8.524622 
G1 X-3.480200 Y8.573769 
G1 X-3.442672 Y8.605819 
G1 X-2.897206 Y9.151284 
G1 X-2.637397 Y9.778528 
G1 X-2.637397 Y10.457463 
G1 X-2.859316 Y10.993222 
G1 X-2.922144 Y11.144900 
G1 X-2.954172 Y11.305912 
G1 X-2.954172 Y11.470078 
G1 X-2.922144 Y11.631091 
G1 X-2.637397 Y12.318531 
G1 X-2.637397 Y12.997462 
G1 X-2.859319 Y13.533228 
G1 X-2.920422 Y13.680744 
G1 X-2.954172 Y13.845909 
G1 X-2.954172 Y14.010078 
G1 X-2.922144 Y14.171091 
G1 X-2.637397 Y14.858531 
G1 X-2.637397 Y15.349191 
G1 X-2.605369 Y15.510203 
G1 X-2.542547 Y15.661872 
G1 X-2.451341 Y15.798369 
G1 X-2.335259 Y15.914450 
G1 X-2.309256 Y15.940453 
G1 X-2.172759 Y16.031659 
G1 X-2.021091 Y16.094481 
G1 X-1.860078 Y16.126509 
G1 X-1.695912 Y16.126509 
G1 X-1.534900 Y16.094481 
G1 X-1.383231 Y16.031659 
G1 X-1.246734 Y15.940453 
G1 X-1.130653 Y15.824372 
G1 X-1.039447 Y15.687875 
G1 X-0.976625 Y15.536206 
G1 X-0.944597 Y15.375194 
G1 X-0.944597 Y4.877428 
G1 X-0.974809 Y4.725544 
G1 X-1.039447 Y4.564750 
G1 X-1.130653 Y4.428253 
G1 X-1.246734 Y4.312169 
G0 Z1.000000 
G0 X-3.514578 Y11.949606 
G1 Z-0.070000 F25    
G1 X-3.635606 Y11.828578 F50    
G1 X-3.774078 Y11.727972 
G1 X-3.926581 Y11.650266 
G1 X-4.089366 Y11.597375 
G1 X-4.258416 Y11.570600 
G1 X-5.953581 Y11.570600 
G1 X-6.122631 Y11.597375 
G1 X-6.285416 Y11.650266 
G1 X-6.437919 Y11.727972 
G1 X-6.576391 Y11.828578 
G1 X-6.642159 Y11.894350 
G1 X-6.702763 Y11.919450 
G1 X-6.839259 Y12.010656 
G1 X-6.955341 Y12.126738 
G1 X-8.902341 Y14.073738 
G1 X-8.993547 Y14.210234 
G1 X-9.056369 Y14.361903 
G1 X-9.088397 Y14.522916 
G1 X-9.088397 Y17.227081 
G1 X-9.056369 Y17.388094 
G1 X-8.993547 Y17.539762 
G1 X-8.902341 Y17.676259 
G1 X-8.786259 Y17.792341 
G1 X-4.643397 Y21.935200 
G1 X-4.643397 Y39.024794 
G1 X-6.598894 Y40.980294 
G1 X-6.630138 Y40.986506 
G1 X-6.804919 Y41.058903 
G1 X-6.962219 Y41.164009 
G1 X-7.095987 Y41.297778 
G1 X-7.201094 Y41.455078 
G1 X-7.273491 Y41.629859 
G1 X-7.310397 Y41.815406 
G1 X-7.310397 Y42.004591 
G1 X-7.273491 Y42.190137 
G1 X-7.201094 Y42.364919 
G1 X-7.095987 Y42.522219 
G1 X-6.962219 Y42.655988 
G1 X-6.804919 Y42.761094 
G1 X-6.630138 Y42.833491 
G1 X-6.444591 Y42.870397 
G1 X-6.255406 Y42.870397 
G1 X-6.069859 Y42.833491 
G1 X-5.895078 Y42.761094 
G1 X-5.737778 Y42.655988 
G1 X-5.604009 Y42.522219 
G1 X-5.498903 Y42.364919 
G1 X-5.426506 Y42.190137 
G1 X-5.420294 Y42.158894 
G1 X-3.278738 Y40.017341 
G1 X-3.162656 Y39.901259 
G1 X-3.071450 Y39.764763 
G1 X-3.008628 Y39.613094 
G1 X-2.976600 Y39.452081 
G1 X-2.976600 Y21.507916 
G1 X-3.008628 Y21.346903 
G1 X-3.071450 Y21.195234 
G1 X-3.162656 Y21.058737 
G1 X-3.278738 Y20.942656 
G1 X-7.421600 Y16.799794 
G1 X-7.421600 Y14.950203 
G1 X-6.173494 Y13.702094 
G1 X-6.122631 Y13.718622 
G1 X-5.953581 Y13.745397 
G1 X-4.258416 Y13.745397 
G1 X-4.089366 Y13.718622 
G1 X-3.926581 Y13.665731 
G1 X-3.774078 Y13.588025 
G1 X-3.635606 Y13.487419 
G1 X-3.514578 Y13.366391 
G1 X-3.413972 Y13.227919 
G1 X-3.336266 Y13.075416 
G1 X-3.283375 Y12.912631 
G1 X-3.256600 Y12.743581 
G1 X-3.256600 Y12.572416 
G1 X-3.283375 Y12.403366 
G1 X-3.336266 Y12.240581 
G1 X-3.413972 Y12.088078 
G1 X-3.514578 Y11.949606 
G0 Z1.000000 
G0 X-3.514578 Y14.489606 
G1 Z-0.070000 F25    
G1 X-3.635606 Y14.368578 F50    
G1 X-3.774078 Y14.267972 
G1 X-3.926581 Y14.190266 
G1 X-4.089366 Y14.137375 
G1 X-4.258416 Y14.110600 
G1 X-5.953581 Y14.110600 
G1 X-6.122631 Y14.137375 
G1 X-6.285416 Y14.190266 
G1 X-6.437919 Y14.267972 
G1 X-6.576391 Y14.368578 
G1 X-6.697419 Y14.489606 
G1 X-6.798025 Y14.628078 
G1 X-6.875731 Y14.780581 
G1 X-6.928622 Y14.943366 
G1 X-6.955397 Y15.112416 
G1 X-6.955397 Y15.283581 
G1 X-6.928622 Y15.452631 
G1 X-6.875731 Y15.615416 
G1 X-6.798025 Y15.767919 
G1 X-6.697419 Y15.906391 
G1 X-6.576391 Y16.027419 
G1 X-6.437919 Y16.128025 
G1 X-6.285416 Y16.205731 
G1 X-6.122631 Y16.258622 
G1 X-5.953581 Y16.285397 
G1 X-5.197200 Y16.285397 
G1 X-2.484397 Y18.998203 
G1 X-2.484397 Y51.881797 
G1 X-5.261200 Y54.658600 
G1 X-5.958841 Y54.658600 
G1 X-6.041600 Y54.680775 
G1 X-6.115797 Y54.723616 
G1 X-6.176381 Y54.784200 
G1 X-6.219222 Y54.858397 
G1 X-6.241397 Y54.941156 
G1 X-6.241397 Y56.534841 
G1 X-6.219222 Y56.617600 
G1 X-6.176381 Y56.691797 
G1 X-6.115797 Y56.752381 
G1 X-6.041600 Y56.795222 
G1 X-5.958841 Y56.817397 
G1 X-4.365156 Y56.817397 
G1 X-4.282397 Y56.795222 
G1 X-4.208200 Y56.752381 
G1 X-4.147616 Y56.691797 
G1 X-4.104775 Y56.617600 
G1 X-4.082600 Y56.534841 
G1 X-4.082600 Y55.837200 
G1 X-1.119741 Y52.874341 
G1 X-1.003656 Y52.758259 
G1 X-0.912450 Y52.621763 
G1 X-0.849628 Y52.470094 
G1 X-0.817600 Y52.309081 
G1 X-0.817600 Y18.570916 
G1 X-0.849628 Y18.409903 
G1 X-0.912450 Y18.258234 
G1 X-1.003656 Y18.121737 
G1 X-3.394903 Y15.730494 
G1 X-3.336266 Y15.615416 
G1 X-3.283375 Y15.452631 
G1 X-3.256600 Y15.283581 
G1 X-3.256600 Y15.112416 
G1 X-3.283375 Y14.943366 
G1 X-3.336266 Y14.780581 
G1 X-3.413972 Y14.628078 
G1 X-3.514578 Y14.489606 
G0 Z1.000000 
G0 X-9.769656 Y14.382194 
G1 Z-0.070000 F25    
G1 X-9.769653 Y14.382191 F50    
G1 X-9.740606 Y14.338712 
G1 X-9.678450 Y14.245697 
G1 X-9.615628 Y14.094028 
G1 X-9.486453 Y13.782166 
G1 X-9.173541 Y13.469259 
G1 X-9.111387 Y13.376238 
G1 X-9.082334 Y13.332759 
G1 X-9.046288 Y13.245728 
G1 X-9.019512 Y13.181094 
G1 X-8.987484 Y13.020081 
G1 X-8.987484 Y12.855913 
G1 X-8.993494 Y12.825703 
G1 X-9.019509 Y12.694903 
G1 X-9.057066 Y12.604244 
G1 X-9.082334 Y12.543231 
G1 X-9.142062 Y12.453844 
G1 X-9.173538 Y12.406738 
G1 X-9.289619 Y12.290653 
G1 X-9.382641 Y12.228500 
G1 X-9.426119 Y12.199447 
G1 X-9.513150 Y12.163400 
G1 X-9.577784 Y12.136625 
G1 X-9.738797 Y12.104597 
G1 X-10.499081 Y12.104597 
G1 X-10.660094 Y12.136625 
G1 X-10.811763 Y12.199447 
G1 X-10.948259 Y12.290653 
G1 X-11.064341 Y12.406734 
G1 X-11.155547 Y12.543231 
G1 X-11.218369 Y12.694900 
G1 X-11.250397 Y12.855913 
G1 X-11.250397 Y13.933016 
G1 X-11.218369 Y14.094031 
G1 X-11.193097 Y14.155038 
G1 X-11.155547 Y14.245697 
G1 X-11.124069 Y14.292803 
G1 X-11.064341 Y14.382197 
G1 X-10.950069 Y14.496462 
G1 X-10.904778 Y14.527325 
G1 X-10.811763 Y14.589481 
G1 X-10.747122 Y14.616253 
G1 X-10.660091 Y14.652306 
G1 X-10.532919 Y14.677600 
G1 X-10.499081 Y14.684331 
G1 X-10.334912 Y14.684331 
G1 X-10.173900 Y14.652303 
G1 X-10.112894 Y14.627031 
G1 X-10.022234 Y14.589481 
G1 X-9.975128 Y14.558003 
G1 X-9.885734 Y14.498275 
G1 X-9.771469 Y14.384003 
G0 Z1.000000 
G0 X-9.751669 Y19.334200 
G1 Z-0.070000 F25    
G1 X-10.568328 Y19.334200 F50    
G1 X-11.145797 Y19.911669 
G1 X-11.145797 Y20.728328 
G1 X-10.568328 Y21.305797 
G1 X-10.352803 Y21.305797 
G1 X-7.279703 Y24.378894 
G1 X-7.273491 Y24.410138 
G1 X-7.201094 Y24.584919 
G1 X-7.095987 Y24.742219 
G1 X-6.962219 Y24.875988 
G1 X-6.804919 Y24.981094 
G1 X-6.630138 Y25.053491 
G1 X-6.444591 Y25.090397 
G1 X-6.255406 Y25.090397 
G1 X-6.069859 Y25.053491 
G1 X-5.895078 Y24.981094 
G1 X-5.737778 Y24.875988 
G1 X-5.604009 Y24.742219 
G1 X-5.498903 Y24.584919 
G1 X-5.426506 Y24.410138 
G1 X-5.389600 Y24.224591 
G1 X-5.389600 Y24.035406 
G1 X-5.426506 Y23.849859 
G1 X-5.498903 Y23.675078 
G1 X-5.604009 Y23.517778 
G1 X-5.737778 Y23.384009 
G1 X-5.895078 Y23.278903 
G1 X-6.069859 Y23.206506 
G1 X-6.101103 Y23.200294 
G1 X-9.174200 Y20.127194 
G1 X-9.174200 Y19.911669 
G1 X-9.751669 Y19.334200 
G0 Z1.000000 
G0 X-11.827600 Y19.862841 
G1 Z-0.070000 F25    
G1 X-11.827600 Y18.777156 F50    
G1 X-11.849775 Y18.694397 
G1 X-11.892616 Y18.620200 
G1 X-11.953200 Y18.559616 
G1 X-12.027397 Y18.516775 
G1 X-12.110156 Y18.494600 
G1 X-12.580700 Y18.494600 
G1 X-12.620916 Y18.486600 
G1 X-12.785081 Y18.486600 
G1 X-12.825297 Y18.494600 
G1 X-13.295841 Y18.494600 
G1 X-13.378600 Y18.516775 
G1 X-13.452797 Y18.559616 
G1 X-13.513381 Y18.620200 
G1 X-13.556222 Y18.694397 
G1 X-13.578397 Y18.777156 
G1 X-13.578397 Y19.862841 
G1 X-13.556222 Y19.945600 
G1 X-13.536397 Y19.979934 
G1 X-13.536397 Y21.669081 
G1 X-13.504369 Y21.830094 
G1 X-13.441547 Y21.981762 
G1 X-13.350341 Y22.118259 
G1 X-12.263397 Y23.205203 
G1 X-12.263397 Y28.864794 
G1 X-14.218894 Y30.820294 
G1 X-14.250137 Y30.826506 
G1 X-14.424919 Y30.898903 
G1 X-14.582219 Y31.004009 
G1 X-14.715988 Y31.137778 
G1 X-14.821094 Y31.295078 
G1 X-14.893491 Y31.469859 
G1 X-14.930397 Y31.655406 
G1 X-14.930397 Y31.844591 
G1 X-14.893491 Y32.030138 
G1 X-14.821094 Y32.204919 
G1 X-14.715988 Y32.362219 
G1 X-14.582219 Y32.495987 
G1 X-14.424919 Y32.601094 
G1 X-14.250137 Y32.673491 
G1 X-14.064591 Y32.710397 
G1 X-13.875406 Y32.710397 
G1 X-13.689859 Y32.673491 
G1 X-13.515078 Y32.601094 
G1 X-13.357778 Y32.495987 
G1 X-13.224009 Y32.362219 
G1 X-13.118903 Y32.204919 
G1 X-13.046506 Y32.030138 
G1 X-13.040294 Y31.998894 
G1 X-10.898737 Y29.857341 
G1 X-10.782656 Y29.741259 
G1 X-10.691450 Y29.604762 
G1 X-10.628628 Y29.453094 
G1 X-10.596600 Y29.292081 
G1 X-10.596600 Y22.777916 
G1 X-10.628628 Y22.616903 
G1 X-10.691450 Y22.465234 
G1 X-10.782656 Y22.328737 
G1 X-11.869600 Y21.241794 
G1 X-11.869600 Y19.979934 
G1 X-11.849775 Y19.945600 
G1 X-11.827600 Y19.862841 
G0 Z1.000000 
G0 X-14.322600 Y19.876841 
G1 Z-0.070000 F25    
G1 X-14.322600 Y18.791156 F50    
G1 X-14.344775 Y18.708397 
G1 X-14.387616 Y18.634200 
G1 X-14.448200 Y18.573616 
G1 X-14.522397 Y18.530775 
G1 X-14.605156 Y18.508600 
G1 X-15.075703 Y18.508600 
G1 X-15.115916 Y18.500600 
G1 X-18.133978 Y18.500600 
G1 X-18.184678 Y18.430816 
G1 X-18.304816 Y18.310678 
G1 X-18.442269 Y18.210812 
G1 X-18.593653 Y18.133681 
G1 X-18.755237 Y18.081178 
G1 X-18.923047 Y18.054600 
G1 X-19.092950 Y18.054600 
G1 X-19.260759 Y18.081178 
G1 X-19.422344 Y18.133681 
G1 X-19.573728 Y18.210812 
G1 X-19.711181 Y18.310678 
G1 X-19.831319 Y18.430816 
G1 X-19.931184 Y18.568269 
G1 X-20.008316 Y18.719653 
G1 X-20.060819 Y18.881238 
G1 X-20.087397 Y19.049047 
G1 X-20.087397 Y19.218950 
G1 X-20.060819 Y19.386759 
G1 X-20.008316 Y19.548344 
G1 X-19.931184 Y19.699728 
G1 X-19.831319 Y19.837181 
G1 X-19.711181 Y19.957319 
G1 X-19.573728 Y20.057184 
G1 X-19.422344 Y20.134316 
G1 X-19.260759 Y20.186819 
G1 X-19.092950 Y20.213397 
G1 X-18.923047 Y20.213397 
G1 X-18.755237 Y20.186819 
G1 X-18.695463 Y20.167397 
G1 X-16.073397 Y20.167397 
G1 X-16.073397 Y22.942081 
G1 X-16.041369 Y23.103094 
G1 X-15.978547 Y23.254762 
G1 X-15.887341 Y23.391259 
G1 X-15.771259 Y23.507341 
G1 X-14.899703 Y24.378894 
G1 X-14.893491 Y24.410138 
G1 X-14.821094 Y24.584919 
G1 X-14.715988 Y24.742219 
G1 X-14.582219 Y24.875988 
G1 X-14.424919 Y24.981094 
G1 X-14.250137 Y25.053491 
G1 X-14.064591 Y25.090397 
G1 X-13.875406 Y25.090397 
G1 X-13.689859 Y25.053491 
G1 X-13.515078 Y24.981094 
G1 X-13.357778 Y24.875988 
G1 X-13.224009 Y24.742219 
G1 X-13.118903 Y24.584919 
G1 X-13.046506 Y24.410138 
G1 X-13.009600 Y24.224591 
G1 X-13.009600 Y24.035406 
G1 X-13.046506 Y23.849859 
G1 X-13.118903 Y23.675078 
G1 X-13.224009 Y23.517778 
G1 X-13.357778 Y23.384009 
G1 X-13.515078 Y23.278903 
G1 X-13.689859 Y23.206506 
G1 X-13.721103 Y23.200294 
G1 X-14.406600 Y22.514794 
G1 X-14.406600 Y20.052781 
G1 X-14.344775 Y19.959600 
G1 X-14.322600 Y19.876841 
G0 Z1.000000 
G0 X-18.304816 Y17.457319 
G1 Z-0.070000 F25    
G1 X-18.184678 Y17.337181 F50    
G1 X-18.084813 Y17.199728 
G1 X-18.007681 Y17.048344 
G1 X-17.955178 Y16.886759 
G1 X-17.928600 Y16.718950 
G1 X-17.928600 Y16.549047 
G1 X-17.955178 Y16.381238 
G1 X-18.007681 Y16.219653 
G1 X-18.084813 Y16.068269 
G1 X-18.184678 Y15.930816 
G1 X-18.304816 Y15.810678 
G1 X-18.442269 Y15.710812 
G1 X-18.593653 Y15.633681 
G1 X-18.755237 Y15.581178 
G1 X-18.923047 Y15.554600 
G1 X-19.092950 Y15.554600 
G1 X-19.260759 Y15.581178 
G1 X-19.422344 Y15.633681 
G1 X-19.463400 Y15.654600 
G1 X-21.371063 Y15.654600 
G1 X-21.405397 Y15.634775 
G1 X-21.488156 Y15.612600 
G1 X-22.573841 Y15.612600 
G1 X-22.656600 Y15.634775 
G1 X-22.730797 Y15.677616 
G1 X-22.791381 Y15.738200 
G1 X-22.834222 Y15.812397 
G1 X-22.856397 Y15.895156 
G1 X-22.856397 Y16.365697 
G1 X-22.864397 Y16.405916 
G1 X-22.864397 Y18.510797 
G1 X-24.246253 Y19.892653 
G1 X-24.362341 Y20.008737 
G1 X-24.453547 Y20.145234 
G1 X-24.516369 Y20.296903 
G1 X-24.548397 Y20.457916 
G1 X-24.548397 Y22.983081 
G1 X-24.540397 Y23.023300 
G1 X-24.540397 Y23.493841 
G1 X-24.518222 Y23.576600 
G1 X-24.475381 Y23.650797 
G1 X-24.414797 Y23.711381 
G1 X-24.340600 Y23.754222 
G1 X-24.257841 Y23.776397 
G1 X-23.172156 Y23.776397 
G1 X-23.089397 Y23.754222 
G1 X-23.015200 Y23.711381 
G1 X-22.954616 Y23.650797 
G1 X-22.911775 Y23.576600 
G1 X-22.889600 Y23.493841 
G1 X-22.889600 Y23.023300 
G1 X-22.881600 Y22.983081 
G1 X-22.881600 Y20.885200 
G1 X-21.499744 Y19.503344 
G1 X-21.383656 Y19.387259 
G1 X-21.292450 Y19.250763 
G1 X-21.229628 Y19.099094 
G1 X-21.197600 Y18.938081 
G1 X-21.197600 Y17.321397 
G1 X-19.842784 Y17.321397 
G1 X-19.711181 Y17.457319 
G1 X-19.573728 Y17.557184 
G1 X-19.422344 Y17.634316 
G1 X-19.260759 Y17.686819 
G1 X-19.092950 Y17.713397 
G1 X-18.923047 Y17.713397 
G1 X-18.755237 Y17.686819 
G1 X-18.593653 Y17.634316 
G1 X-18.442269 Y17.557184 
G1 X-18.304816 Y17.457319 
G0 Z1.000000 
G0 X-18.015269 Y15.224547 
G1 Z-0.070000 F25    
G1 X-18.015259 Y15.224553 F50    
G1 X-17.972416 Y15.253178 
G1 X-17.878772 Y15.315756 
G1 X-17.828534 Y15.336562 
G1 X-17.727103 Y15.378581 
G1 X-17.701175 Y15.383738 
G1 X-17.566094 Y15.410612 
G1 X-17.401913 Y15.410612 
G1 X-17.331806 Y15.396666 
G1 X-17.240916 Y15.378591 
G1 X-17.089244 Y15.315769 
G1 X-16.999228 Y15.255622 
G1 X-16.952747 Y15.224566 
G1 X-16.895612 Y15.167434 
G1 X-16.836662 Y15.108488 
G1 X-16.808031 Y15.065634 
G1 X-16.745453 Y14.971991 
G1 X-16.724647 Y14.921753 
G1 X-16.682628 Y14.820322 
G1 X-16.677472 Y14.794394 
G1 X-16.650597 Y14.659313 
G1 X-16.650597 Y12.897913 
G1 X-16.682625 Y12.736900 
G1 X-16.745447 Y12.585231 
G1 X-16.836653 Y12.448734 
G1 X-16.952734 Y12.332653 
G1 X-17.089231 Y12.241447 
G1 X-17.240900 Y12.178625 
G1 X-17.401913 Y12.146597 
G1 X-21.833394 Y12.146597 
G1 X-21.994406 Y12.178625 
G1 X-22.146075 Y12.241447 
G1 X-22.201834 Y12.278706 
G1 X-22.282572 Y12.332650 
G1 X-23.578659 Y13.628737 
G1 X-23.669866 Y13.765234 
G1 X-23.732688 Y13.916903 
G1 X-23.764716 Y14.077913 
G1 X-23.764716 Y14.242081 
G1 X-23.732688 Y14.403094 
G1 X-23.669866 Y14.554763 
G1 X-23.634059 Y14.608344 
G1 X-23.578663 Y14.691259 
G1 X-23.462578 Y14.807341 
G1 X-23.326081 Y14.898547 
G1 X-23.174412 Y14.961369 
G1 X-23.013403 Y14.993397 
G1 X-21.343100 Y14.993397 
G1 X-21.158016 Y15.035397 
G1 X-19.670978 Y15.035397 
G1 X-19.509966 Y15.003369 
G1 X-19.432744 Y14.971381 
G1 X-19.358300 Y14.940547 
G1 X-18.670122 Y14.935397 
G1 X-18.045822 Y15.193991 
G1 X-18.015269 Y15.224547 
G0 Z1.000000 
G0 X-22.970616 Y15.738200 
G1 Z-0.070000 F25    
G1 X-23.031200 Y15.677616 F50    
G1 X-23.105397 Y15.634775 
G1 X-23.188156 Y15.612600 
G1 X-24.273841 Y15.612600 
G1 X-24.356600 Y15.634775 
G1 X-24.390934 Y15.654600 
G1 X-26.730081 Y15.654600 
G1 X-26.891094 Y15.686628 
G1 X-27.042762 Y15.749450 
G1 X-27.179259 Y15.840656 
G1 X-27.295341 Y15.956737 
G1 X-28.587341 Y17.248738 
G1 X-28.678547 Y17.385234 
G1 X-28.741369 Y17.536903 
G1 X-28.773397 Y17.697916 
G1 X-28.773397 Y19.294847 
G1 X-28.839947 Y19.308084 
G1 X-29.019350 Y19.382394 
G1 X-29.180809 Y19.490278 
G1 X-29.318119 Y19.627588 
G1 X-29.426003 Y19.789047 
G1 X-29.500312 Y19.968450 
G1 X-29.538197 Y20.158903 
G1 X-29.538197 Y20.353094 
G1 X-29.500312 Y20.543547 
G1 X-29.426003 Y20.722950 
G1 X-29.318119 Y20.884409 
G1 X-29.180809 Y21.021719 
G1 X-29.019350 Y21.129603 
G1 X-28.839947 Y21.203913 
G1 X-28.649494 Y21.241797 
G1 X-27.134503 Y21.241797 
G1 X-26.944050 Y21.203913 
G1 X-26.764647 Y21.129603 
G1 X-26.603188 Y21.021719 
G1 X-26.465878 Y20.884409 
G1 X-26.357994 Y20.722950 
G1 X-26.283684 Y20.543547 
G1 X-26.245800 Y20.353094 
G1 X-26.245800 Y20.158903 
G1 X-26.283684 Y19.968450 
G1 X-26.357994 Y19.789047 
G1 X-26.465878 Y19.627588 
G1 X-26.603188 Y19.490278 
G1 X-26.764647 Y19.382394 
G1 X-26.944050 Y19.308084 
G1 X-27.106600 Y19.275750 
G1 X-27.106600 Y18.125203 
G1 X-26.302794 Y17.321397 
G1 X-24.390934 Y17.321397 
G1 X-24.356600 Y17.341222 
G1 X-24.273841 Y17.363397 
G1 X-23.188156 Y17.363397 
G1 X-23.105397 Y17.341222 
G1 X-23.031200 Y17.298381 
G1 X-22.970616 Y17.237797 
G1 X-22.927775 Y17.163600 
G1 X-22.905600 Y17.080841 
G1 X-22.905600 Y16.610300 
G1 X-22.897600 Y16.570081 
G1 X-22.897600 Y16.405916 
G1 X-22.905600 Y16.365697 
G1 X-22.905600 Y15.895156 
G1 X-22.927775 Y15.812397 
G1 X-22.970616 Y15.738200 
G0 Z1.000000 
G0 X-24.650597 Y18.126672 
G1 Z-0.070000 F25    
G1 X-24.650613 Y18.126666 F50    
G1 X-24.742231 Y18.065441 
G1 X-24.787091 Y18.035463 
G1 X-24.915334 Y17.982341 
G1 X-25.056234 Y17.949262 
G1 X-25.099769 Y17.940600 
G1 X-25.213619 Y17.940597 
G1 X-25.263934 Y17.940594 
G1 X-25.347269 Y17.940597 
G1 X-25.508281 Y17.972625 
G1 X-25.659950 Y18.035447 
G1 X-25.796447 Y18.126653 
G1 X-25.912528 Y18.242734 
G1 X-26.003734 Y18.379231 
G1 X-26.066556 Y18.530900 
G1 X-26.098584 Y18.691913 
G1 X-26.098584 Y18.856078 
G1 X-26.066556 Y19.017091 
G1 X-26.003734 Y19.168759 
G1 X-25.912528 Y19.305256 
G1 X-25.811028 Y19.406756 
G1 X-25.754822 Y19.462969 
G1 X-25.700184 Y19.499478 
G1 X-25.618328 Y19.554178 
G1 X-25.520947 Y19.594516 
G1 X-25.466659 Y19.617006 
G1 X-25.377253 Y19.634794 
G1 X-25.305650 Y19.649041 
G1 X-25.222659 Y19.649044 
G1 X-25.141484 Y19.649047 
G1 X-25.060944 Y19.633028 
G1 X-24.980472 Y19.617025 
G1 X-24.907972 Y19.586997 
G1 X-24.828800 Y19.554209 
G1 X-24.776259 Y19.519103 
G1 X-24.692300 Y19.463009 
G1 X-24.652250 Y19.422959 
G1 X-24.591847 Y19.362562 
G1 X-24.534559 Y19.305281 
G1 X-24.473328 Y19.213647 
G1 X-24.443350 Y19.168788 
G1 X-24.390228 Y19.040544 
G1 X-24.357150 Y18.899644 
G1 X-24.348488 Y18.856109 
G1 X-24.348484 Y18.742259 
G1 X-24.348481 Y18.691944 
G1 X-24.370638 Y18.580544 
G1 X-24.380503 Y18.530931 
G1 X-24.421119 Y18.432866 
G1 X-24.443319 Y18.379259 
G1 X-24.493881 Y18.303587 
G1 X-24.534519 Y18.242759 
G1 X-24.594391 Y18.182884 
G1 X-24.650597 Y18.126672 
G0 Z1.000000 
G0 X-26.465878 Y22.167587 
G1 Z-0.070000 F25    
G1 X-26.603188 Y22.030278 F50    
G1 X-26.764647 Y21.922394 
G1 X-26.944050 Y21.848084 
G1 X-27.134503 Y21.810200 
G1 X-28.649494 Y21.810200 
G1 X-28.839947 Y21.848084 
G1 X-29.019350 Y21.922394 
G1 X-29.180809 Y22.030278 
G1 X-29.318119 Y22.167587 
G1 X-29.426003 Y22.329047 
G1 X-29.500312 Y22.508450 
G1 X-29.538197 Y22.698903 
G1 X-29.538197 Y22.893094 
G1 X-29.500312 Y23.083547 
G1 X-29.426003 Y23.262950 
G1 X-29.318119 Y23.424409 
G1 X-29.180809 Y23.561719 
G1 X-29.019350 Y23.669603 
G1 X-28.839947 Y23.743913 
G1 X-28.649494 Y23.781797 
G1 X-27.134503 Y23.781797 
G1 X-26.944050 Y23.743913 
G1 X-26.764647 Y23.669603 
G1 X-26.603188 Y23.561719 
G1 X-26.465878 Y23.424409 
G1 X-26.357994 Y23.262950 
G1 X-26.283684 Y23.083547 
G1 X-26.245800 Y22.893094 
G1 X-26.245800 Y22.698903 
G1 X-26.283684 Y22.508450 
G1 X-26.357994 Y22.329047 
G1 X-26.465878 Y22.167587 
G0 Z1.000000 
G0 X-26.465878 Y24.707587 
G1 Z-0.070000 F25    
G1 X-26.603188 Y24.570278 F50    
G1 X-26.764647 Y24.462394 
G1 X-26.944050 Y24.388084 
G1 X-27.134503 Y24.350200 
G1 X-28.649494 Y24.350200 
G1 X-28.839947 Y24.388084 
G1 X-29.019350 Y24.462394 
G1 X-29.180809 Y24.570278 
G1 X-29.318119 Y24.707587 
G1 X-29.426003 Y24.869047 
G1 X-29.500312 Y25.048450 
G1 X-29.538197 Y25.238903 
G1 X-29.538197 Y25.433094 
G1 X-29.500312 Y25.623547 
G1 X-29.426003 Y25.802950 
G1 X-29.318119 Y25.964409 
G1 X-29.180809 Y26.101719 
G1 X-29.019350 Y26.209603 
G1 X-28.839947 Y26.283912 
G1 X-28.649494 Y26.321797 
G1 X-27.134503 Y26.321797 
G1 X-26.944050 Y26.283912 
G1 X-26.764647 Y26.209603 
G1 X-26.603188 Y26.101719 
G1 X-26.465878 Y25.964409 
G1 X-26.357994 Y25.802950 
G1 X-26.283684 Y25.623547 
G1 X-26.245800 Y25.433094 
G1 X-26.245800 Y25.238903 
G1 X-26.283684 Y25.048450 
G1 X-26.357994 Y24.869047 
G1 X-26.465878 Y24.707587 
G0 Z1.000000 
G0 X-25.531747 Y24.741225 
G1 Z-0.070000 F25    
G1 X-25.567794 Y24.828256 F50    
G1 X-25.594569 Y24.892891 
G1 X-25.626597 Y25.053903 
G1 X-25.626597 Y25.655250 
G1 X-25.787719 Y26.044228 
G1 X-25.811931 Y26.102681 
G1 X-25.835553 Y26.221447 
G1 X-25.843956 Y26.263687 
G1 X-25.843956 Y26.427859 
G1 X-25.833631 Y26.479766 
G1 X-25.811931 Y26.588866 
G1 X-25.774375 Y26.679525 
G1 X-25.749106 Y26.740537 
G1 X-25.657900 Y26.877038 
G1 X-25.543637 Y26.991300 
G1 X-25.498341 Y27.022169 
G1 X-25.405322 Y27.084322 
G1 X-25.294972 Y27.130028 
G1 X-25.253650 Y27.147147 
G1 X-25.134884 Y27.170769 
G1 X-25.092644 Y27.179172 
G1 X-24.928472 Y27.179172 
G1 X-24.876566 Y27.168847 
G1 X-24.767466 Y27.147147 
G1 X-24.676806 Y27.109591 
G1 X-24.615794 Y27.084322 
G1 X-24.479294 Y26.993116 
G1 X-24.380966 Y26.894784 
G1 X-23.938175 Y26.451991 
G1 X-23.553838 Y26.292794 
G1 X-23.421597 Y26.238022 
G1 X-23.368016 Y26.202216 
G1 X-23.285100 Y26.146819 
G1 X-23.169019 Y26.030734 
G1 X-22.898541 Y25.760256 
G1 X-22.807334 Y25.623759 
G1 X-22.744512 Y25.472091 
G1 X-22.712484 Y25.311078 
G1 X-22.712484 Y25.146912 
G1 X-22.744512 Y24.985900 
G1 X-22.807334 Y24.834231 
G1 X-22.898541 Y24.697734 
G1 X-23.014622 Y24.581653 
G1 X-23.151119 Y24.490447 
G1 X-23.302788 Y24.427625 
G1 X-23.463800 Y24.395597 
G1 X-24.402884 Y24.395597 
G1 X-24.469706 Y24.367922 
G1 X-24.550100 Y24.334619 
G1 X-24.711112 Y24.302591 
G1 X-24.875281 Y24.302591 
G1 X-24.905491 Y24.308600 
G1 X-25.036291 Y24.334616 
G1 X-25.126950 Y24.372172 
G1 X-25.187963 Y24.397441 
G1 X-25.277350 Y24.457169 
G1 X-25.324456 Y24.488644 
G1 X-25.440541 Y24.604725 
G1 X-25.502694 Y24.697747 
G1 X-25.531747 Y24.741225 
G0 Z1.000000 
G0 X-26.465878 Y27.247588 
G1 Z-0.070000 F25    
G1 X-26.603188 Y27.110278 F50    
G1 X-26.764647 Y27.002394 
G1 X-26.944050 Y26.928084 
G1 X-27.134503 Y26.890200 
G1 X-28.649494 Y26.890200 
G1 X-28.839947 Y26.928084 
G1 X-29.019350 Y27.002394 
G1 X-29.180809 Y27.110278 
G1 X-29.318119 Y27.247588 
G1 X-29.426003 Y27.409047 
G1 X-29.500312 Y27.588450 
G1 X-29.538197 Y27.778903 
G1 X-29.538197 Y27.973094 
G1 X-29.500312 Y28.163547 
G1 X-29.426003 Y28.342950 
G1 X-29.318119 Y28.504409 
G1 X-29.180809 Y28.641719 
G1 X-29.019350 Y28.749603 
G1 X-28.839947 Y28.823912 
G1 X-28.649494 Y28.861797 
G1 X-27.134503 Y28.861797 
G1 X-26.944050 Y28.823912 
G1 X-26.764647 Y28.749603 
G1 X-26.603188 Y28.641719 
G1 X-26.465878 Y28.504409 
G1 X-26.357994 Y28.342950 
G1 X-26.283684 Y28.163547 
G1 X-26.245800 Y27.973094 
G1 X-26.245800 Y27.778903 
G1 X-26.283684 Y27.588450 
G1 X-26.357994 Y27.409047 
G1 X-26.465878 Y27.247588 
G0 Z1.000000 
G0 X-26.704475 Y29.582600 
G1 Z-0.070000 F25    
G1 X-26.764647 Y29.542394 F50    
G1 X-26.944050 Y29.468084 
G1 X-27.134503 Y29.430200 
G1 X-28.649494 Y29.430200 
G1 X-28.839947 Y29.468084 
G1 X-29.019350 Y29.542394 
G1 X-29.180809 Y29.650278 
G1 X-29.318119 Y29.787588 
G1 X-29.426003 Y29.949047 
G1 X-29.500312 Y30.128450 
G1 X-29.538197 Y30.318903 
G1 X-29.538197 Y30.513094 
G1 X-29.500312 Y30.703547 
G1 X-29.426003 Y30.882950 
G1 X-29.318119 Y31.044409 
G1 X-29.180809 Y31.181719 
G1 X-29.019350 Y31.289603 
G1 X-28.839947 Y31.363913 
G1 X-28.649494 Y31.401797 
G1 X-27.134503 Y31.401797 
G1 X-26.944050 Y31.363913 
G1 X-26.764647 Y31.289603 
G1 X-26.704475 Y31.249397 
G1 X-25.381916 Y31.249397 
G1 X-25.220903 Y31.217369 
G1 X-25.069234 Y31.154547 
G1 X-24.932738 Y31.063341 
G1 X-24.816656 Y30.947259 
G1 X-24.744159 Y30.838763 
G1 X-22.874112 Y28.968716 
G1 X-22.723237 Y28.944819 
G1 X-22.561653 Y28.892316 
G1 X-22.410269 Y28.815184 
G1 X-22.272816 Y28.715319 
G1 X-22.152678 Y28.595181 
G1 X-22.052813 Y28.457728 
G1 X-21.975681 Y28.306344 
G1 X-21.923178 Y28.144759 
G1 X-21.899281 Y27.993884 
G1 X-20.138794 Y26.233397 
G1 X-19.610728 Y26.233397 
G1 X-19.458328 Y26.385797 
G1 X-18.641669 Y26.385797 
G1 X-18.064200 Y25.808328 
G1 X-18.064200 Y24.991669 
G1 X-18.641669 Y24.414200 
G1 X-19.458328 Y24.414200 
G1 X-19.610728 Y24.566600 
G1 X-20.566081 Y24.566600 
G1 X-20.727094 Y24.598628 
G1 X-20.878763 Y24.661450 
G1 X-21.015259 Y24.752656 
G1 X-23.077884 Y26.815281 
G1 X-23.228759 Y26.839178 
G1 X-23.390344 Y26.891681 
G1 X-23.541728 Y26.968812 
G1 X-23.679181 Y27.068678 
G1 X-23.799319 Y27.188816 
G1 X-23.899184 Y27.326269 
G1 X-23.976316 Y27.477653 
G1 X-24.028819 Y27.639238 
G1 X-24.052716 Y27.790112 
G1 X-25.845203 Y29.582600 
G1 X-26.704475 Y29.582600 
G0 Z1.000000 
G0 X-26.704475 Y32.122600 
G1 Z-0.070000 F25    
G1 X-26.764647 Y32.082394 F50    
G1 X-26.944050 Y32.008084 
G1 X-27.134503 Y31.970200 
G1 X-28.649494 Y31.970200 
G1 X-28.839947 Y32.008084 
G1 X-29.019350 Y32.082394 
G1 X-29.180809 Y32.190278 
G1 X-29.318119 Y32.327587 
G1 X-29.426003 Y32.489047 
G1 X-29.500312 Y32.668450 
G1 X-29.538197 Y32.858903 
G1 X-29.538197 Y33.053094 
G1 X-29.500312 Y33.243547 
G1 X-29.426003 Y33.422950 
G1 X-29.318119 Y33.584409 
G1 X-29.180809 Y33.721719 
G1 X-29.019350 Y33.829603 
G1 X-28.839947 Y33.903912 
G1 X-28.649494 Y33.941797 
G1 X-27.134503 Y33.941797 
G1 X-26.944050 Y33.903912 
G1 X-26.764647 Y33.829603 
G1 X-26.704475 Y33.789397 
G1 X-23.685103 Y33.789397 
G1 X-23.541728 Y33.895184 
G1 X-23.390344 Y33.972316 
G1 X-23.228759 Y34.024819 
G1 X-23.060950 Y34.051397 
G1 X-22.891047 Y34.051397 
G1 X-22.723237 Y34.024819 
G1 X-22.561653 Y33.972316 
G1 X-22.410269 Y33.895184 
G1 X-22.352753 Y33.853397 
G1 X-19.610725 Y33.853397 
G1 X-19.458328 Y34.005797 
G1 X-18.641669 Y34.005797 
G1 X-18.064200 Y33.428328 
G1 X-18.064200 Y32.611669 
G1 X-18.641669 Y32.034200 
G1 X-19.458328 Y32.034200 
G1 X-19.610725 Y32.186600 
G1 X-22.234894 Y32.186600 
G1 X-22.272816 Y32.148678 
G1 X-22.410269 Y32.048812 
G1 X-22.561653 Y31.971681 
G1 X-22.723237 Y31.919178 
G1 X-22.891047 Y31.892600 
G1 X-23.060950 Y31.892600 
G1 X-23.228759 Y31.919178 
G1 X-23.390344 Y31.971681 
G1 X-23.541728 Y32.048812 
G1 X-23.643287 Y32.122600 
G1 X-26.704475 Y32.122600 
G0 Z1.000000 
G0 X-31.815616 Y32.274200 
G1 Z-0.070000 F25    
G1 X-31.876200 Y32.213616 F50    
G1 X-31.950397 Y32.170775 
G1 X-32.033156 Y32.148600 
G1 X-32.431213 Y32.148600 
G1 X-32.561916 Y32.122600 
G1 X-34.324475 Y32.122600 
G1 X-34.384647 Y32.082394 
G1 X-34.564050 Y32.008084 
G1 X-34.754503 Y31.970200 
G1 X-36.269494 Y31.970200 
G1 X-36.459947 Y32.008084 
G1 X-36.639350 Y32.082394 
G1 X-36.800809 Y32.190278 
G1 X-36.938119 Y32.327587 
G1 X-37.046003 Y32.489047 
G1 X-37.120312 Y32.668450 
G1 X-37.158197 Y32.858903 
G1 X-37.158197 Y33.053094 
G1 X-37.120312 Y33.243547 
G1 X-37.046003 Y33.422950 
G1 X-36.938119 Y33.584409 
G1 X-36.800809 Y33.721719 
G1 X-36.639350 Y33.829603 
G1 X-36.459947 Y33.903912 
G1 X-36.269494 Y33.941797 
G1 X-34.754503 Y33.941797 
G1 X-34.564050 Y33.903912 
G1 X-34.384647 Y33.829603 
G1 X-34.324475 Y33.789397 
G1 X-33.320781 Y33.789397 
G1 X-33.275797 Y33.834381 
G1 X-33.201600 Y33.877222 
G1 X-33.118841 Y33.899397 
G1 X-32.033156 Y33.899397 
G1 X-31.950397 Y33.877222 
G1 X-31.876200 Y33.834381 
G1 X-31.815616 Y33.773797 
G1 X-31.772775 Y33.699600 
G1 X-31.750600 Y33.616841 
G1 X-31.750600 Y33.146294 
G1 X-31.742600 Y33.106081 
G1 X-31.742600 Y32.941916 
G1 X-31.750600 Y32.901703 
G1 X-31.750600 Y32.431156 
G1 X-31.772775 Y32.348397 
G1 X-31.815616 Y32.274200 
G0 Z1.000000 
G0 X-34.223188 Y31.181719 
G1 Z-0.070000 F25    
G1 X-34.085878 Y31.044409 F50    
G1 X-33.977994 Y30.882950 
G1 X-33.903684 Y30.703547 
G1 X-33.865800 Y30.513094 
G1 X-33.865800 Y30.318903 
G1 X-33.903684 Y30.128450 
G1 X-33.977994 Y29.949047 
G1 X-34.085878 Y29.787588 
G1 X-34.223188 Y29.650278 
G1 X-34.384647 Y29.542394 
G1 X-34.564050 Y29.468084 
G1 X-34.754503 Y29.430200 
G1 X-36.269494 Y29.430200 
G1 X-36.459947 Y29.468084 
G1 X-36.639350 Y29.542394 
G1 X-36.795306 Y29.646600 
G1 X-37.905084 Y29.646600 
G1 X-38.038078 Y29.549972 
G1 X-38.190581 Y29.472266 
G1 X-38.353366 Y29.419375 
G1 X-38.522416 Y29.392600 
G1 X-40.217581 Y29.392600 
G1 X-40.386631 Y29.419375 
G1 X-40.549416 Y29.472266 
G1 X-40.701919 Y29.549972 
G1 X-40.840391 Y29.650578 
G1 X-40.961419 Y29.771606 
G1 X-41.062025 Y29.910078 
G1 X-41.139731 Y30.062581 
G1 X-41.192622 Y30.225366 
G1 X-41.219397 Y30.394416 
G1 X-41.219397 Y30.565581 
G1 X-41.192622 Y30.734631 
G1 X-41.139731 Y30.897416 
G1 X-41.062025 Y31.049919 
G1 X-40.961419 Y31.188391 
G1 X-40.840391 Y31.309419 
G1 X-40.701919 Y31.410025 
G1 X-40.549416 Y31.487731 
G1 X-40.386631 Y31.540622 
G1 X-40.217581 Y31.567397 
G1 X-38.522416 Y31.567397 
G1 X-38.353366 Y31.540622 
G1 X-38.190581 Y31.487731 
G1 X-38.038078 Y31.410025 
G1 X-37.905084 Y31.313397 
G1 X-36.581906 Y31.313397 
G1 X-36.459947 Y31.363913 
G1 X-36.269494 Y31.401797 
G1 X-34.754503 Y31.401797 
G1 X-34.564050 Y31.363913 
G1 X-34.384647 Y31.289603 
G1 X-34.223188 Y31.181719 
G0 Z1.000000 
G0 X-34.223188 Y28.641719 
G1 Z-0.070000 F25    
G1 X-34.085878 Y28.504409 F50    
G1 X-33.977994 Y28.342950 
G1 X-33.903684 Y28.163547 
G1 X-33.865800 Y27.973094 
G1 X-33.865800 Y27.778903 
G1 X-33.903684 Y27.588450 
G1 X-33.977994 Y27.409047 
G1 X-34.085878 Y27.247588 
G1 X-34.223188 Y27.110278 
G1 X-34.384647 Y27.002394 
G1 X-34.564050 Y26.928084 
G1 X-34.754503 Y26.890200 
G1 X-36.269494 Y26.890200 
G1 X-36.459947 Y26.928084 
G1 X-36.639350 Y27.002394 
G1 X-36.795303 Y27.106600 
G1 X-37.905084 Y27.106600 
G1 X-38.038078 Y27.009972 
G1 X-38.190581 Y26.932266 
G1 X-38.353366 Y26.879375 
G1 X-38.522416 Y26.852600 
G1 X-40.217581 Y26.852600 
G1 X-40.386631 Y26.879375 
G1 X-40.549416 Y26.932266 
G1 X-40.701919 Y27.009972 
G1 X-40.840391 Y27.110578 
G1 X-40.961419 Y27.231606 
G1 X-41.062025 Y27.370078 
G1 X-41.139731 Y27.522581 
G1 X-41.192622 Y27.685366 
G1 X-41.219397 Y27.854416 
G1 X-41.219397 Y28.025581 
G1 X-41.192622 Y28.194631 
G1 X-41.139731 Y28.357416 
G1 X-41.062025 Y28.509919 
G1 X-40.961419 Y28.648391 
G1 X-40.840391 Y28.769419 
G1 X-40.701919 Y28.870025 
G1 X-40.549416 Y28.947731 
G1 X-40.386631 Y29.000622 
G1 X-40.217581 Y29.027397 
G1 X-38.522416 Y29.027397 
G1 X-38.353366 Y29.000622 
G1 X-38.190581 Y28.947731 
G1 X-38.038078 Y28.870025 
G1 X-37.905084 Y28.773397 
G1 X-36.581906 Y28.773397 
G1 X-36.459947 Y28.823912 
G1 X-36.269494 Y28.861797 
G1 X-34.754503 Y28.861797 
G1 X-34.564050 Y28.823912 
G1 X-34.384647 Y28.749603 
G1 X-34.223188 Y28.641719 
G0 Z1.000000 
G0 X-34.223188 Y26.101719 
G1 Z-0.070000 F25    
G1 X-34.085878 Y25.964409 F50    
G1 X-33.977994 Y25.802950 
G1 X-33.903684 Y25.623547 
G1 X-33.865800 Y25.433094 
G1 X-33.865800 Y25.238903 
G1 X-33.903684 Y25.048450 
G1 X-33.977994 Y24.869047 
G1 X-34.085878 Y24.707587 
G1 X-34.223188 Y24.570278 
G1 X-34.384647 Y24.462394 
G1 X-34.564050 Y24.388084 
G1 X-34.754503 Y24.350200 
G1 X-36.269494 Y24.350200 
G1 X-36.459947 Y24.388084 
G1 X-36.639350 Y24.462394 
G1 X-36.795303 Y24.566600 
G1 X-37.905084 Y24.566600 
G1 X-38.038078 Y24.469972 
G1 X-38.190581 Y24.392266 
G1 X-38.353366 Y24.339375 
G1 X-38.522416 Y24.312600 
G1 X-40.217581 Y24.312600 
G1 X-40.386631 Y24.339375 
G1 X-40.549416 Y24.392266 
G1 X-40.701919 Y24.469972 
G1 X-40.840391 Y24.570578 
G1 X-40.961419 Y24.691606 
G1 X-41.062025 Y24.830078 
G1 X-41.139731 Y24.982581 
G1 X-41.192622 Y25.145366 
G1 X-41.219397 Y25.314416 
G1 X-41.219397 Y25.485581 
G1 X-41.192622 Y25.654631 
G1 X-41.139731 Y25.817416 
G1 X-41.062025 Y25.969919 
G1 X-40.961419 Y26.108391 
G1 X-40.840391 Y26.229419 
G1 X-40.701919 Y26.330025 
G1 X-40.549416 Y26.407731 
G1 X-40.386631 Y26.460622 
G1 X-40.217581 Y26.487397 
G1 X-38.522416 Y26.487397 
G1 X-38.353366 Y26.460622 
G1 X-38.190581 Y26.407731 
G1 X-38.038078 Y26.330025 
G1 X-37.905084 Y26.233397 
G1 X-36.581906 Y26.233397 
G1 X-36.459947 Y26.283912 
G1 X-36.269494 Y26.321797 
G1 X-34.754503 Y26.321797 
G1 X-34.564050 Y26.283912 
G1 X-34.384647 Y26.209603 
G1 X-34.223188 Y26.101719 
G0 Z1.000000 
G0 X-34.223188 Y23.561719 
G1 Z-0.070000 F25    
G1 X-34.085878 Y23.424409 F50    
G1 X-33.977994 Y23.262950 
G1 X-33.903684 Y23.083547 
G1 X-33.865800 Y22.893094 
G1 X-33.865800 Y22.698903 
G1 X-33.903684 Y22.508450 
G1 X-33.977994 Y22.329047 
G1 X-34.085878 Y22.167587 
G1 X-34.223188 Y22.030278 
G1 X-34.384647 Y21.922394 
G1 X-34.564050 Y21.848084 
G1 X-34.754503 Y21.810200 
G1 X-36.269494 Y21.810200 
G1 X-36.459947 Y21.848084 
G1 X-36.639350 Y21.922394 
G1 X-36.795303 Y22.026600 
G1 X-37.905084 Y22.026600 
G1 X-38.038078 Y21.929972 
G1 X-38.190581 Y21.852266 
G1 X-38.353366 Y21.799375 
G1 X-38.522416 Y21.772600 
G1 X-40.217581 Y21.772600 
G1 X-40.386631 Y21.799375 
G1 X-40.549416 Y21.852266 
G1 X-40.701919 Y21.929972 
G1 X-40.840391 Y22.030578 
G1 X-40.961419 Y22.151606 
G1 X-41.062025 Y22.290078 
G1 X-41.139731 Y22.442581 
G1 X-41.192622 Y22.605366 
G1 X-41.219397 Y22.774416 
G1 X-41.219397 Y22.945581 
G1 X-41.192622 Y23.114631 
G1 X-41.139731 Y23.277416 
G1 X-41.062025 Y23.429919 
G1 X-40.961419 Y23.568391 
G1 X-40.840391 Y23.689419 
G1 X-40.701919 Y23.790025 
G1 X-40.549416 Y23.867731 
G1 X-40.386631 Y23.920622 
G1 X-40.217581 Y23.947397 
G1 X-38.522416 Y23.947397 
G1 X-38.353366 Y23.920622 
G1 X-38.190581 Y23.867731 
G1 X-38.038078 Y23.790025 
G1 X-37.905084 Y23.693397 
G1 X-36.581906 Y23.693397 
G1 X-36.459947 Y23.743913 
G1 X-36.269494 Y23.781797 
G1 X-34.754503 Y23.781797 
G1 X-34.564050 Y23.743913 
G1 X-34.384647 Y23.669603 
G1 X-34.223188 Y23.561719 
G0 Z1.000000 
G0 X-34.223188 Y21.021719 
G1 Z-0.070000 F25    
G1 X-34.085878 Y20.884409 F50    
G1 X-33.977994 Y20.722950 
G1 X-33.903684 Y20.543547 
G1 X-33.865800 Y20.353094 
G1 X-33.865800 Y20.158903 
G1 X-33.903684 Y19.968450 
G1 X-33.977994 Y19.789047 
G1 X-34.085878 Y19.627588 
G1 X-34.223188 Y19.490278 
G1 X-34.384647 Y19.382394 
G1 X-34.564050 Y19.308084 
G1 X-34.754503 Y19.270200 
G1 X-36.269494 Y19.270200 
G1 X-36.459947 Y19.308084 
G1 X-36.639350 Y19.382394 
G1 X-36.795303 Y19.486600 
G1 X-37.905084 Y19.486600 
G1 X-38.038078 Y19.389972 
G1 X-38.190581 Y19.312266 
G1 X-38.353366 Y19.259375 
G1 X-38.522416 Y19.232600 
G1 X-40.217581 Y19.232600 
G1 X-40.386631 Y19.259375 
G1 X-40.549416 Y19.312266 
G1 X-40.701919 Y19.389972 
G1 X-40.840391 Y19.490578 
G1 X-40.961419 Y19.611606 
G1 X-41.062025 Y19.750078 
G1 X-41.139731 Y19.902581 
G1 X-41.192622 Y20.065366 
G1 X-41.219397 Y20.234416 
G1 X-41.219397 Y20.405581 
G1 X-41.192622 Y20.574631 
G1 X-41.139731 Y20.737416 
G1 X-41.062025 Y20.889919 
G1 X-40.961419 Y21.028391 
G1 X-40.840391 Y21.149419 
G1 X-40.701919 Y21.250025 
G1 X-40.549416 Y21.327731 
G1 X-40.386631 Y21.380622 
G1 X-40.217581 Y21.407397 
G1 X-38.522416 Y21.407397 
G1 X-38.353366 Y21.380622 
G1 X-38.190581 Y21.327731 
G1 X-38.038078 Y21.250025 
G1 X-37.905084 Y21.153397 
G1 X-36.581906 Y21.153397 
G1 X-36.459947 Y21.203913 
G1 X-36.269494 Y21.241797 
G1 X-34.754503 Y21.241797 
G1 X-34.564050 Y21.203913 
G1 X-34.384647 Y21.129603 
G1 X-34.223188 Y21.021719 
G0 Z1.000000 
G0 X-33.809337 Y19.028447 
G1 Z-0.070000 F25    
G1 X-33.699894 Y19.137888 F50    
G1 X-33.556759 Y19.235734 
G1 X-33.469728 Y19.271781 
G1 X-33.405094 Y19.298556 
G1 X-33.244084 Y19.330584 
G1 X-33.079912 Y19.330584 
G1 X-33.042203 Y19.323081 
G1 X-32.918906 Y19.298559 
G1 X-32.767238 Y19.235737 
G1 X-32.701237 Y19.191634 
G1 X-32.630738 Y19.144531 
G1 X-32.514656 Y19.028450 
G1 X-32.423447 Y18.891950 
G1 X-32.387400 Y18.804919 
G1 X-32.360625 Y18.740284 
G1 X-32.328597 Y18.579275 
G1 X-32.328597 Y13.452800 
G1 X-32.358812 Y13.300913 
G1 X-32.423447 Y13.140119 
G1 X-32.514653 Y13.003622 
G1 X-32.630734 Y12.887541 
G1 X-32.767231 Y12.796334 
G1 X-32.918900 Y12.733512 
G1 X-33.079912 Y12.701484 
G1 X-33.244081 Y12.701484 
G1 X-33.395966 Y12.731700 
G1 X-33.556759 Y12.796334 
G1 X-33.693256 Y12.887541 
G1 X-33.809337 Y13.003622 
G1 X-36.007162 Y15.201453 
G1 X-36.420416 Y15.372625 
G1 X-36.556913 Y15.463831 
G1 X-36.586691 Y15.493612 
G1 X-38.345319 Y17.252237 
G1 X-38.431622 Y17.338541 
G1 X-38.461403 Y17.368319 
G1 X-38.552609 Y17.504816 
G1 X-38.615431 Y17.656484 
G1 X-38.647459 Y17.817494 
G1 X-38.647459 Y17.981662 
G1 X-38.615431 Y18.142675 
G1 X-38.552609 Y18.294344 
G1 X-38.463216 Y18.428122 
G1 X-38.345322 Y18.546922 
G1 X-38.208825 Y18.638128 
G1 X-37.884313 Y18.772544 
G1 X-37.738725 Y18.832847 
G1 X-37.571628 Y18.867397 
G1 X-37.097772 Y18.867397 
G1 X-36.936759 Y18.835369 
G1 X-36.829944 Y18.791122 
G1 X-36.785094 Y18.772547 
G1 X-36.491650 Y18.650997 
G1 X-34.532341 Y18.650997 
G1 X-33.942437 Y18.895341 
G1 X-33.809337 Y19.028444 
G0 Z1.000000 
G0 X-36.298738 Y14.617341 
G1 Z-0.070000 F25    
G1 X-32.366656 Y10.685259 F50    
G1 X-32.275450 Y10.548763 
G1 X-32.212628 Y10.397094 
G1 X-32.180600 Y10.236081 
G1 X-32.180600 Y9.012913 
G1 X-32.083972 Y8.879919 
G1 X-32.006266 Y8.727416 
G1 X-31.953375 Y8.564631 
G1 X-31.926600 Y8.395581 
G1 X-31.926600 Y6.700416 
G1 X-31.953375 Y6.531366 
G1 X-32.006266 Y6.368581 
G1 X-32.083972 Y6.216078 
G1 X-32.184578 Y6.077606 
G1 X-32.186600 Y5.230397 
G1 X-32.100156 Y5.230397 
G1 X-32.017397 Y5.208222 
G1 X-31.943200 Y5.165381 
G1 X-31.882616 Y5.104797 
G1 X-31.839775 Y5.030600 
G1 X-31.817600 Y4.947841 
G1 X-31.817600 Y4.477294 
G1 X-31.809600 Y4.437081 
G1 X-31.809600 Y4.272916 
G1 X-31.817600 Y4.232703 
G1 X-31.817600 Y3.762156 
G1 X-31.839775 Y3.679397 
G1 X-31.882616 Y3.605200 
G1 X-31.943200 Y3.544616 
G1 X-32.017397 Y3.501775 
G1 X-32.100156 Y3.479600 
G1 X-33.185841 Y3.479600 
G1 X-33.268600 Y3.501775 
G1 X-33.342797 Y3.544616 
G1 X-33.403381 Y3.605200 
G1 X-33.446222 Y3.679397 
G1 X-33.468397 Y3.762156 
G1 X-33.468397 Y4.001797 
G1 X-33.551259 Y4.084656 
G1 X-33.667341 Y4.200737 
G1 X-33.758547 Y4.337234 
G1 X-33.821369 Y4.488903 
G1 X-33.853397 Y4.649916 
G1 X-33.853397 Y6.091341 
G1 X-33.944025 Y6.216078 
G1 X-34.021731 Y6.368581 
G1 X-34.074622 Y6.531366 
G1 X-34.101397 Y6.700416 
G1 X-34.101397 Y8.395581 
G1 X-34.074622 Y8.564631 
G1 X-34.021731 Y8.727416 
G1 X-33.944025 Y8.879919 
G1 X-33.847397 Y9.012913 
G1 X-33.847397 Y9.808794 
G1 X-37.477341 Y13.438738 
G1 X-37.568547 Y13.575234 
G1 X-37.631369 Y13.726903 
G1 X-37.663397 Y13.887916 
G1 X-42.311728 Y18.560491 
G1 X-42.399506 Y18.648269 
G1 X-42.468472 Y18.751487 
G1 X-42.515978 Y18.866175 
G1 X-42.540197 Y18.987928 
G1 X-42.540197 Y48.322069 
G1 X-42.515978 Y48.443822 
G1 X-42.468472 Y48.558509 
G1 X-42.399506 Y48.661728 
G1 X-42.311728 Y48.749506 
G1 X-40.203397 Y50.857834 
G1 X-40.171369 Y51.043094 
G1 X-40.108547 Y51.194763 
G1 X-40.017341 Y51.331259 
G1 X-39.901259 Y51.447341 
G1 X-39.764763 Y51.538547 
G1 X-39.613094 Y51.601369 
G1 X-39.452081 Y51.633397 
G1 X-36.581903 Y51.633397 
G1 X-36.459947 Y51.683912 
G1 X-36.269494 Y51.721797 
G1 X-34.754503 Y51.721797 
G1 X-34.564050 Y51.683912 
G1 X-34.384647 Y51.609603 
G1 X-34.223188 Y51.501719 
G1 X-34.085878 Y51.364409 
G1 X-33.977994 Y51.202950 
G1 X-33.903684 Y51.023547 
G1 X-33.865800 Y50.833094 
G1 X-33.865800 Y50.638903 
G1 X-33.903684 Y50.448450 
G1 X-33.977994 Y50.269047 
G1 X-34.085878 Y50.107588 
G1 X-34.223188 Y49.970278 
G1 X-34.384647 Y49.862394 
G1 X-34.564050 Y49.788084 
G1 X-34.754503 Y49.750200 
G1 X-36.269494 Y49.750200 
G1 X-36.459947 Y49.788084 
G1 X-36.639350 Y49.862394 
G1 X-36.795303 Y49.966600 
G1 X-39.312162 Y49.966600 
G1 X-41.279800 Y47.998959 
G1 X-41.279800 Y19.311038 
G1 X-36.772159 Y14.803397 
G1 X-36.586903 Y14.771369 
G1 X-36.435234 Y14.708547 
G1 X-36.298738 Y14.617341 
G0 Z1.000000 
G0 X-38.203738 Y12.712341 
G1 Z-0.070000 F25    
G1 X-34.906656 Y9.415259 F50    
G1 X-34.815450 Y9.278762 
G1 X-34.752628 Y9.127094 
G1 X-34.732603 Y9.026412 
G1 X-34.623972 Y8.879919 
G1 X-34.546266 Y8.727416 
G1 X-34.493375 Y8.564631 
G1 X-34.466600 Y8.395581 
G1 X-34.466600 Y6.700416 
G1 X-34.493375 Y6.531366 
G1 X-34.546266 Y6.368581 
G1 X-34.623972 Y6.216078 
G1 X-34.724578 Y6.077606 
G1 X-34.845606 Y5.956578 
G1 X-34.984078 Y5.855972 
G1 X-35.136581 Y5.778266 
G1 X-35.299366 Y5.725375 
G1 X-35.468416 Y5.698600 
G1 X-35.639581 Y5.698600 
G1 X-35.808631 Y5.725375 
G1 X-35.971416 Y5.778266 
G1 X-36.123919 Y5.855972 
G1 X-36.262391 Y5.956578 
G1 X-36.383419 Y6.077606 
G1 X-36.484025 Y6.216078 
G1 X-36.561731 Y6.368581 
G1 X-36.614622 Y6.531366 
G1 X-36.641397 Y6.700416 
G1 X-36.641397 Y8.395581 
G1 X-36.614622 Y8.564631 
G1 X-36.565234 Y8.716631 
G1 X-39.382341 Y11.533738 
G1 X-39.473547 Y11.670234 
G1 X-39.536369 Y11.821903 
G1 X-39.568397 Y11.982916 
G1 X-44.050506 Y16.489269 
G1 X-44.119472 Y16.592488 
G1 X-44.166978 Y16.707175 
G1 X-44.191197 Y16.828928 
G1 X-44.191197 Y50.481069 
G1 X-44.166978 Y50.602822 
G1 X-44.119472 Y50.717509 
G1 X-44.050506 Y50.820728 
G1 X-43.962728 Y50.908506 
G1 X-41.473397 Y53.397838 
G1 X-41.441369 Y53.583094 
G1 X-41.378547 Y53.734763 
G1 X-41.287341 Y53.871259 
G1 X-41.171259 Y53.987341 
G1 X-41.034762 Y54.078547 
G1 X-40.883094 Y54.141369 
G1 X-40.722081 Y54.173397 
G1 X-36.581903 Y54.173397 
G1 X-36.459947 Y54.223912 
G1 X-36.269494 Y54.261797 
G1 X-34.754503 Y54.261797 
G1 X-34.564050 Y54.223912 
G1 X-34.384647 Y54.149603 
G1 X-34.223188 Y54.041719 
G1 X-34.085878 Y53.904409 
G1 X-33.977994 Y53.742950 
G1 X-33.903684 Y53.563547 
G1 X-33.865800 Y53.373094 
G1 X-33.865800 Y53.178903 
G1 X-33.903684 Y52.988450 
G1 X-33.977994 Y52.809047 
G1 X-34.085878 Y52.647588 
G1 X-34.223188 Y52.510278 
G1 X-34.384647 Y52.402394 
G1 X-34.564050 Y52.328084 
G1 X-34.754503 Y52.290200 
G1 X-36.269494 Y52.290200 
G1 X-36.459947 Y52.328084 
G1 X-36.639350 Y52.402394 
G1 X-36.795303 Y52.506600 
G1 X-40.582159 Y52.506600 
G1 X-42.930800 Y50.157959 
G1 X-42.930800 Y17.152037 
G1 X-38.677159 Y12.898397 
G1 X-38.491903 Y12.866369 
G1 X-38.340234 Y12.803547 
G1 X-38.203738 Y12.712341 
G0 Z1.000000 
G0 X-38.216031 Y32.281447 
G1 Z-0.070000 F25    
G1 X-38.367700 Y32.218625 F50    
G1 X-38.528712 Y32.186597 
G1 X-39.909281 Y32.186597 
G1 X-40.070294 Y32.218625 
G1 X-40.221962 Y32.281447 
G1 X-40.358459 Y32.372653 
G1 X-40.474541 Y32.488734 
G1 X-40.565747 Y32.625231 
G1 X-40.628569 Y32.776900 
G1 X-40.660597 Y32.937913 
G1 X-40.660597 Y33.193528 
G1 X-40.660597 Y33.276156 
G1 X-40.660597 Y33.357116 
G1 X-40.644272 Y33.439178 
G1 X-40.628569 Y33.518128 
G1 X-40.596794 Y33.594834 
G1 X-40.565747 Y33.669797 
G1 X-40.519731 Y33.738659 
G1 X-40.474541 Y33.806294 
G1 X-40.416269 Y33.864562 
G1 X-40.358459 Y33.922375 
G1 X-40.290009 Y33.968109 
G1 X-40.221962 Y34.013581 
G1 X-40.145722 Y34.045156 
G1 X-40.070294 Y34.076403 
G1 X-39.989144 Y34.092544 
G1 X-39.909281 Y34.108431 
G1 X-39.826075 Y34.108431 
G1 X-39.745116 Y34.108431 
G1 X-38.528712 Y34.107397 
G1 X-38.367700 Y34.075369 
G1 X-38.216031 Y34.012547 
G1 X-38.079534 Y33.921341 
G1 X-37.963453 Y33.805259 
G1 X-37.872247 Y33.668762 
G1 X-37.809425 Y33.517094 
G1 X-37.777397 Y33.356081 
G1 X-37.777397 Y32.937913 
G1 X-37.809425 Y32.776900 
G1 X-37.872247 Y32.625231 
G1 X-37.963453 Y32.488734 
G1 X-38.079534 Y32.372653 
G1 X-38.216031 Y32.281447 
G0 Z1.000000 
G0 X-39.452081 Y34.726600 
G1 Z-0.070000 F25    
G1 X-39.613094 Y34.758628 F50    
G1 X-39.764763 Y34.821450 
G1 X-39.901259 Y34.912656 
G1 X-40.141341 Y35.152738 
G1 X-40.193797 Y35.191616 
G1 X-40.254381 Y35.252200 
G1 X-40.297222 Y35.326397 
G1 X-40.319397 Y35.409156 
G1 X-40.319397 Y35.561694 
G1 X-40.327397 Y35.601916 
G1 X-40.327397 Y36.084081 
G1 X-40.319397 Y36.124297 
G1 X-40.319397 Y36.594841 
G1 X-40.297222 Y36.677600 
G1 X-40.254381 Y36.751797 
G1 X-40.193797 Y36.812381 
G1 X-40.125178 Y36.851997 
G1 X-40.193797 Y36.891616 
G1 X-40.254381 Y36.952200 
G1 X-40.297222 Y37.026397 
G1 X-40.319397 Y37.109156 
G1 X-40.319397 Y37.579694 
G1 X-40.327397 Y37.619916 
G1 X-40.327397 Y37.784081 
G1 X-40.319397 Y37.824303 
G1 X-40.319397 Y38.294841 
G1 X-40.297222 Y38.377600 
G1 X-40.254381 Y38.451797 
G1 X-40.193797 Y38.512381 
G1 X-40.119600 Y38.555222 
G1 X-40.036841 Y38.577397 
G1 X-39.797203 Y38.577397 
G1 X-39.691259 Y38.683341 
G1 X-39.554763 Y38.774547 
G1 X-39.403094 Y38.837369 
G1 X-39.242081 Y38.869397 
G1 X-38.423041 Y38.869397 
G1 X-38.337025 Y38.905028 
G1 X-37.901328 Y39.085494 
G1 X-37.841612 Y39.113025 
G1 X-37.810347 Y39.123181 
G1 X-37.745925 Y39.135994 
G1 X-37.681981 Y39.151347 
G1 X-37.649338 Y39.155209 
G1 X-37.583603 Y39.155209 
G1 X-37.517941 Y39.157787 
G1 X-37.485169 Y39.155209 
G1 X-37.420719 Y39.142387 
G1 X-37.355797 Y39.132106 
G1 X-37.324159 Y39.123181 
G1 X-37.263472 Y39.098044 
G1 X-37.201781 Y39.075284 
G1 X-37.172491 Y39.060359 
G1 X-37.117856 Y39.023853 
G1 X-37.061809 Y38.989506 
G1 X-37.035994 Y38.969153 
G1 X-36.989528 Y38.922688 
G1 X-36.941259 Y38.878069 
G1 X-36.699503 Y38.869409 
G1 X-36.639350 Y38.909603 
G1 X-36.459947 Y38.983913 
G1 X-36.269494 Y39.021797 
G1 X-34.754503 Y39.021797 
G1 X-34.564050 Y38.983913 
G1 X-34.384647 Y38.909603 
G1 X-34.324494 Y38.869409 
G1 X-34.251734 Y38.869409 
G1 X-34.225216 Y38.916644 
G1 X-34.210266 Y38.945984 
G1 X-34.179716 Y38.984734 
G1 X-34.152303 Y39.025759 
G1 X-34.108631 Y39.074903 
G1 X-34.071122 Y39.106938 
G1 X-34.036219 Y39.141841 
G1 X-34.008825 Y39.160141 
G1 X-33.966669 Y39.191109 
G1 X-33.490944 Y39.666837 
G1 X-33.246597 Y40.256741 
G1 X-33.246597 Y40.895253 
G1 X-33.476894 Y41.451234 
G1 X-33.539716 Y41.602900 
G1 X-33.571744 Y41.763909 
G1 X-33.571744 Y41.928081 
G1 X-33.565734 Y41.958291 
G1 X-33.539719 Y42.089087 
G1 X-33.476894 Y42.240756 
G1 X-33.246597 Y42.796741 
G1 X-33.246597 Y43.541591 
G1 X-33.216381 Y43.693475 
G1 X-33.151747 Y43.854269 
G1 X-33.060541 Y43.990766 
G1 X-32.944459 Y44.106850 
G1 X-32.863722 Y44.160794 
G1 X-32.807963 Y44.198053 
G1 X-32.665747 Y44.256959 
G1 X-32.261159 Y44.424544 
G1 X-31.793369 Y44.892337 
G1 X-31.677281 Y45.008428 
G1 X-31.444578 Y45.241128 
G1 X-31.330313 Y45.355400 
G1 X-31.240919 Y45.415128 
G1 X-31.193812 Y45.446606 
G1 X-31.103153 Y45.484156 
G1 X-31.042147 Y45.509428 
G1 X-30.881138 Y45.541456 
G1 X-30.716966 Y45.541456 
G1 X-30.683128 Y45.534725 
G1 X-30.555956 Y45.509431 
G1 X-30.404287 Y45.446609 
G1 X-30.267791 Y45.355403 
G1 X-30.151706 Y45.239322 
G1 X-30.091978 Y45.149928 
G1 X-30.060500 Y45.102822 
G1 X-30.013603 Y44.989597 
G1 X-29.927103 Y44.780769 
G1 X-29.864272 Y44.629091 
G1 X-29.848491 Y44.549734 
G1 X-29.832247 Y44.468088 
G1 X-29.832247 Y44.303909 
G1 X-29.847887 Y44.225291 
G1 X-29.864272 Y44.142906 
G1 X-29.927094 Y43.991237 
G1 X-30.157397 Y43.435253 
G1 X-30.157397 Y42.796741 
G1 X-29.927103 Y42.240769 
G1 X-29.864272 Y42.089091 
G1 X-29.848491 Y42.009734 
G1 X-29.832247 Y41.928087 
G1 X-29.832247 Y41.763909 
G1 X-29.851000 Y41.669650 
G1 X-29.864272 Y41.602909 
G1 X-29.883884 Y41.555566 
G1 X-29.927094 Y41.451241 
G1 X-30.157397 Y40.895256 
G1 X-30.157397 Y40.256747 
G1 X-30.031588 Y39.953025 
G1 X-29.999559 Y39.792016 
G1 X-29.999559 Y39.627837 
G1 X-30.018309 Y39.533578 
G1 X-30.031584 Y39.466837 
G1 X-30.066566 Y39.382381 
G1 X-30.094406 Y39.315166 
G1 X-30.123875 Y39.271066 
G1 X-30.185609 Y39.178669 
G1 X-30.301691 Y39.062584 
G1 X-32.107450 Y37.256831 
G1 X-32.253397 Y36.904488 
G1 X-32.295069 Y36.803878 
G1 X-32.316219 Y36.752819 
G1 X-32.360312 Y36.686825 
G1 X-32.407422 Y36.616319 
G1 X-32.523503 Y36.500237 
G1 X-32.660003 Y36.409031 
G1 X-32.724644 Y36.382256 
G1 X-32.811675 Y36.346206 
G1 X-32.917747 Y36.325109 
G1 X-32.972681 Y36.314181 
G1 X-33.136853 Y36.314181 
G1 X-33.174563 Y36.321684 
G1 X-33.297859 Y36.346206 
G1 X-33.449528 Y36.409031 
G1 X-33.515522 Y36.453125 
G1 X-33.586028 Y36.500234 
G1 X-33.702109 Y36.616316 
G1 X-33.966675 Y36.880888 
G1 X-34.008825 Y36.911850 
G1 X-34.036219 Y36.930153 
G1 X-34.071122 Y36.965056 
G1 X-34.108631 Y36.997091 
G1 X-34.129016 Y37.022950 
G1 X-34.179716 Y37.087259 
G1 X-34.210266 Y37.126009 
G1 X-34.225216 Y37.155350 
G1 X-34.243513 Y37.182731 
G1 X-34.324503 Y37.202581 
G1 X-34.384647 Y37.162394 
G1 X-34.564050 Y37.088084 
G1 X-34.754503 Y37.050200 
G1 X-36.269494 Y37.050200 
G1 X-36.459947 Y37.088084 
G1 X-36.639350 Y37.162394 
G1 X-36.699494 Y37.202581 
G1 X-37.047244 Y37.202581 
G1 X-37.076969 Y37.178312 
G1 X-37.133003 Y37.143975 
G1 X-37.187666 Y37.107447 
G1 X-37.216941 Y37.092531 
G1 X-37.278597 Y37.069784 
G1 X-37.339334 Y37.044625 
G1 X-37.370956 Y37.035706 
G1 X-37.435875 Y37.025422 
G1 X-37.500347 Y37.012597 
G1 X-37.533100 Y37.010019 
G1 X-37.598766 Y37.012597 
G1 X-37.855609 Y37.012597 
G1 X-38.016622 Y37.044625 
G1 X-38.168291 Y37.107447 
G1 X-38.304788 Y37.198653 
G1 X-38.668600 Y37.202600 
G1 X-38.668600 Y37.109156 
G1 X-38.690775 Y37.026397 
G1 X-38.733616 Y36.952200 
G1 X-38.794200 Y36.891616 
G1 X-38.862819 Y36.851997 
G1 X-38.794200 Y36.812381 
G1 X-38.733616 Y36.751797 
G1 X-38.690775 Y36.677600 
G1 X-38.668600 Y36.594841 
G1 X-38.668600 Y36.393397 
G1 X-36.581903 Y36.393397 
G1 X-36.459947 Y36.443913 
G1 X-36.269494 Y36.481797 
G1 X-34.754503 Y36.481797 
G1 X-34.564050 Y36.443913 
G1 X-34.384647 Y36.369603 
G1 X-34.223188 Y36.261719 
G1 X-34.085878 Y36.124409 
G1 X-33.977994 Y35.962950 
G1 X-33.903684 Y35.783547 
G1 X-33.865800 Y35.593094 
G1 X-33.865800 Y35.398903 
G1 X-33.903684 Y35.208450 
G1 X-33.977994 Y35.029047 
G1 X-34.085878 Y34.867587 
G1 X-34.223188 Y34.730278 
G1 X-34.384647 Y34.622394 
G1 X-34.564050 Y34.548084 
G1 X-34.754503 Y34.510200 
G1 X-36.269494 Y34.510200 
G1 X-36.459947 Y34.548084 
G1 X-36.639350 Y34.622394 
G1 X-36.795303 Y34.726600 
G1 X-39.452081 Y34.726600 
G0 Z1.000000 
G0 X-40.217581 Y39.552600 
G1 Z-0.070000 F25    
G1 X-40.386631 Y39.579375 F50    
G1 X-40.549416 Y39.632266 
G1 X-40.701919 Y39.709972 
G1 X-40.840391 Y39.810578 
G1 X-40.961419 Y39.931606 
G1 X-41.062025 Y40.070078 
G1 X-41.139731 Y40.222581 
G1 X-41.192622 Y40.385366 
G1 X-41.219397 Y40.554416 
G1 X-41.219397 Y40.725581 
G1 X-41.192622 Y40.894631 
G1 X-41.139731 Y41.057416 
G1 X-41.062025 Y41.209919 
G1 X-40.961419 Y41.348391 
G1 X-40.840391 Y41.469419 
G1 X-40.701919 Y41.570025 
G1 X-40.549416 Y41.647731 
G1 X-40.386631 Y41.700622 
G1 X-40.217581 Y41.727397 
G1 X-38.522416 Y41.727397 
G1 X-38.353366 Y41.700622 
G1 X-38.190581 Y41.647731 
G1 X-38.038078 Y41.570025 
G1 X-37.905084 Y41.473397 
G1 X-36.581906 Y41.473397 
G1 X-36.459947 Y41.523913 
G1 X-36.269494 Y41.561797 
G1 X-34.754503 Y41.561797 
G1 X-34.564050 Y41.523913 
G1 X-34.384647 Y41.449603 
G1 X-34.223188 Y41.341719 
G1 X-34.085878 Y41.204409 
G1 X-33.977994 Y41.042950 
G1 X-33.903684 Y40.863547 
G1 X-33.865800 Y40.673094 
G1 X-33.865800 Y40.478903 
G1 X-33.903684 Y40.288450 
G1 X-33.977994 Y40.109047 
G1 X-34.085878 Y39.947587 
G1 X-34.223188 Y39.810278 
G1 X-34.384647 Y39.702394 
G1 X-34.564050 Y39.628084 
G1 X-34.754503 Y39.590200 
G1 X-36.269494 Y39.590200 
G1 X-36.459947 Y39.628084 
G1 X-36.639350 Y39.702394 
G1 X-36.795303 Y39.806600 
G1 X-37.905084 Y39.806600 
G1 X-38.038078 Y39.709972 
G1 X-38.190581 Y39.632266 
G1 X-38.353366 Y39.579375 
G1 X-38.522416 Y39.552600 
G1 X-40.217581 Y39.552600 
G0 Z1.000000 
G0 X-40.217581 Y42.092600 
G1 Z-0.070000 F25    
G1 X-40.386631 Y42.119375 F50    
G1 X-40.549416 Y42.172266 
G1 X-40.701919 Y42.249972 
G1 X-40.840391 Y42.350578 
G1 X-40.961419 Y42.471606 
G1 X-41.062025 Y42.610078 
G1 X-41.139731 Y42.762581 
G1 X-41.192622 Y42.925366 
G1 X-41.219397 Y43.094416 
G1 X-41.219397 Y43.265581 
G1 X-41.192622 Y43.434631 
G1 X-41.139731 Y43.597416 
G1 X-41.062025 Y43.749919 
G1 X-40.961419 Y43.888391 
G1 X-40.840391 Y44.009419 
G1 X-40.701919 Y44.110025 
G1 X-40.549416 Y44.187731 
G1 X-40.386631 Y44.240622 
G1 X-40.217581 Y44.267397 
G1 X-38.522416 Y44.267397 
G1 X-38.353366 Y44.240622 
G1 X-38.190581 Y44.187731 
G1 X-38.038078 Y44.110025 
G1 X-37.905084 Y44.013397 
G1 X-36.581906 Y44.013397 
G1 X-36.459947 Y44.063913 
G1 X-36.269494 Y44.101797 
G1 X-34.754503 Y44.101797 
G1 X-34.564050 Y44.063913 
G1 X-34.384647 Y43.989603 
G1 X-34.223188 Y43.881719 
G1 X-34.085878 Y43.744409 
G1 X-33.977994 Y43.582950 
G1 X-33.903684 Y43.403547 
G1 X-33.865800 Y43.213094 
G1 X-33.865800 Y43.018903 
G1 X-33.903684 Y42.828450 
G1 X-33.977994 Y42.649047 
G1 X-34.085878 Y42.487587 
G1 X-34.223188 Y42.350278 
G1 X-34.384647 Y42.242394 
G1 X-34.564050 Y42.168084 
G1 X-34.754503 Y42.130200 
G1 X-36.269494 Y42.130200 
G1 X-36.459947 Y42.168084 
G1 X-36.639350 Y42.242394 
G1 X-36.795303 Y42.346600 
G1 X-37.905084 Y42.346600 
G1 X-38.038078 Y42.249972 
G1 X-38.190581 Y42.172266 
G1 X-38.353366 Y42.119375 
G1 X-38.522416 Y42.092600 
G1 X-40.217581 Y42.092600 
G0 Z1.000000 
G0 X-40.221962 Y44.981447 
G1 Z-0.070000 F25    
G1 X-40.358459 Y45.072653 F50    
G1 X-40.474541 Y45.188734 
G1 X-40.565747 Y45.325231 
G1 X-40.628569 Y45.476900 
G1 X-40.660597 Y45.637912 
G1 X-40.660597 Y45.802078 
G1 X-40.660597 Y47.479356 
G1 X-40.628569 Y47.640369 
G1 X-40.565747 Y47.792037 
G1 X-40.528487 Y47.847797 
G1 X-40.474544 Y47.928534 
G1 X-39.241737 Y49.161341 
G1 X-39.105241 Y49.252547 
G1 X-38.953572 Y49.315369 
G1 X-38.792563 Y49.347397 
G1 X-38.528712 Y49.347397 
G1 X-38.367700 Y49.315369 
G1 X-38.216031 Y49.252547 
G1 X-38.079534 Y49.161341 
G1 X-37.963453 Y49.045259 
G1 X-37.872247 Y48.908763 
G1 X-37.809425 Y48.757094 
G1 X-37.777397 Y48.596081 
G1 X-37.777397 Y47.876741 
G1 X-37.545913 Y47.317891 
G1 X-37.484275 Y47.169088 
G1 X-37.458981 Y47.041919 
G1 X-37.452250 Y47.008081 
G1 X-37.452250 Y46.843909 
G1 X-37.484278 Y46.682900 
G1 X-37.536684 Y46.556384 
G1 X-37.777397 Y45.975250 
G1 X-37.777397 Y45.637912 
G1 X-37.809425 Y45.476900 
G1 X-37.872247 Y45.325231 
G1 X-37.963453 Y45.188734 
G1 X-38.079534 Y45.072653 
G1 X-38.216031 Y44.981447 
G1 X-38.367700 Y44.918625 
G1 X-38.528712 Y44.886597 
G1 X-39.909281 Y44.886597 
G1 X-40.070294 Y44.918625 
G1 X-40.221962 Y44.981447 
G0 Z1.000000 
G0 X-36.938119 Y45.027588 
G1 Z-0.070000 F25    
G1 X-37.046003 Y45.189047 F50    
G1 X-37.120312 Y45.368450 
G1 X-37.158197 Y45.558903 
G1 X-37.158197 Y45.753094 
G1 X-37.120312 Y45.943547 
G1 X-37.046003 Y46.122950 
G1 X-36.938119 Y46.284409 
G1 X-36.800809 Y46.421719 
G1 X-36.639350 Y46.529603 
G1 X-36.459947 Y46.603912 
G1 X-36.269494 Y46.641797 
G1 X-34.754503 Y46.641797 
G1 X-34.564050 Y46.603912 
G1 X-34.384647 Y46.529603 
G1 X-34.324478 Y46.489397 
G1 X-33.429203 Y46.489397 
G1 X-31.313397 Y48.605203 
G1 X-31.313397 Y56.804794 
G1 X-34.821259 Y60.312656 
G1 X-34.937341 Y60.428737 
G1 X-35.028547 Y60.565234 
G1 X-35.091369 Y60.716903 
G1 X-35.123397 Y60.877916 
G1 X-35.123397 Y62.529397 
G1 X-35.169600 Y62.541775 
G1 X-35.243797 Y62.584616 
G1 X-35.304381 Y62.645200 
G1 X-35.347222 Y62.719397 
G1 X-35.369397 Y62.802156 
G1 X-35.369397 Y64.395841 
G1 X-35.347222 Y64.478600 
G1 X-35.304381 Y64.552797 
G1 X-35.243797 Y64.613381 
G1 X-35.169600 Y64.656222 
G1 X-35.086841 Y64.678397 
G1 X-33.493156 Y64.678397 
G1 X-33.410397 Y64.656222 
G1 X-33.336200 Y64.613381 
G1 X-33.275616 Y64.552797 
G1 X-33.232775 Y64.478600 
G1 X-33.210600 Y64.395841 
G1 X-33.210600 Y62.802156 
G1 X-33.232775 Y62.719397 
G1 X-33.275616 Y62.645200 
G1 X-33.336200 Y62.584616 
G1 X-33.410397 Y62.541775 
G1 X-33.456600 Y62.529397 
G1 X-33.456600 Y61.305203 
G1 X-29.832656 Y57.681259 
G1 X-29.741450 Y57.544762 
G1 X-29.678628 Y57.393094 
G1 X-29.646600 Y57.232081 
G1 X-29.646600 Y48.177916 
G1 X-29.678628 Y48.016903 
G1 X-29.741450 Y47.865234 
G1 X-29.832656 Y47.728738 
G1 X-32.552737 Y45.008656 
G1 X-32.689234 Y44.917450 
G1 X-32.840903 Y44.854628 
G1 X-33.001916 Y44.822600 
G1 X-34.324478 Y44.822600 
G1 X-34.384647 Y44.782394 
G1 X-34.564050 Y44.708084 
G1 X-34.754503 Y44.670200 
G1 X-36.269494 Y44.670200 
G1 X-36.459947 Y44.708084 
G1 X-36.639350 Y44.782394 
G1 X-36.800809 Y44.890278 
G1 X-36.938119 Y45.027588 
G0 Z1.000000 
G0 X-36.800809 Y47.430278 
G1 Z-0.070000 F25    
G1 X-36.938119 Y47.567588 F50    
G1 X-37.046003 Y47.729047 
G1 X-37.120312 Y47.908450 
G1 X-37.158197 Y48.098903 
G1 X-37.158197 Y48.293094 
G1 X-37.120312 Y48.483547 
G1 X-37.046003 Y48.662950 
G1 X-36.938119 Y48.824409 
G1 X-36.800809 Y48.961719 
G1 X-36.639350 Y49.069603 
G1 X-36.459947 Y49.143912 
G1 X-36.269494 Y49.181797 
G1 X-34.754503 Y49.181797 
G1 X-34.581263 Y49.147334 
G1 X-33.853397 Y49.875203 
G1 X-33.853397 Y54.264794 
G1 X-39.901259 Y60.312656 
G1 X-40.017341 Y60.428737 
G1 X-40.108547 Y60.565234 
G1 X-40.171369 Y60.716903 
G1 X-40.203397 Y60.877916 
G1 X-40.203397 Y62.561291 
G1 X-40.243797 Y62.584616 
G1 X-40.304381 Y62.645200 
G1 X-40.347222 Y62.719397 
G1 X-40.369397 Y62.802156 
G1 X-40.369397 Y64.395841 
G1 X-40.347222 Y64.478600 
G1 X-40.304381 Y64.552797 
G1 X-40.243797 Y64.613381 
G1 X-40.169600 Y64.656222 
G1 X-40.086841 Y64.678397 
G1 X-38.493156 Y64.678397 
G1 X-38.410397 Y64.656222 
G1 X-38.336200 Y64.613381 
G1 X-38.275616 Y64.552797 
G1 X-38.232775 Y64.478600 
G1 X-38.210600 Y64.395841 
G1 X-38.210600 Y62.802156 
G1 X-38.232775 Y62.719397 
G1 X-38.275616 Y62.645200 
G1 X-38.336200 Y62.584616 
G1 X-38.410397 Y62.541775 
G1 X-38.493156 Y62.519600 
G1 X-38.536600 Y62.519600 
G1 X-38.536600 Y61.305203 
G1 X-32.372656 Y55.141259 
G1 X-32.281450 Y55.004762 
G1 X-32.218628 Y54.853094 
G1 X-32.186600 Y54.692081 
G1 X-32.186600 Y49.447916 
G1 X-32.218628 Y49.286903 
G1 X-32.281450 Y49.135234 
G1 X-32.372656 Y48.998737 
G1 X-32.488737 Y48.882656 
G1 X-33.822738 Y47.548656 
G1 X-33.959234 Y47.457450 
G1 X-34.110903 Y47.394628 
G1 X-34.271916 Y47.362600 
G1 X-34.324478 Y47.362600 
G1 X-34.384647 Y47.322394 
G1 X-34.564050 Y47.248084 
G1 X-34.754503 Y47.210200 
G1 X-36.269494 Y47.210200 
G1 X-36.459947 Y47.248084 
G1 X-36.639350 Y47.322394 
G1 X-36.800809 Y47.430278 
G0 Z1.000000 
G0 X-29.180809 Y47.430278 
G1 Z-0.070000 F25    
G1 X-29.318119 Y47.567588 F50    
G1 X-29.426003 Y47.729047 
G1 X-29.500312 Y47.908450 
G1 X-29.538197 Y48.098903 
G1 X-29.538197 Y48.293094 
G1 X-29.500312 Y48.483547 
G1 X-29.426003 Y48.662950 
G1 X-29.318119 Y48.824409 
G1 X-29.180809 Y48.961719 
G1 X-29.019350 Y49.069603 
G1 X-28.839947 Y49.143912 
G1 X-28.649494 Y49.181797 
G1 X-27.134503 Y49.181797 
G1 X-26.944050 Y49.143912 
G1 X-26.764647 Y49.069603 
G1 X-26.704475 Y49.029397 
G1 X-23.486413 Y49.029397 
G1 X-23.429391 Y49.086419 
G1 X-23.290919 Y49.187025 
G1 X-23.138416 Y49.264731 
G1 X-22.975631 Y49.317622 
G1 X-22.806581 Y49.344397 
G1 X-21.111416 Y49.344397 
G1 X-20.942366 Y49.317622 
G1 X-20.779581 Y49.264731 
G1 X-20.627078 Y49.187025 
G1 X-20.488606 Y49.086419 
G1 X-20.367578 Y48.965391 
G1 X-20.266972 Y48.826919 
G1 X-20.189266 Y48.674416 
G1 X-20.136375 Y48.511631 
G1 X-20.109600 Y48.342581 
G1 X-20.109600 Y48.171416 
G1 X-20.136375 Y48.002366 
G1 X-20.189266 Y47.839581 
G1 X-20.266972 Y47.687078 
G1 X-20.367578 Y47.548606 
G1 X-20.488606 Y47.427578 
G1 X-20.627078 Y47.326972 
G1 X-20.779581 Y47.249266 
G1 X-20.942366 Y47.196375 
G1 X-21.111416 Y47.169600 
G1 X-22.806581 Y47.169600 
G1 X-22.975631 Y47.196375 
G1 X-23.138416 Y47.249266 
G1 X-23.290919 Y47.326972 
G1 X-23.339956 Y47.362600 
G1 X-26.704475 Y47.362600 
G1 X-26.764647 Y47.322394 
G1 X-26.944050 Y47.248084 
G1 X-27.134503 Y47.210200 
G1 X-28.649494 Y47.210200 
G1 X-28.839947 Y47.248084 
G1 X-29.019350 Y47.322394 
G1 X-29.180809 Y47.430278 
G0 Z1.000000 
G0 X-29.180809 Y46.421719 
G1 Z-0.070000 F25    
G1 X-29.019350 Y46.529603 F50    
G1 X-28.839947 Y46.603912 
G1 X-28.649494 Y46.641797 
G1 X-27.134503 Y46.641797 
G1 X-26.944050 Y46.603912 
G1 X-26.764647 Y46.529603 
G1 X-26.704475 Y46.489397 
G1 X-26.609781 Y46.489397 
G1 X-26.568797 Y46.530381 
G1 X-26.494600 Y46.573222 
G1 X-26.411841 Y46.595397 
G1 X-25.326156 Y46.595397 
G1 X-25.243397 Y46.573222 
G1 X-25.169200 Y46.530381 
G1 X-25.108616 Y46.469797 
G1 X-25.065775 Y46.395600 
G1 X-25.043600 Y46.312841 
G1 X-25.043600 Y45.842297 
G1 X-25.035600 Y45.802081 
G1 X-25.035600 Y45.637916 
G1 X-25.043600 Y45.597700 
G1 X-25.043600 Y45.127156 
G1 X-25.065775 Y45.044397 
G1 X-25.108616 Y44.970200 
G1 X-25.169200 Y44.909616 
G1 X-25.243397 Y44.866775 
G1 X-25.326156 Y44.844600 
G1 X-25.740319 Y44.844600 
G1 X-25.850916 Y44.822600 
G1 X-26.704475 Y44.822600 
G1 X-26.764647 Y44.782394 
G1 X-26.944050 Y44.708084 
G1 X-27.134503 Y44.670200 
G1 X-28.649494 Y44.670200 
G1 X-28.839947 Y44.708084 
G1 X-29.019350 Y44.782394 
G1 X-29.180809 Y44.890278 
G1 X-29.318119 Y45.027588 
G1 X-29.426003 Y45.189047 
G1 X-29.500312 Y45.368450 
G1 X-29.538197 Y45.558903 
G1 X-29.538197 Y45.753094 
G1 X-29.500312 Y45.943547 
G1 X-29.426003 Y46.122950 
G1 X-29.318119 Y46.284409 
G1 X-29.180809 Y46.421719 
G0 Z1.000000 
G0 X-29.180809 Y43.881719 
G1 Z-0.070000 F25    
G1 X-29.019350 Y43.989603 F50    
G1 X-28.839947 Y44.063913 
G1 X-28.649494 Y44.101797 
G1 X-27.134503 Y44.101797 
G1 X-26.944050 Y44.063913 
G1 X-26.764647 Y43.989603 
G1 X-26.704475 Y43.949397 
G1 X-26.609781 Y43.949397 
G1 X-26.568797 Y43.990381 
G1 X-26.494600 Y44.033222 
G1 X-26.411841 Y44.055397 
G1 X-25.326156 Y44.055397 
G1 X-25.243397 Y44.033222 
G1 X-25.169200 Y43.990381 
G1 X-25.108616 Y43.929797 
G1 X-25.065775 Y43.855600 
G1 X-25.043600 Y43.772841 
G1 X-25.043600 Y43.302297 
G1 X-25.035600 Y43.262081 
G1 X-25.035600 Y43.097916 
G1 X-25.043600 Y43.057700 
G1 X-25.043600 Y42.587156 
G1 X-25.065775 Y42.504397 
G1 X-25.108616 Y42.430200 
G1 X-25.169200 Y42.369616 
G1 X-25.243397 Y42.326775 
G1 X-25.326156 Y42.304600 
G1 X-25.740319 Y42.304600 
G1 X-25.850916 Y42.282600 
G1 X-26.704475 Y42.282600 
G1 X-26.764647 Y42.242394 
G1 X-26.944050 Y42.168084 
G1 X-27.134503 Y42.130200 
G1 X-28.649494 Y42.130200 
G1 X-28.839947 Y42.168084 
G1 X-29.019350 Y42.242394 
G1 X-29.180809 Y42.350278 
G1 X-29.318119 Y42.487587 
G1 X-29.426003 Y42.649047 
G1 X-29.500312 Y42.828450 
G1 X-29.538197 Y43.018903 
G1 X-29.538197 Y43.213094 
G1 X-29.500312 Y43.403547 
G1 X-29.426003 Y43.582950 
G1 X-29.318119 Y43.744409 
G1 X-29.180809 Y43.881719 
G0 Z1.000000 
G0 X-29.180809 Y41.341719 
G1 Z-0.070000 F25    
G1 X-29.019350 Y41.449603 F50    
G1 X-28.839947 Y41.523913 
G1 X-28.649494 Y41.561797 
G1 X-27.134503 Y41.561797 
G1 X-26.944050 Y41.523913 
G1 X-26.764647 Y41.449603 
G1 X-26.704475 Y41.409397 
G1 X-26.609781 Y41.409397 
G1 X-26.568797 Y41.450381 
G1 X-26.494600 Y41.493222 
G1 X-26.411841 Y41.515397 
G1 X-25.326156 Y41.515397 
G1 X-25.243397 Y41.493222 
G1 X-25.169200 Y41.450381 
G1 X-25.108616 Y41.389797 
G1 X-25.065775 Y41.315600 
G1 X-25.043600 Y41.232841 
G1 X-25.043600 Y40.762297 
G1 X-25.035600 Y40.722081 
G1 X-25.035600 Y40.557916 
G1 X-25.043600 Y40.517700 
G1 X-25.043600 Y40.047156 
G1 X-25.065775 Y39.964397 
G1 X-25.108616 Y39.890200 
G1 X-25.169200 Y39.829616 
G1 X-25.243397 Y39.786775 
G1 X-25.326156 Y39.764600 
G1 X-25.740319 Y39.764600 
G1 X-25.850916 Y39.742600 
G1 X-26.704475 Y39.742600 
G1 X-26.764647 Y39.702394 
G1 X-26.944050 Y39.628084 
G1 X-27.134503 Y39.590200 
G1 X-28.649494 Y39.590200 
G1 X-28.839947 Y39.628084 
G1 X-29.019350 Y39.702394 
G1 X-29.180809 Y39.810278 
G1 X-29.318119 Y39.947587 
G1 X-29.426003 Y40.109047 
G1 X-29.500312 Y40.288450 
G1 X-29.538197 Y40.478903 
G1 X-29.538197 Y40.673094 
G1 X-29.500312 Y40.863547 
G1 X-29.426003 Y41.042950 
G1 X-29.318119 Y41.204409 
G1 X-29.180809 Y41.341719 
G0 Z1.000000 
G0 X-24.972222 Y41.315600 
G1 Z-0.070000 F25    
G1 X-24.929381 Y41.389797 F50    
G1 X-24.868797 Y41.450381 
G1 X-24.794600 Y41.493222 
G1 X-24.711841 Y41.515397 
G1 X-23.626156 Y41.515397 
G1 X-23.543397 Y41.493222 
G1 X-23.509062 Y41.473397 
G1 X-23.419784 Y41.473397 
G1 X-23.290919 Y41.567025 
G1 X-23.138416 Y41.644731 
G1 X-22.975631 Y41.697622 
G1 X-22.806581 Y41.724397 
G1 X-21.111416 Y41.724397 
G1 X-20.942366 Y41.697622 
G1 X-20.779581 Y41.644731 
G1 X-20.627078 Y41.567025 
G1 X-20.488606 Y41.466419 
G1 X-20.367578 Y41.345391 
G1 X-20.266972 Y41.206919 
G1 X-20.189266 Y41.054416 
G1 X-20.136375 Y40.891631 
G1 X-20.109600 Y40.722581 
G1 X-20.109600 Y40.551416 
G1 X-20.136375 Y40.382366 
G1 X-20.189266 Y40.219581 
G1 X-20.266972 Y40.067078 
G1 X-20.367578 Y39.928606 
G1 X-20.488606 Y39.807578 
G1 X-20.627078 Y39.706972 
G1 X-20.779581 Y39.629266 
G1 X-20.942366 Y39.576375 
G1 X-21.111416 Y39.549600 
G1 X-22.806581 Y39.549600 
G1 X-22.975631 Y39.576375 
G1 X-23.138416 Y39.629266 
G1 X-23.290919 Y39.706972 
G1 X-23.428044 Y39.806600 
G1 X-23.509062 Y39.806600 
G1 X-23.543397 Y39.786775 
G1 X-23.626156 Y39.764600 
G1 X-24.711841 Y39.764600 
G1 X-24.794600 Y39.786775 
G1 X-24.868797 Y39.829616 
G1 X-24.929381 Y39.890200 
G1 X-24.972222 Y39.964397 
G1 X-24.994397 Y40.047156 
G1 X-24.994397 Y40.517697 
G1 X-25.002397 Y40.557916 
G1 X-25.002397 Y40.722081 
G1 X-24.994397 Y40.762300 
G1 X-24.994397 Y41.232841 
G1 X-24.972222 Y41.315600 
G0 Z1.000000 
G0 X-24.868797 Y42.369616 
G1 Z-0.070000 F25    
G1 X-24.929381 Y42.430200 F50    
G1 X-24.972222 Y42.504397 
G1 X-24.994397 Y42.587156 
G1 X-24.994397 Y43.057700 
G1 X-25.002397 Y43.097916 
G1 X-25.002397 Y43.262081 
G1 X-24.994397 Y43.302297 
G1 X-24.994397 Y43.772841 
G1 X-24.972222 Y43.855600 
G1 X-24.929381 Y43.929797 
G1 X-24.868797 Y43.990381 
G1 X-24.794600 Y44.033222 
G1 X-24.711841 Y44.055397 
G1 X-23.626156 Y44.055397 
G1 X-23.543397 Y44.033222 
G1 X-23.509062 Y44.013397 
G1 X-23.419784 Y44.013397 
G1 X-23.290919 Y44.107025 
G1 X-23.138416 Y44.184731 
G1 X-22.975631 Y44.237622 
G1 X-22.806581 Y44.264397 
G1 X-21.111416 Y44.264397 
G1 X-20.942366 Y44.237622 
G1 X-20.779581 Y44.184731 
G1 X-20.627078 Y44.107025 
G1 X-20.488606 Y44.006419 
G1 X-20.367578 Y43.885391 
G1 X-20.266972 Y43.746919 
G1 X-20.189266 Y43.594416 
G1 X-20.136375 Y43.431631 
G1 X-20.109600 Y43.262581 
G1 X-20.109600 Y43.091416 
G1 X-20.136375 Y42.922366 
G1 X-20.189266 Y42.759581 
G1 X-20.266972 Y42.607078 
G1 X-20.367578 Y42.468606 
G1 X-20.488606 Y42.347578 
G1 X-20.627078 Y42.246972 
G1 X-20.779581 Y42.169266 
G1 X-20.942366 Y42.116375 
G1 X-21.111416 Y42.089600 
G1 X-22.806581 Y42.089600 
G1 X-22.975631 Y42.116375 
G1 X-23.138416 Y42.169266 
G1 X-23.290919 Y42.246972 
G1 X-23.428044 Y42.346600 
G1 X-23.509062 Y42.346600 
G1 X-23.543397 Y42.326775 
G1 X-23.626156 Y42.304600 
G1 X-24.711841 Y42.304600 
G1 X-24.794600 Y42.326775 
G1 X-24.868797 Y42.369616 
G0 Z1.000000 
G0 X-23.339956 Y49.902600 
G1 Z-0.070000 F25    
G1 X-26.704475 Y49.902600 F50    
G1 X-26.764647 Y49.862394 
G1 X-26.944050 Y49.788084 
G1 X-27.134503 Y49.750200 
G1 X-28.649494 Y49.750200 
G1 X-28.839947 Y49.788084 
G1 X-29.019350 Y49.862394 
G1 X-29.180809 Y49.970278 
G1 X-29.318119 Y50.107588 
G1 X-29.426003 Y50.269047 
G1 X-29.500312 Y50.448450 
G1 X-29.538197 Y50.638903 
G1 X-29.538197 Y50.833094 
G1 X-29.500312 Y51.023547 
G1 X-29.426003 Y51.202950 
G1 X-29.318119 Y51.364409 
G1 X-29.180809 Y51.501719 
G1 X-29.019350 Y51.609603 
G1 X-28.839947 Y51.683912 
G1 X-28.649494 Y51.721797 
G1 X-27.134503 Y51.721797 
G1 X-26.944050 Y51.683912 
G1 X-26.764647 Y51.609603 
G1 X-26.704475 Y51.569397 
G1 X-23.486413 Y51.569397 
G1 X-23.429391 Y51.626419 
G1 X-23.290919 Y51.727025 
G1 X-23.138416 Y51.804731 
G1 X-22.975631 Y51.857622 
G1 X-22.806581 Y51.884397 
G1 X-21.111416 Y51.884397 
G1 X-20.942366 Y51.857622 
G1 X-20.779581 Y51.804731 
G1 X-20.627078 Y51.727025 
G1 X-20.488606 Y51.626419 
G1 X-20.367578 Y51.505391 
G1 X-20.266972 Y51.366919 
G1 X-20.189266 Y51.214416 
G1 X-20.136375 Y51.051631 
G1 X-20.109600 Y50.882581 
G1 X-20.109600 Y50.711416 
G1 X-20.136375 Y50.542366 
G1 X-20.189266 Y50.379581 
G1 X-20.266972 Y50.227078 
G1 X-20.367578 Y50.088606 
G1 X-20.488606 Y49.967578 
G1 X-20.627078 Y49.866972 
G1 X-20.779581 Y49.789266 
G1 X-20.942366 Y49.736375 
G1 X-21.111416 Y49.709600 
G1 X-22.806581 Y49.709600 
G1 X-22.975631 Y49.736375 
G1 X-23.138416 Y49.789266 
G1 X-23.290919 Y49.866972 
G1 X-23.339956 Y49.902600 
G0 Z1.000000 
G0 X-23.290919 Y52.406972 
G1 Z-0.070000 F25    
G1 X-23.428044 Y52.506600 F50    
G1 X-23.509062 Y52.506600 
G1 X-23.543397 Y52.486775 
G1 X-23.626156 Y52.464600 
G1 X-24.711841 Y52.464600 
G1 X-24.794600 Y52.486775 
G1 X-24.868797 Y52.529616 
G1 X-24.929381 Y52.590200 
G1 X-24.972222 Y52.664397 
G1 X-24.994397 Y52.747156 
G1 X-24.994397 Y53.217700 
G1 X-25.002397 Y53.257916 
G1 X-25.002397 Y53.422081 
G1 X-24.994397 Y53.462297 
G1 X-24.994397 Y53.932841 
G1 X-24.972222 Y54.015600 
G1 X-24.929381 Y54.089797 
G1 X-24.868797 Y54.150381 
G1 X-24.794600 Y54.193222 
G1 X-24.711841 Y54.215397 
G1 X-23.626156 Y54.215397 
G1 X-23.543397 Y54.193222 
G1 X-23.509062 Y54.173397 
G1 X-23.419784 Y54.173397 
G1 X-23.290919 Y54.267025 
G1 X-23.138416 Y54.344731 
G1 X-22.975631 Y54.397622 
G1 X-22.806581 Y54.424397 
G1 X-21.111416 Y54.424397 
G1 X-20.942366 Y54.397622 
G1 X-20.779581 Y54.344731 
G1 X-20.627078 Y54.267025 
G1 X-20.488606 Y54.166419 
G1 X-20.367578 Y54.045391 
G1 X-20.266972 Y53.906919 
G1 X-20.189266 Y53.754416 
G1 X-20.136375 Y53.591631 
G1 X-20.109600 Y53.422581 
G1 X-20.109600 Y53.251416 
G1 X-20.136375 Y53.082366 
G1 X-20.189266 Y52.919581 
G1 X-20.266972 Y52.767078 
G1 X-20.367578 Y52.628606 
G1 X-20.488606 Y52.507578 
G1 X-20.627078 Y52.406972 
G1 X-20.779581 Y52.329266 
G1 X-20.942366 Y52.276375 
G1 X-21.111416 Y52.249600 
G1 X-22.806581 Y52.249600 
G1 X-22.975631 Y52.276375 
G1 X-23.138416 Y52.329266 
G1 X-23.290919 Y52.406972 
G0 Z1.000000 
G0 X-25.108616 Y52.590200 
G1 Z-0.070000 F25    
G1 X-25.169200 Y52.529616 F50    
G1 X-25.243397 Y52.486775 
G1 X-25.326156 Y52.464600 
