(.../pcb-gcode-3.6.2.4/pcb-gcode.ulp)
(Copyright 2005 - 2012 by John Johnson)
(See readme.txt for licensing terms.)
(This file generated from the board:)
(.../RailRoadModule/RailRoadPointModule_01.brd)
(Current profile is .../pcb-gcode-3.6.2.4/profiles/grbl-NuggetMill.pp  )
(This file generated 2022/10/01 13:29)
(Settings from pcb-machine.h)
(spindle on time = 1.0000)
(  Tool Size)
(0.500000 )
(spindle speed = 30000.0000)
(tool change at 0.000000 0.000000 12.700000 )
(feed rate xy = F50    )
(feed rate z  = F25    )
(Z Axis Settings)
(  High     Up        Down     Drill)
(10.000000 	1.000000 	-0.080000 	-1.550000 )
(Settings from pcb-defaults.h)
(isolate min = 0.0254)
(isolate max = 0.5000)
(isolate step = 0.1000)
(Generated top outlines, bottom outlines, bottom drill, )
(Unit of measure: mm)
(Metric Mode)
G21
(Absolute Coordinates)
G90
G0 Z10.000000 
G0 X0.000000 Y0.000000 
M3
G4 P1
G0 Z1.000000 
G0 X-1.169491 Y4.460125 
G1 Z-0.080000 F25    
G1 X-1.278606 Y4.351009 F50    
G1 X-1.319478 Y4.323700 
G1 X-1.406916 Y4.265275 
G1 X-1.549484 Y4.206222 
G1 X-1.700834 Y4.176116 
G1 X-1.855156 Y4.176116 
G1 X-2.006506 Y4.206222 
G1 X-2.149075 Y4.265275 
G1 X-2.702703 Y4.494597 
G1 X-3.297294 Y4.494597 
G1 X-3.846619 Y4.267062 
G1 X-4.267062 Y3.846619 
G1 X-4.494597 Y3.297294 
G1 X-4.494597 Y2.702703 
G1 X-4.265278 Y2.149078 
G1 X-4.208684 Y2.012447 
G1 X-4.176116 Y1.855156 
G1 X-4.176116 Y1.700834 
G1 X-4.206222 Y1.549484 
G1 X-4.265275 Y1.406916 
G1 X-4.321419 Y1.322891 
G1 X-4.351006 Y1.278609 
G1 X-4.460125 Y1.169491 
G1 X-4.588434 Y1.083756 
G1 X-4.731003 Y1.024703 
G1 X-4.882353 Y0.994597 
G1 X-27.065506 Y0.994597 
G1 X-27.144609 Y0.915494 
G1 X-27.272919 Y0.829759 
G1 X-27.415488 Y0.770706 
G1 X-27.566837 Y0.740600 
G1 X-36.907159 Y0.740600 
G1 X-37.058509 Y0.770706 
G1 X-37.201078 Y0.829759 
G1 X-37.329388 Y0.915494 
G1 X-37.408491 Y0.994597 
G1 X-42.117641 Y0.994597 
G1 X-42.268991 Y1.024703 
G1 X-42.411559 Y1.083756 
G1 X-42.539869 Y1.169491 
G1 X-42.648984 Y1.278606 
G1 X-42.676294 Y1.319478 
G1 X-42.734719 Y1.406916 
G1 X-42.793772 Y1.549484 
G1 X-42.823878 Y1.700834 
G1 X-42.823878 Y1.855156 
G1 X-42.793772 Y2.006506 
G1 X-42.734719 Y2.149075 
G1 X-42.505397 Y2.702703 
G1 X-42.505397 Y3.297294 
G1 X-42.732931 Y3.846619 
G1 X-43.153375 Y4.267062 
G1 X-43.702700 Y4.494597 
G1 X-44.297288 Y4.494597 
G1 X-44.882919 Y4.252022 
G1 X-44.984466 Y4.209959 
G1 X-45.025487 Y4.192966 
G1 X-45.176837 Y4.162859 
G1 X-45.331159 Y4.162859 
G1 X-45.482509 Y4.192966 
G1 X-45.625078 Y4.252019 
G1 X-45.698841 Y4.301306 
G1 X-45.753384 Y4.337750 
G1 X-45.862503 Y4.446869 
G1 X-45.948237 Y4.575175 
G1 X-46.007291 Y4.717747 
G1 X-46.037397 Y4.869097 
G1 X-46.037397 Y9.623503 
G1 X-46.116503 Y9.702609 
G1 X-46.202238 Y9.830919 
G1 X-46.261291 Y9.973487 
G1 X-46.291397 Y10.124837 
G1 X-46.291397 Y61.757159 
G1 X-46.261291 Y61.908509 
G1 X-46.202238 Y62.051078 
G1 X-46.116503 Y62.179387 
G1 X-46.037397 Y62.258494 
G1 X-46.037397 Y67.130897 
G1 X-46.007291 Y67.282247 
G1 X-45.948237 Y67.424819 
G1 X-45.864209 Y67.550572 
G1 X-45.753388 Y67.662241 
G1 X-45.712516 Y67.689550 
G1 X-45.625078 Y67.747975 
G1 X-45.482509 Y67.807028 
G1 X-45.331159 Y67.837134 
G1 X-45.176837 Y67.837134 
G1 X-45.025487 Y67.807028 
G1 X-44.882919 Y67.747975 
G1 X-44.297288 Y67.505397 
G1 X-43.702700 Y67.505397 
G1 X-43.153375 Y67.732931 
G1 X-42.732931 Y68.153375 
G1 X-42.505397 Y68.702700 
G1 X-42.505397 Y69.297291 
G1 X-42.737200 Y69.856916 
G1 X-42.793331 Y69.992431 
G1 X-42.826363 Y70.150837 
G1 X-42.826363 Y70.305159 
G1 X-42.797962 Y70.447931 
G1 X-42.737203 Y70.599078 
G1 X-42.651469 Y70.727388 
G1 X-42.542353 Y70.836503 
G1 X-42.414044 Y70.922237 
G1 X-42.271475 Y70.981291 
G1 X-42.120125 Y71.011397 
G1 X-4.879869 Y71.011397 
G1 X-4.728519 Y70.981291 
G1 X-4.585950 Y70.922237 
G1 X-4.457641 Y70.836503 
G1 X-4.348525 Y70.727388 
G1 X-4.262791 Y70.599078 
G1 X-4.203737 Y70.456509 
G1 X-4.173631 Y70.305159 
G1 X-4.173631 Y70.150837 
G1 X-4.203737 Y69.999488 
G1 X-4.262791 Y69.856919 
G1 X-4.494597 Y69.297291 
G1 X-4.494597 Y68.702700 
G1 X-4.267062 Y68.153375 
G1 X-3.846619 Y67.732931 
G1 X-3.297294 Y67.505397 
G1 X-2.702703 Y67.505397 
G1 X-2.149078 Y67.734716 
G1 X-2.012447 Y67.791309 
G1 X-1.855156 Y67.823878 
G1 X-1.700834 Y67.823878 
G1 X-1.549484 Y67.793772 
G1 X-1.406916 Y67.734719 
G1 X-1.322891 Y67.678575 
G1 X-1.278609 Y67.648988 
G1 X-1.169491 Y67.539869 
G1 X-1.083756 Y67.411559 
G1 X-1.024703 Y67.268991 
G1 X-0.994597 Y67.117641 
G1 X-0.994597 Y54.383722 
G1 X-1.024703 Y54.232372 
G1 X-1.083756 Y54.089803 
G1 X-1.169491 Y53.961494 
G1 X-1.278606 Y53.852378 
G1 X-1.406916 Y53.766644 
G1 X-1.549484 Y53.707591 
G1 X-1.700834 Y53.677484 
G1 X-1.855156 Y53.677484 
G1 X-2.006506 Y53.707591 
G1 X-2.149075 Y53.766644 
G1 X-2.277384 Y53.852378 
G1 X-2.386500 Y53.961494 
G1 X-4.426503 Y56.001497 
G1 X-4.512238 Y56.129806 
G1 X-4.571291 Y56.272375 
G1 X-4.601397 Y56.423725 
G1 X-4.601397 Y56.751834 
G1 X-4.752816 Y57.117391 
G1 X-5.032603 Y57.397178 
G1 X-5.398159 Y57.548597 
G1 X-7.301834 Y57.548597 
G1 X-7.667391 Y57.397178 
G1 X-7.947178 Y57.117391 
G1 X-8.098597 Y56.751834 
G1 X-8.098597 Y54.848159 
G1 X-7.947178 Y54.482603 
G1 X-7.667391 Y54.202813 
G1 X-7.306400 Y54.053288 
G1 X-7.163828 Y53.994234 
G1 X-7.038078 Y53.910206 
G1 X-6.926403 Y53.799381 
G1 X-6.840672 Y53.671075 
G1 X-6.781619 Y53.528503 
G1 X-6.751512 Y53.377153 
G1 X-6.751512 Y53.222834 
G1 X-6.781619 Y53.071481 
G1 X-6.840672 Y52.928913 
G1 X-6.924700 Y52.803162 
G1 X-7.035525 Y52.691488 
G1 X-7.163831 Y52.605756 
G1 X-7.293356 Y52.552109 
G1 X-7.667391 Y52.397181 
G1 X-7.947181 Y52.117391 
G1 X-8.098597 Y51.751834 
G1 X-8.098597 Y51.136359 
G1 X-8.110912 Y51.074450 
G1 X-8.128700 Y50.985016 
G1 X-8.187753 Y50.842447 
G1 X-8.273491 Y50.714131 
G1 X-8.382606 Y50.605016 
G1 X-8.535488 Y50.452137 
G1 X-8.644609 Y50.343009 
G1 X-8.772919 Y50.257275 
G1 X-8.915487 Y50.198222 
G1 X-9.066838 Y50.168116 
G1 X-9.221159 Y50.168116 
G1 X-9.341088 Y50.191972 
G1 X-9.372503 Y50.198219 
G1 X-9.515078 Y50.257275 
G1 X-9.643387 Y50.343009 
G1 X-9.752503 Y50.452125 
G1 X-9.838237 Y50.580434 
G1 X-9.897291 Y50.723003 
G1 X-9.927397 Y50.874353 
G1 X-9.927397 Y61.360266 
G1 X-9.897291 Y61.511616 
G1 X-9.838237 Y61.654184 
G1 X-9.752503 Y61.782494 
G1 X-9.643387 Y61.891609 
G1 X-8.930153 Y62.604844 
G1 X-8.701397 Y63.157109 
G1 X-8.701397 Y64.443600 
G1 X-8.671291 Y64.594953 
G1 X-8.455397 Y65.116163 
G1 X-8.455397 Y67.019834 
G1 X-8.606816 Y67.385391 
G1 X-8.886603 Y67.665178 
G1 X-9.252159 Y67.816597 
G1 X-11.155834 Y67.816597 
G1 X-11.521391 Y67.665178 
G1 X-11.801178 Y67.385391 
G1 X-11.950706 Y67.024400 
G1 X-12.009759 Y66.881828 
G1 X-12.093787 Y66.756075 
G1 X-12.204612 Y66.644403 
G1 X-12.332919 Y66.558672 
G1 X-12.475491 Y66.499619 
G1 X-12.626841 Y66.469512 
G1 X-12.781159 Y66.469512 
G1 X-12.932512 Y66.499619 
G1 X-13.075081 Y66.558672 
G1 X-13.200834 Y66.642700 
G1 X-13.312506 Y66.753525 
G1 X-13.398238 Y66.881831 
G1 X-13.451884 Y67.011356 
G1 X-13.606813 Y67.385391 
G1 X-13.886603 Y67.665178 
G1 X-14.252159 Y67.816597 
G1 X-16.155834 Y67.816597 
G1 X-16.521391 Y67.665178 
G1 X-16.801178 Y67.385391 
G1 X-16.952597 Y67.019834 
G1 X-16.952597 Y65.116159 
G1 X-16.795759 Y64.737519 
G1 X-16.739284 Y64.601172 
G1 X-16.706597 Y64.443597 
G1 X-16.706597 Y63.157109 
G1 X-16.477841 Y62.604844 
G1 X-15.756609 Y61.883612 
G1 X-15.663050 Y61.790056 
G1 X-15.561756 Y61.646188 
G1 X-15.502703 Y61.503619 
G1 X-15.472597 Y61.352269 
G1 X-15.472597 Y40.079416 
G1 X-15.502703 Y39.928066 
G1 X-15.561756 Y39.785497 
G1 X-15.599597 Y39.694144 
G1 X-15.599597 Y39.045847 
G1 X-15.351506 Y38.446900 
G1 X-14.893091 Y37.988484 
G1 X-14.139641 Y37.676400 
G1 X-14.011331 Y37.590666 
G1 X-13.903922 Y37.483256 
G1 X-13.874906 Y37.440678 
G1 X-13.816481 Y37.353241 
G1 X-13.757428 Y37.210672 
G1 X-13.727322 Y37.059322 
G1 X-13.727322 Y36.905000 
G1 X-13.757428 Y36.753650 
G1 X-13.814775 Y36.615203 
G1 X-13.902216 Y36.482772 
G1 X-13.993741 Y36.391250 
G1 X-14.530859 Y35.854131 
G1 X-14.659166 Y35.768400 
G1 X-14.893091 Y35.671506 
G1 X-15.351506 Y35.213094 
G1 X-15.599597 Y34.614147 
G1 X-15.599597 Y33.965847 
G1 X-15.351506 Y33.366900 
G1 X-14.893094 Y32.908487 
G1 X-14.294147 Y32.660397 
G1 X-13.645847 Y32.660397 
G1 X-13.046900 Y32.908487 
G1 X-12.588484 Y33.366903 
G1 X-12.550650 Y33.458247 
G1 X-12.491597 Y33.600825 
G1 X-12.409297 Y33.723991 
G1 X-11.980187 Y34.154816 
G1 X-11.892747 Y34.213237 
G1 X-11.851875 Y34.240550 
G1 X-11.770066 Y34.274434 
G1 X-11.709309 Y34.299603 
G1 X-11.557959 Y34.329709 
G1 X-11.403634 Y34.329709 
G1 X-11.354841 Y34.320003 
G1 X-11.252287 Y34.299606 
G1 X-11.109719 Y34.240553 
G1 X-10.981409 Y34.154819 
G1 X-10.872291 Y34.045703 
G1 X-10.813869 Y33.958262 
G1 X-10.786556 Y33.917391 
G1 X-10.752672 Y33.835581 
G1 X-10.727503 Y33.774825 
G1 X-10.697397 Y33.623475 
G1 X-10.697397 Y31.999531 
G1 X-10.499575 Y31.521947 
G1 X-9.969303 Y30.991675 
G1 X-8.226453 Y29.248825 
G1 X-8.132669 Y29.155041 
G1 X-8.090025 Y29.098837 
G1 X-8.031600 Y29.011400 
G1 X-7.972547 Y28.868831 
G1 X-7.731509 Y28.286903 
G1 X-7.273091 Y27.828488 
G1 X-6.674147 Y27.580397 
G1 X-6.018834 Y27.580397 
G1 X-5.867484 Y27.550291 
G1 X-5.724916 Y27.491238 
G1 X-5.596606 Y27.405503 
G1 X-5.487491 Y27.296388 
G1 X-5.401756 Y27.168078 
G1 X-5.342703 Y27.025509 
G1 X-5.312597 Y26.874159 
G1 X-5.312597 Y23.925834 
G1 X-5.342703 Y23.774484 
G1 X-5.401756 Y23.631916 
G1 X-5.487491 Y23.503606 
G1 X-5.596606 Y23.394491 
G1 X-5.724916 Y23.308756 
G1 X-5.867484 Y23.249703 
G1 X-6.018834 Y23.219597 
G1 X-6.674144 Y23.219597 
G1 X-6.765494 Y23.181759 
G1 X-6.901388 Y23.125469 
G1 X-7.059416 Y23.092597 
G1 X-9.221159 Y23.092597 
G1 X-9.372509 Y23.122703 
G1 X-9.515078 Y23.181756 
G1 X-9.643387 Y23.267491 
G1 X-9.752503 Y23.376606 
G1 X-9.838237 Y23.504916 
G1 X-9.897291 Y23.647484 
G1 X-9.927397 Y23.798834 
G1 X-9.927397 Y26.968884 
G1 X-10.156153 Y27.521150 
G1 X-10.743588 Y28.108584 
G1 X-12.296734 Y29.661731 
G1 X-12.404341 Y29.769337 
G1 X-12.491597 Y29.899166 
G1 X-12.588491 Y30.133097 
G1 X-13.046903 Y30.591506 
G1 X-13.645847 Y30.839597 
G1 X-14.294147 Y30.839597 
G1 X-14.893094 Y30.591506 
G1 X-15.351506 Y30.133091 
G1 X-15.599597 Y29.534147 
G1 X-15.599597 Y28.885847 
G1 X-15.351506 Y28.286900 
G1 X-14.893097 Y27.828491 
G1 X-14.659166 Y27.731597 
G1 X-14.530856 Y27.645862 
G1 X-14.421738 Y27.536747 
G1 X-13.216616 Y26.331612 
G1 X-13.107491 Y26.222494 
G1 X-13.023463 Y26.096737 
G1 X-12.962703 Y25.951616 
G1 X-12.932597 Y25.800266 
G1 X-12.932597 Y23.925834 
G1 X-12.962703 Y23.774484 
G1 X-13.021756 Y23.631916 
G1 X-13.107491 Y23.503606 
G1 X-13.216606 Y23.394491 
G1 X-13.344916 Y23.308756 
G1 X-13.487484 Y23.249703 
G1 X-13.638834 Y23.219597 
G1 X-14.294147 Y23.219597 
G1 X-14.893094 Y22.971506 
G1 X-15.351509 Y22.513091 
G1 X-15.448400 Y22.279166 
G1 X-15.534131 Y22.150859 
G1 X-15.643250 Y22.041741 
G1 X-16.035522 Y21.649469 
G1 X-16.513841 Y21.171153 
G1 X-16.743331 Y20.617116 
G1 X-16.746237 Y20.590053 
G1 X-16.760656 Y20.530016 
G1 X-16.772703 Y20.469444 
G1 X-16.782269 Y20.440003 
G1 X-16.808128 Y20.383928 
G1 X-16.808128 Y20.344069 
G1 X-16.782269 Y20.287991 
G1 X-16.772703 Y20.258550 
G1 X-16.760656 Y20.197978 
G1 X-16.746237 Y20.137941 
G1 X-16.742597 Y20.107200 
G1 X-16.742597 Y20.045437 
G1 X-16.740169 Y19.983741 
G1 X-16.742597 Y19.885619 
G1 X-16.772703 Y19.734269 
G1 X-16.831756 Y19.591700 
G1 X-16.917491 Y19.463391 
G1 X-17.026606 Y19.354275 
G1 X-17.154916 Y19.268541 
G1 X-17.297484 Y19.209488 
G1 X-17.448834 Y19.179381 
G1 X-17.603156 Y19.179381 
G1 X-17.754506 Y19.209488 
G1 X-17.897075 Y19.268541 
G1 X-18.025384 Y19.354275 
G1 X-18.072047 Y19.400938 
G1 X-18.107316 Y19.431062 
G1 X-18.134500 Y19.463391 
G1 X-18.174131 Y19.515825 
G1 X-18.202847 Y19.552253 
G1 X-18.216891 Y19.579819 
G1 X-18.234084 Y19.605550 
G1 X-18.251841 Y19.648419 
G1 X-18.351794 Y19.564412 
G1 X-18.520394 Y19.451756 
G1 X-18.707734 Y19.374159 
G1 X-18.906609 Y19.334600 
G1 X-19.109388 Y19.334600 
G1 X-19.308263 Y19.374159 
G1 X-19.495603 Y19.451756 
G1 X-19.664203 Y19.564412 
G1 X-19.807584 Y19.707794 
G1 X-19.920241 Y19.876394 
G1 X-19.970719 Y19.998266 
G1 X-20.000169 Y19.970862 
G1 X-20.062469 Y19.925597 
G1 X-20.112462 Y19.889272 
G1 X-20.139441 Y19.874166 
G1 X-20.196469 Y19.850547 
G1 X-20.252603 Y19.824666 
G1 X-20.282009 Y19.815113 
G1 X-20.342578 Y19.803066 
G1 X-20.402656 Y19.788641 
G1 X-20.433359 Y19.785006 
G1 X-20.495144 Y19.785006 
G1 X-20.556856 Y19.782581 
G1 X-20.587678 Y19.785006 
G1 X-20.648244 Y19.797056 
G1 X-20.709272 Y19.806719 
G1 X-20.739028 Y19.815113 
G1 X-20.796094 Y19.838750 
G1 X-20.854050 Y19.860131 
G1 X-20.881597 Y19.874166 
G1 X-20.932975 Y19.908497 
G1 X-20.985625 Y19.940759 
G1 X-21.053578 Y20.003575 
G1 X-21.098944 Y20.045506 
G1 X-22.037506 Y20.987503 
G1 X-22.067091 Y21.031784 
G1 X-22.123237 Y21.115809 
G1 X-22.182291 Y21.258378 
G1 X-22.212397 Y21.409728 
G1 X-22.212397 Y21.668337 
G1 X-22.200081 Y21.730250 
G1 X-22.182294 Y21.819681 
G1 X-22.123241 Y21.962253 
G1 X-22.047500 Y22.075600 
G1 X-22.551256 Y22.075600 
G1 X-22.621300 Y22.094369 
G1 X-22.684097 Y22.130625 
G1 X-22.735372 Y22.181900 
G1 X-22.771628 Y22.244697 
G1 X-22.790397 Y22.314741 
G1 X-22.790397 Y22.783622 
G1 X-22.798397 Y22.823837 
G1 X-22.798397 Y22.978159 
G1 X-22.790397 Y23.018375 
G1 X-22.790397 Y23.487256 
G1 X-22.771628 Y23.557300 
G1 X-22.735372 Y23.620097 
G1 X-22.684097 Y23.671372 
G1 X-22.621300 Y23.707628 
G1 X-22.551256 Y23.726397 
G1 X-21.478741 Y23.726397 
G1 X-21.408697 Y23.707628 
G1 X-21.368481 Y23.684409 
G1 X-21.290478 Y23.684409 
G1 X-21.252388 Y23.722503 
G1 X-21.124078 Y23.808238 
G1 X-20.981509 Y23.867291 
G1 X-20.830159 Y23.897397 
G1 X-20.135244 Y23.897397 
G1 X-20.015309 Y23.873538 
G1 X-19.983900 Y23.867291 
G1 X-19.841325 Y23.808234 
G1 X-19.746684 Y23.744997 
G1 X-18.510891 Y23.744997 
G1 X-17.394997 Y24.860891 
G1 X-17.394997 Y26.085519 
G1 X-18.126984 Y26.817506 
G1 X-18.218509 Y26.909031 
G1 X-18.321838 Y27.054931 
G1 X-18.363941 Y27.156581 
G1 X-18.509997 Y27.156581 
G1 X-18.662378 Y27.004200 
G1 X-19.437619 Y27.004200 
G1 X-19.985797 Y27.552378 
G1 X-19.985797 Y27.927403 
G1 X-20.055259 Y27.880987 
G1 X-20.110206 Y27.858228 
G1 X-20.197828 Y27.821934 
G1 X-20.257162 Y27.810131 
G1 X-20.349178 Y27.791828 
G1 X-20.503506 Y27.791828 
G1 X-20.654856 Y27.821934 
G1 X-20.771256 Y27.870150 
G1 X-20.797419 Y27.880987 
G1 X-20.925734 Y27.966725 
G1 X-21.191984 Y28.232981 
G1 X-21.250019 Y28.319837 
G1 X-21.277712 Y28.361284 
G1 X-21.295541 Y28.404328 
G1 X-21.493606 Y28.882500 
G1 X-21.985494 Y29.374388 
G1 X-22.389309 Y29.541653 
G1 X-22.506703 Y29.590278 
G1 X-22.551569 Y29.620256 
G1 X-22.635012 Y29.676009 
G1 X-22.843578 Y29.884575 
G1 X-22.947728 Y29.988725 
G1 X-23.038434 Y30.122003 
G1 X-23.062394 Y30.179847 
G1 X-23.097487 Y30.264566 
G1 X-23.127594 Y30.415919 
G1 X-23.127594 Y30.570241 
G1 X-23.121944 Y30.598637 
G1 X-23.097491 Y30.721587 
G1 X-23.038438 Y30.864156 
G1 X-22.952706 Y30.992466 
G1 X-22.843588 Y31.101584 
G1 X-22.715275 Y31.187322 
G1 X-22.643119 Y31.217209 
G1 X-22.572713 Y31.246375 
G1 X-22.133659 Y31.428234 
G1 X-21.997169 Y31.484769 
G1 X-21.839737 Y31.517397 
G1 X-20.395234 Y31.517397 
G1 X-20.243884 Y31.487291 
G1 X-20.101316 Y31.428238 
G1 X-19.973006 Y31.342503 
G1 X-19.893916 Y31.263409 
G1 X-19.590006 Y31.263409 
G1 X-19.437619 Y31.415797 
G1 X-18.662378 Y31.415797 
G1 X-18.509991 Y31.263409 
G1 X-18.363941 Y31.263409 
G1 X-18.321838 Y31.365059 
G1 X-18.236103 Y31.493369 
G1 X-18.126987 Y31.602484 
G1 X-17.394997 Y32.334475 
G1 X-17.394997 Y33.705519 
G1 X-18.364475 Y34.674997 
G1 X-19.746684 Y34.674997 
G1 X-19.841325 Y34.611759 
G1 X-19.983900 Y34.552703 
G1 X-20.073325 Y34.534916 
G1 X-20.135244 Y34.522597 
G1 X-22.071500 Y34.522597 
G1 X-22.222853 Y34.552703 
G1 X-22.608875 Y34.712600 
G1 X-24.001484 Y34.712600 
G1 X-24.080591 Y34.633491 
G1 X-24.208900 Y34.547756 
G1 X-24.351469 Y34.488703 
G1 X-24.502819 Y34.458597 
G1 X-24.657172 Y34.458597 
G1 X-24.808522 Y34.488703 
G1 X-24.951091 Y34.547756 
G1 X-25.079400 Y34.633491 
G1 X-25.127194 Y34.681288 
G1 X-25.174988 Y34.633494 
G1 X-25.236150 Y34.592625 
G1 X-25.303294 Y34.547759 
G1 X-25.445863 Y34.488703 
G1 X-25.597216 Y34.458597 
G1 X-25.816300 Y34.458597 
G1 X-25.878044 Y34.456172 
G1 X-25.908859 Y34.458597 
G1 X-25.969450 Y34.470650 
G1 X-26.030459 Y34.480312 
G1 X-26.060209 Y34.488703 
G1 X-26.117294 Y34.512350 
G1 X-26.175238 Y34.533725 
G1 X-26.202778 Y34.547756 
G1 X-26.254147 Y34.582081 
G1 X-26.306812 Y34.614353 
G1 X-26.374753 Y34.677159 
G1 X-26.413094 Y34.712600 
G1 X-26.719644 Y34.712600 
G1 X-26.788331 Y34.666703 
G1 X-26.958634 Y34.596162 
G1 X-27.139428 Y34.560200 
G1 X-28.644569 Y34.560200 
G1 X-28.825363 Y34.596162 
G1 X-28.995666 Y34.666703 
G1 X-29.148934 Y34.769116 
G1 X-29.279281 Y34.899462 
G1 X-29.381694 Y35.052731 
G1 X-29.452234 Y35.223034 
G1 X-29.488197 Y35.403828 
G1 X-29.488197 Y35.588169 
G1 X-29.452234 Y35.768963 
G1 X-29.381694 Y35.939266 
G1 X-29.279281 Y36.092534 
G1 X-29.148934 Y36.222881 
G1 X-28.995666 Y36.325294 
G1 X-28.825363 Y36.395834 
G1 X-28.644569 Y36.431797 
G1 X-27.139428 Y36.431797 
G1 X-26.958634 Y36.395834 
G1 X-26.788331 Y36.325294 
G1 X-26.719644 Y36.279397 
G1 X-25.363397 Y36.279397 
G1 X-25.363397 Y36.351159 
G1 X-25.355397 Y36.391381 
G1 X-25.355397 Y36.860256 
G1 X-25.336628 Y36.930300 
G1 X-25.300372 Y36.993097 
G1 X-25.249097 Y37.044372 
G1 X-25.186300 Y37.080628 
G1 X-25.116256 Y37.099397 
G1 X-24.043741 Y37.099397 
G1 X-23.973697 Y37.080628 
G1 X-23.910900 Y37.044372 
G1 X-23.859625 Y36.993097 
G1 X-23.823369 Y36.930300 
G1 X-23.804600 Y36.860256 
G1 X-23.804600 Y36.391381 
G1 X-23.689078 Y36.444237 
G1 X-23.546509 Y36.503291 
G1 X-23.395159 Y36.533397 
G1 X-20.085109 Y36.533397 
G1 X-19.532841 Y36.762153 
G1 X-17.649153 Y38.645841 
G1 X-17.420397 Y39.198109 
G1 X-17.420397 Y55.289884 
G1 X-17.649153 Y55.842153 
G1 X-24.691503 Y62.884500 
G1 X-24.777237 Y63.012809 
G1 X-24.836291 Y63.155378 
G1 X-24.866397 Y63.306728 
G1 X-24.866397 Y64.415600 
G1 X-24.836291 Y64.566953 
G1 X-24.620397 Y65.088159 
G1 X-24.620397 Y66.692503 
G1 X-25.716491 Y67.788597 
G1 X-27.320834 Y67.788597 
G1 X-27.686391 Y67.637178 
G1 X-27.966178 Y67.357391 
G1 X-28.115706 Y66.996400 
G1 X-28.174759 Y66.853828 
G1 X-28.258788 Y66.728075 
G1 X-28.369612 Y66.616403 
G1 X-28.497919 Y66.530672 
G1 X-28.640491 Y66.471619 
G1 X-28.791841 Y66.441513 
G1 X-28.946159 Y66.441513 
G1 X-29.097513 Y66.471619 
G1 X-29.240081 Y66.530672 
G1 X-29.365834 Y66.614700 
G1 X-29.477506 Y66.725525 
G1 X-29.563237 Y66.853831 
G1 X-29.616884 Y66.983356 
G1 X-29.771816 Y67.357391 
G1 X-30.051603 Y67.637178 
G1 X-30.417159 Y67.788597 
G1 X-32.320834 Y67.788597 
G1 X-32.686391 Y67.637178 
G1 X-32.966181 Y67.357391 
G1 X-33.124122 Y66.976081 
G1 X-33.174756 Y66.853831 
G1 X-33.258781 Y66.728078 
G1 X-33.369606 Y66.616406 
G1 X-33.497912 Y66.530672 
G1 X-33.640481 Y66.471619 
G1 X-33.791834 Y66.441513 
G1 X-33.946153 Y66.441513 
G1 X-34.097503 Y66.471619 
G1 X-34.240075 Y66.530672 
G1 X-34.365828 Y66.614697 
G1 X-34.477500 Y66.725522 
G1 X-34.563234 Y66.853828 
G1 X-34.622287 Y66.996397 
G1 X-34.771816 Y67.357391 
G1 X-35.051603 Y67.637178 
G1 X-35.417159 Y67.788597 
G1 X-37.320834 Y67.788597 
G1 X-37.686391 Y67.637178 
G1 X-37.966178 Y67.357391 
G1 X-38.117597 Y66.991834 
G1 X-38.117597 Y65.088159 
G1 X-37.966178 Y64.722603 
G1 X-37.686391 Y64.442816 
G1 X-37.320834 Y64.291397 
G1 X-36.992728 Y64.291397 
G1 X-36.841378 Y64.261291 
G1 X-36.698809 Y64.202237 
G1 X-36.570500 Y64.116503 
G1 X-36.461384 Y64.007387 
G1 X-34.697491 Y62.243494 
G1 X-34.611756 Y62.115184 
G1 X-34.552703 Y61.972616 
G1 X-34.522597 Y61.821266 
G1 X-34.522597 Y55.637234 
G1 X-34.552703 Y55.485884 
G1 X-34.611756 Y55.343316 
G1 X-34.697491 Y55.215006 
G1 X-34.806606 Y55.105891 
G1 X-34.934916 Y55.020156 
G1 X-35.077484 Y54.961103 
G1 X-35.228834 Y54.930997 
G1 X-36.501597 Y54.930997 
G1 X-36.633622 Y54.876312 
G1 X-36.793681 Y54.842597 
G1 X-40.938884 Y54.842597 
G1 X-41.491153 Y54.613841 
G1 X-41.913844 Y54.191150 
G1 X-42.027881 Y53.915834 
G1 X-42.086934 Y53.773259 
G1 X-42.143081 Y53.689234 
G1 X-42.172666 Y53.644953 
G1 X-42.281784 Y53.535834 
G1 X-44.132291 Y51.685338 
G1 X-44.645494 Y51.172128 
G1 X-44.724600 Y51.093019 
G1 X-44.724600 Y38.357222 
G1 X-44.712706 Y38.328509 
G1 X-44.682600 Y38.177159 
G1 X-44.682600 Y38.022838 
G1 X-44.712706 Y37.871488 
G1 X-44.724600 Y37.842778 
G1 X-44.724600 Y16.216972 
G1 X-44.645494 Y16.137869 
G1 X-40.267669 Y11.760041 
G1 X-40.181934 Y11.631731 
G1 X-40.008841 Y11.213841 
G1 X-37.594609 Y8.799613 
G1 X-37.527525 Y8.732528 
G1 X-37.485491 Y8.690497 
G1 X-37.399756 Y8.562188 
G1 X-37.340703 Y8.419619 
G1 X-37.310597 Y8.268269 
G1 X-37.310597 Y6.436584 
G1 X-37.043175 Y5.790963 
G1 X-36.549031 Y5.296819 
G1 X-35.903409 Y5.029397 
G1 X-35.215875 Y5.029397 
G1 X-35.064525 Y4.999291 
G1 X-34.921956 Y4.940238 
G1 X-34.793647 Y4.854503 
G1 X-34.684531 Y4.745387 
G1 X-34.602234 Y4.622219 
G1 X-34.293847 Y3.880856 
G1 X-34.235994 Y3.803000 
G1 X-34.190544 Y3.734981 
G1 X-34.160975 Y3.663600 
G1 X-34.131484 Y3.592413 
G1 X-33.986178 Y3.241603 
G1 X-33.706391 Y2.961816 
G1 X-33.340834 Y2.810397 
G1 X-30.245159 Y2.810397 
G1 X-29.879603 Y2.961816 
G1 X-29.599816 Y3.241603 
G1 X-29.395459 Y3.734962 
G1 X-29.309725 Y3.863272 
G1 X-29.206153 Y3.966844 
G1 X-28.977397 Y4.519109 
G1 X-28.977397 Y5.268791 
G1 X-28.979822 Y5.330534 
G1 X-28.977397 Y5.361344 
G1 X-28.965347 Y5.421909 
G1 X-28.955681 Y5.482950 
G1 X-28.947291 Y5.512694 
G1 X-28.923659 Y5.569744 
G1 X-28.902269 Y5.627725 
G1 X-28.888237 Y5.655263 
G1 X-28.853912 Y5.706631 
G1 X-28.821638 Y5.759300 
G1 X-28.758831 Y5.827241 
G1 X-28.717409 Y5.872053 
G1 X-28.717409 Y6.102306 
G1 X-28.821262 Y6.242281 
G1 X-28.895394 Y6.387775 
G1 X-28.945853 Y6.543072 
G1 X-28.971397 Y6.704353 
G1 X-28.971397 Y8.391644 
G1 X-28.945853 Y8.552925 
G1 X-28.895394 Y8.708222 
G1 X-28.821262 Y8.853716 
G1 X-28.725281 Y8.985819 
G1 X-28.717409 Y9.223941 
G1 X-28.758834 Y9.268753 
G1 X-28.802503 Y9.312422 
G1 X-28.853912 Y9.389366 
G1 X-28.888237 Y9.440731 
G1 X-28.902269 Y9.468269 
G1 X-28.923659 Y9.526253 
G1 X-28.947291 Y9.583300 
G1 X-28.955681 Y9.613044 
G1 X-28.965350 Y9.674088 
G1 X-28.977397 Y9.734650 
G1 X-28.979822 Y9.765459 
G1 X-28.977397 Y9.827203 
G1 X-28.977397 Y9.999159 
G1 X-28.947291 Y10.150509 
G1 X-28.888237 Y10.293078 
G1 X-28.802503 Y10.421387 
G1 X-28.693388 Y10.530503 
G1 X-28.565078 Y10.616238 
G1 X-28.422509 Y10.675291 
G1 X-28.271159 Y10.705397 
G1 X-26.473522 Y10.705397 
G1 X-26.322172 Y10.675291 
G1 X-26.179603 Y10.616238 
G1 X-26.051294 Y10.530503 
G1 X-25.942178 Y10.421387 
G1 X-24.084716 Y8.563922 
G1 X-23.733931 Y8.361397 
G1 X-11.829062 Y8.361397 
G1 X-11.520397 Y8.539603 
G1 X-11.477547 Y8.568238 
G1 X-11.431347 Y8.591019 
G1 X-11.382584 Y8.607569 
G1 X-11.334978 Y8.627291 
G1 X-11.285222 Y8.640622 
G1 X-11.234166 Y8.647344 
G1 X-11.183628 Y8.657397 
G1 X-11.157809 Y8.657397 
G1 X-11.132225 Y8.660766 
G1 X-11.080831 Y8.657397 
G1 X-8.329416 Y8.657397 
G1 X-8.178066 Y8.627291 
G1 X-8.035497 Y8.568238 
G1 X-7.944144 Y8.530397 
G1 X-7.399628 Y8.530397 
G1 X-7.337853 Y8.532822 
G1 X-7.307062 Y8.530397 
G1 X-7.246478 Y8.518344 
G1 X-7.185437 Y8.508675 
G1 X-7.155712 Y8.500291 
G1 X-7.098637 Y8.476647 
G1 X-7.040662 Y8.455259 
G1 X-7.013144 Y8.441237 
G1 X-6.961759 Y8.406903 
G1 X-6.909091 Y8.374625 
G1 X-6.551687 Y8.361409 
G1 X-6.411716 Y8.465262 
G1 X-6.266222 Y8.539394 
G1 X-6.110925 Y8.589853 
G1 X-5.949644 Y8.615397 
G1 X-4.262353 Y8.615397 
G1 X-4.101072 Y8.589853 
G1 X-3.945775 Y8.539394 
G1 X-3.800281 Y8.465262 
G1 X-3.668178 Y8.369281 
G1 X-3.572025 Y8.361409 
G1 X-3.553581 Y8.390166 
G1 X-3.539541 Y8.417728 
G1 X-3.510813 Y8.454169 
G1 X-3.485037 Y8.492750 
G1 X-3.444012 Y8.538922 
G1 X-3.408719 Y8.569066 
G1 X-2.854819 Y9.122962 
G1 X-2.587397 Y9.768584 
G1 X-2.587397 Y10.467403 
G1 X-2.815009 Y11.016913 
G1 X-2.871513 Y11.153322 
G1 X-2.904172 Y11.310834 
G1 X-2.904172 Y11.465156 
G1 X-2.874066 Y11.616506 
G1 X-2.836116 Y11.708125 
G1 X-2.815012 Y11.759075 
G1 X-2.587397 Y12.308587 
G1 X-2.587397 Y13.071338 
G1 X-2.587400 Y13.147644 
G1 X-2.576428 Y13.202813 
G1 X-2.557300 Y13.298997 
G1 X-2.538072 Y13.345422 
G1 X-2.498250 Y13.441566 
G1 X-2.454594 Y13.506909 
G1 X-2.412522 Y13.569878 
G1 X-2.357109 Y13.625291 
G1 X-2.303406 Y13.679000 
G1 X-2.226169 Y13.730609 
G1 X-2.175100 Y13.764738 
G1 X-2.149078 Y13.775519 
G1 X-2.086653 Y13.801375 
G1 X-2.006531 Y13.834569 
G1 X-1.946387 Y13.846534 
G1 X-1.855181 Y13.864678 
G1 X-1.778875 Y13.864681 
G1 X-1.700862 Y13.864684 
G1 X-1.647247 Y13.854022 
G1 X-1.549509 Y13.834584 
G1 X-1.506497 Y13.816769 
G1 X-1.406941 Y13.775534 
G1 X-1.342878 Y13.732731 
G1 X-1.278628 Y13.689806 
G1 X-1.224922 Y13.636100 
G1 X-1.169506 Y13.580691 
G1 X-1.119263 Y13.505500 
G1 X-1.083769 Y13.452384 
G1 X-1.057141 Y13.388100 
G1 X-1.024709 Y13.309819 
G1 X-1.012744 Y13.249675 
G1 X-0.994600 Y13.158469 
G1 X-0.994597 Y13.082163 
G1 X-0.994594 Y13.004150 
G1 X-0.994597 Y4.882353 
G1 X-1.024703 Y4.731003 
G1 X-1.083756 Y4.588434 
G1 X-1.169491 Y4.460125 
G0 Z1.000000 
G0 X-3.552716 Y9.442178 
G1 Z-0.080000 F25    
G1 X-3.668178 Y9.326716 F50    
G1 X-3.800281 Y9.230734 
G1 X-3.945775 Y9.156603 
G1 X-4.101072 Y9.106144 
G1 X-4.262353 Y9.080600 
G1 X-5.949644 Y9.080600 
G1 X-6.110925 Y9.106144 
G1 X-6.266222 Y9.156603 
G1 X-6.411716 Y9.230734 
G1 X-6.437678 Y9.249600 
G1 X-7.709666 Y9.249600 
G1 X-7.885553 Y9.284588 
G1 X-8.051234 Y9.353212 
G1 X-8.086234 Y9.376600 
G1 X-11.695691 Y9.376600 
G1 X-11.730178 Y9.329131 
G1 X-11.872131 Y9.187178 
G1 X-12.034544 Y9.069178 
G1 X-12.213416 Y8.978041 
G1 X-12.404341 Y8.916003 
G1 X-12.602622 Y8.884600 
G1 X-15.256375 Y8.884600 
G1 X-15.454656 Y8.916003 
G1 X-15.487269 Y8.926600 
G1 X-22.528728 Y8.926600 
G1 X-22.561341 Y8.916003 
G1 X-22.759622 Y8.884600 
G1 X-22.960375 Y8.884600 
G1 X-23.158656 Y8.916003 
G1 X-23.349581 Y8.978041 
G1 X-23.528453 Y9.069178 
G1 X-23.690866 Y9.187178 
G1 X-25.928287 Y11.424600 
G1 X-29.310375 Y11.424600 
G1 X-29.368328 Y11.433778 
G1 X-29.696600 Y11.105503 
G1 X-29.696600 Y8.999703 
G1 X-29.586734 Y8.853716 
G1 X-29.512603 Y8.708222 
G1 X-29.462144 Y8.552925 
G1 X-29.436600 Y8.391644 
G1 X-29.436600 Y6.704353 
G1 X-29.462144 Y6.543072 
G1 X-29.512603 Y6.387775 
G1 X-29.586734 Y6.242281 
G1 X-29.682716 Y6.110178 
G1 X-29.696600 Y4.740837 
G1 X-29.726706 Y4.589487 
G1 X-29.785759 Y4.446919 
G1 X-29.871494 Y4.318609 
G1 X-29.980609 Y4.209494 
G1 X-30.167600 Y4.022506 
G1 X-30.167600 Y3.768741 
G1 X-30.186369 Y3.698697 
G1 X-30.222625 Y3.635900 
G1 X-30.273900 Y3.584625 
G1 X-30.336697 Y3.548369 
G1 X-30.406741 Y3.529600 
G1 X-31.479256 Y3.529600 
G1 X-31.549300 Y3.548369 
G1 X-31.612097 Y3.584625 
G1 X-31.663372 Y3.635900 
G1 X-31.699628 Y3.698697 
G1 X-31.718397 Y3.768741 
G1 X-31.718397 Y4.237625 
G1 X-31.726397 Y4.277838 
G1 X-31.726397 Y4.432159 
G1 X-31.718397 Y4.472372 
G1 X-31.718397 Y4.941256 
G1 X-31.699628 Y5.011300 
G1 X-31.663372 Y5.074097 
G1 X-31.612097 Y5.125372 
G1 X-31.549300 Y5.161628 
G1 X-31.479256 Y5.180397 
G1 X-31.263397 Y5.180397 
G1 X-31.263397 Y6.108294 
G1 X-31.361262 Y6.242281 
G1 X-31.435394 Y6.387775 
G1 X-31.485853 Y6.543072 
G1 X-31.511397 Y6.704353 
G1 X-31.511397 Y8.391644 
G1 X-31.485853 Y8.552925 
G1 X-31.435394 Y8.708222 
G1 X-31.361262 Y8.853716 
G1 X-31.265281 Y8.985819 
G1 X-31.263397 Y11.507159 
G1 X-31.233291 Y11.658509 
G1 X-31.174238 Y11.801078 
G1 X-31.088503 Y11.929388 
G1 X-30.979388 Y12.038503 
G1 X-30.515891 Y12.501997 
G1 X-31.484503 Y13.470609 
G1 X-31.570238 Y13.598919 
G1 X-31.629291 Y13.741487 
G1 X-31.659397 Y13.892838 
G1 X-31.659397 Y36.511159 
G1 X-31.629291 Y36.662509 
G1 X-31.570238 Y36.805078 
G1 X-31.484503 Y36.933388 
G1 X-29.773387 Y38.644503 
G1 X-29.645078 Y38.730238 
G1 X-29.502509 Y38.789291 
G1 X-29.351159 Y38.819397 
G1 X-29.064353 Y38.819397 
G1 X-28.995666 Y38.865294 
G1 X-28.825363 Y38.935834 
G1 X-28.644569 Y38.971797 
G1 X-27.139428 Y38.971797 
G1 X-26.958634 Y38.935834 
G1 X-26.788331 Y38.865294 
G1 X-26.719644 Y38.819397 
G1 X-20.708494 Y38.819397 
G1 X-19.706397 Y39.821494 
G1 X-19.706397 Y44.933600 
G1 X-20.513297 Y44.933600 
G1 X-20.653281 Y44.829734 
G1 X-20.798775 Y44.755603 
G1 X-20.954072 Y44.705144 
G1 X-21.115353 Y44.679600 
G1 X-22.802644 Y44.679600 
G1 X-22.963925 Y44.705144 
G1 X-23.119222 Y44.755603 
G1 X-23.264716 Y44.829734 
G1 X-23.396819 Y44.925716 
G1 X-23.522462 Y44.936600 
G1 X-23.562697 Y44.913369 
G1 X-23.632741 Y44.894600 
G1 X-24.705256 Y44.894600 
G1 X-24.775300 Y44.913369 
G1 X-24.838097 Y44.949625 
G1 X-24.889372 Y45.000900 
G1 X-24.925628 Y45.063697 
G1 X-24.944397 Y45.133741 
G1 X-24.944397 Y45.602619 
G1 X-24.952397 Y45.642837 
G1 X-24.952397 Y45.797159 
G1 X-24.944397 Y45.837378 
G1 X-24.944397 Y46.306256 
G1 X-24.925628 Y46.376300 
G1 X-24.889372 Y46.439097 
G1 X-24.838097 Y46.490372 
G1 X-24.775300 Y46.526628 
G1 X-24.705256 Y46.545397 
G1 X-23.632741 Y46.545397 
G1 X-23.562697 Y46.526628 
G1 X-23.522462 Y46.503397 
G1 X-23.401700 Y46.503397 
G1 X-23.264716 Y46.604262 
G1 X-23.119222 Y46.678394 
G1 X-22.963925 Y46.728853 
G1 X-22.802644 Y46.754397 
G1 X-21.115353 Y46.754397 
G1 X-20.954072 Y46.728853 
G1 X-20.798775 Y46.678394 
G1 X-20.653281 Y46.604262 
G1 X-20.521178 Y46.508281 
G1 X-19.706397 Y46.500397 
G1 X-19.706397 Y54.666506 
G1 X-26.977503 Y61.937609 
G1 X-27.063237 Y62.065919 
G1 X-27.122291 Y62.208487 
G1 X-27.152397 Y62.359837 
G1 X-27.152397 Y65.010600 
G1 X-27.229300 Y65.029369 
G1 X-27.292097 Y65.065625 
G1 X-27.343372 Y65.116900 
G1 X-27.379628 Y65.179697 
G1 X-27.398397 Y65.249741 
G1 X-27.398397 Y66.830256 
G1 X-27.379628 Y66.900300 
G1 X-27.343372 Y66.963097 
G1 X-27.292097 Y67.014372 
G1 X-27.229300 Y67.050628 
G1 X-27.159256 Y67.069397 
G1 X-25.578741 Y67.069397 
G1 X-25.508697 Y67.050628 
G1 X-25.445900 Y67.014372 
G1 X-25.394625 Y66.963097 
G1 X-25.358369 Y66.900300 
G1 X-25.339600 Y66.830256 
G1 X-25.339600 Y65.249741 
G1 X-25.358369 Y65.179697 
G1 X-25.394625 Y65.116900 
G1 X-25.445900 Y65.065625 
G1 X-25.508697 Y65.029369 
G1 X-25.578741 Y65.010600 
G1 X-25.585600 Y62.761494 
G1 X-18.423613 Y55.599503 
G1 X-18.314494 Y55.490387 
G1 X-18.228759 Y55.362078 
G1 X-18.169706 Y55.219509 
G1 X-18.139600 Y55.068159 
G1 X-18.139600 Y39.419837 
G1 X-18.169706 Y39.268487 
G1 X-18.228759 Y39.125919 
G1 X-18.314494 Y38.997609 
G1 X-19.884609 Y37.427494 
G1 X-20.012919 Y37.341759 
G1 X-20.155487 Y37.282706 
G1 X-20.306838 Y37.252600 
G1 X-23.861928 Y37.252600 
G1 X-23.910900 Y37.203625 
G1 X-23.973697 Y37.167369 
G1 X-24.043741 Y37.148600 
G1 X-25.116256 Y37.148600 
G1 X-25.186300 Y37.167369 
G1 X-25.249097 Y37.203625 
G1 X-25.298069 Y37.252600 
G1 X-26.719644 Y37.252600 
G1 X-26.788331 Y37.206703 
G1 X-26.958634 Y37.136162 
G1 X-27.139428 Y37.100200 
G1 X-28.644569 Y37.100200 
G1 X-28.825363 Y37.136162 
G1 X-28.995478 Y37.206628 
G1 X-30.092600 Y36.109503 
G1 X-30.092600 Y14.294494 
G1 X-29.684850 Y13.886741 
G1 X-29.508656 Y13.943994 
G1 X-29.310375 Y13.975397 
G1 X-25.299622 Y13.975397 
G1 X-25.101341 Y13.943994 
G1 X-24.910416 Y13.881956 
G1 X-24.731544 Y13.790819 
G1 X-24.569131 Y13.672819 
G1 X-22.373709 Y11.477397 
G1 X-21.103397 Y11.477397 
G1 X-21.103397 Y12.159978 
G1 X-21.255797 Y12.312378 
G1 X-21.255797 Y13.087619 
G1 X-20.707619 Y13.635797 
G1 X-19.932378 Y13.635797 
G1 X-19.384200 Y13.087619 
G1 X-19.384200 Y12.312378 
G1 X-19.536600 Y12.159978 
G1 X-19.536600 Y11.477397 
G1 X-15.981397 Y11.477397 
G1 X-15.981397 Y14.447459 
G1 X-16.004628 Y14.487697 
G1 X-16.023397 Y14.557741 
G1 X-16.023397 Y15.630256 
G1 X-16.004628 Y15.700300 
G1 X-15.968372 Y15.763097 
G1 X-15.917097 Y15.814372 
G1 X-15.854300 Y15.850628 
G1 X-15.784256 Y15.869397 
G1 X-15.315375 Y15.869397 
G1 X-15.275159 Y15.877397 
G1 X-15.120838 Y15.877397 
G1 X-15.080622 Y15.869397 
G1 X-14.611741 Y15.869397 
G1 X-14.541697 Y15.850628 
G1 X-14.478900 Y15.814372 
G1 X-14.427625 Y15.763097 
G1 X-14.391369 Y15.700300 
G1 X-14.372600 Y15.630256 
G1 X-14.372600 Y14.557741 
G1 X-14.391369 Y14.487697 
G1 X-14.414600 Y14.447459 
G1 X-14.414600 Y11.435397 
G1 X-13.486397 Y11.435397 
G1 X-13.486397 Y14.433462 
G1 X-13.509628 Y14.473697 
G1 X-13.528397 Y14.543741 
G1 X-13.528397 Y15.616256 
G1 X-13.509628 Y15.686300 
G1 X-13.473372 Y15.749097 
G1 X-13.422097 Y15.800372 
G1 X-13.359300 Y15.836628 
G1 X-13.289256 Y15.855397 
G1 X-12.820378 Y15.855397 
G1 X-12.780159 Y15.863397 
G1 X-12.625837 Y15.863397 
G1 X-12.585619 Y15.855397 
G1 X-12.116741 Y15.855397 
G1 X-12.046697 Y15.836628 
G1 X-11.983900 Y15.800372 
G1 X-11.932625 Y15.749097 
G1 X-11.896369 Y15.686300 
G1 X-11.877600 Y15.616256 
G1 X-11.877600 Y14.543741 
G1 X-11.896369 Y14.473697 
G1 X-11.919600 Y14.433462 
G1 X-11.919600 Y11.167306 
G1 X-11.872131 Y11.132819 
G1 X-11.730178 Y10.990866 
G1 X-11.695691 Y10.943397 
G1 X-8.086234 Y10.943397 
G1 X-8.051234 Y10.966784 
G1 X-7.885553 Y11.035409 
G1 X-7.709666 Y11.070397 
G1 X-6.283875 Y11.070397 
G1 X-6.110925 Y11.129853 
G1 X-5.949644 Y11.155397 
G1 X-4.262353 Y11.155397 
G1 X-4.101072 Y11.129853 
G1 X-3.945775 Y11.079394 
G1 X-3.800281 Y11.005263 
G1 X-3.668178 Y10.909281 
G1 X-3.552716 Y10.793819 
G1 X-3.456734 Y10.661716 
G1 X-3.382603 Y10.516222 
G1 X-3.332144 Y10.360925 
G1 X-3.306600 Y10.199644 
G1 X-3.306600 Y10.036353 
G1 X-3.332144 Y9.875072 
G1 X-3.382603 Y9.719775 
G1 X-3.456734 Y9.574281 
G1 X-3.552716 Y9.442178 
G0 Z1.000000 
G0 X-3.552716 Y11.982178 
G1 Z-0.080000 F25    
G1 X-3.668178 Y11.866716 F50    
G1 X-3.800281 Y11.770734 
G1 X-3.945775 Y11.696603 
G1 X-4.101072 Y11.646144 
G1 X-4.262353 Y11.620600 
G1 X-5.949644 Y11.620600 
G1 X-6.110925 Y11.646144 
G1 X-6.266222 Y11.696603 
G1 X-6.411716 Y11.770734 
G1 X-6.543819 Y11.866716 
G1 X-7.655159 Y11.874600 
G1 X-7.806509 Y11.904706 
G1 X-7.949078 Y11.963759 
G1 X-8.077388 Y12.049494 
G1 X-8.186503 Y12.158609 
G1 X-8.754384 Y12.726494 
G1 X-8.863503 Y12.835609 
G1 X-8.949238 Y12.963919 
G1 X-9.008291 Y13.106488 
G1 X-9.038397 Y13.257838 
G1 X-9.038397 Y18.492159 
G1 X-9.008291 Y18.643509 
G1 X-8.949238 Y18.786078 
G1 X-8.863503 Y18.914388 
G1 X-8.754387 Y19.023503 
G1 X-8.119388 Y19.658503 
G1 X-7.991078 Y19.744238 
G1 X-7.848509 Y19.803291 
G1 X-7.697159 Y19.833397 
G1 X-5.404494 Y19.833397 
G1 X-4.593397 Y20.644494 
G1 X-4.593397 Y36.505503 
G1 X-6.574269 Y38.486375 
G1 X-6.615553 Y38.494588 
G1 X-6.781234 Y38.563212 
G1 X-6.930344 Y38.662847 
G1 X-7.057150 Y38.789653 
G1 X-7.156784 Y38.938763 
G1 X-7.225409 Y39.104444 
G1 X-7.260397 Y39.280331 
G1 X-7.260397 Y39.459666 
G1 X-7.225409 Y39.635553 
G1 X-7.156784 Y39.801234 
G1 X-7.057150 Y39.950344 
G1 X-6.930344 Y40.077150 
G1 X-6.781234 Y40.176784 
G1 X-6.615553 Y40.245409 
G1 X-6.439666 Y40.280397 
G1 X-6.260331 Y40.280397 
G1 X-6.084444 Y40.245409 
G1 X-5.918762 Y40.176784 
G1 X-5.769653 Y40.077150 
G1 X-5.642847 Y39.950344 
G1 X-5.543213 Y39.801234 
G1 X-5.474588 Y39.635553 
G1 X-5.466375 Y39.594269 
G1 X-3.310612 Y37.438503 
G1 X-3.201494 Y37.329388 
G1 X-3.115759 Y37.201078 
G1 X-3.056706 Y37.058509 
G1 X-3.026600 Y36.907159 
G1 X-3.026600 Y20.242838 
G1 X-3.056706 Y20.091487 
G1 X-3.115759 Y19.948919 
G1 X-3.201494 Y19.820609 
G1 X-3.310609 Y19.711494 
G1 X-4.471494 Y18.550609 
G1 X-4.580609 Y18.441494 
G1 X-4.708919 Y18.355759 
G1 X-4.851488 Y18.296706 
G1 X-5.002838 Y18.266600 
G1 X-7.295503 Y18.266600 
G1 X-7.471600 Y18.090503 
G1 X-7.471600 Y13.659491 
G1 X-7.253503 Y13.441397 
G1 X-6.551700 Y13.441397 
G1 X-6.411716 Y13.545262 
G1 X-6.266222 Y13.619394 
G1 X-6.110925 Y13.669853 
G1 X-5.949644 Y13.695397 
G1 X-4.262353 Y13.695397 
G1 X-4.101072 Y13.669853 
G1 X-3.945775 Y13.619394 
G1 X-3.800281 Y13.545262 
G1 X-3.668178 Y13.449281 
G1 X-3.552716 Y13.333819 
G1 X-3.456734 Y13.201716 
G1 X-3.382603 Y13.056222 
G1 X-3.332144 Y12.900925 
G1 X-3.306600 Y12.739644 
G1 X-3.306600 Y12.576353 
G1 X-3.332144 Y12.415072 
G1 X-3.382603 Y12.259775 
G1 X-3.456734 Y12.114281 
G1 X-3.552716 Y11.982178 
G0 Z1.000000 
G0 X-3.668178 Y14.406716 
G1 Z-0.080000 F25    
G1 X-3.800281 Y14.310734 F50    
G1 X-3.945775 Y14.236603 
G1 X-4.101072 Y14.186144 
G1 X-4.262353 Y14.160600 
G1 X-5.949644 Y14.160600 
G1 X-6.110925 Y14.186144 
G1 X-6.266222 Y14.236603 
G1 X-6.411716 Y14.310734 
G1 X-6.543819 Y14.406716 
G1 X-6.659281 Y14.522178 
G1 X-6.755262 Y14.654281 
G1 X-6.829394 Y14.799775 
G1 X-6.879853 Y14.955072 
G1 X-6.905397 Y15.116353 
G1 X-6.905397 Y15.279644 
G1 X-6.879853 Y15.440925 
G1 X-6.829394 Y15.596222 
G1 X-6.755262 Y15.741716 
G1 X-6.659281 Y15.873819 
G1 X-6.543819 Y15.989281 
G1 X-6.411716 Y16.085262 
G1 X-6.266222 Y16.159394 
G1 X-6.110925 Y16.209853 
G1 X-5.949644 Y16.235397 
G1 X-4.262353 Y16.235397 
G1 X-4.101072 Y16.209853 
G1 X-3.945775 Y16.159394 
G1 X-3.800281 Y16.085262 
G1 X-3.715134 Y16.023397 
G1 X-2.864494 Y16.023397 
G1 X-2.434397 Y16.453494 
G1 X-2.434397 Y50.776503 
G1 X-6.428491 Y54.770600 
G1 X-7.140256 Y54.770600 
G1 X-7.210300 Y54.789369 
G1 X-7.273097 Y54.825625 
G1 X-7.324372 Y54.876900 
G1 X-7.360628 Y54.939697 
G1 X-7.379397 Y55.009741 
G1 X-7.379397 Y56.590256 
G1 X-7.360628 Y56.660300 
G1 X-7.324372 Y56.723097 
G1 X-7.273097 Y56.774372 
G1 X-7.210300 Y56.810628 
G1 X-7.140256 Y56.829397 
G1 X-5.559741 Y56.829397 
G1 X-5.489697 Y56.810628 
G1 X-5.426900 Y56.774372 
G1 X-5.375625 Y56.723097 
G1 X-5.339369 Y56.660300 
G1 X-5.320600 Y56.590256 
G1 X-5.320600 Y55.878491 
G1 X-1.151609 Y51.709503 
G1 X-1.042494 Y51.600387 
G1 X-0.956759 Y51.472078 
G1 X-0.897706 Y51.329509 
G1 X-0.867600 Y51.178159 
G1 X-0.867600 Y16.051838 
G1 X-0.897706 Y15.900488 
G1 X-0.956759 Y15.757919 
G1 X-1.042494 Y15.629609 
G1 X-1.151609 Y15.520494 
G1 X-2.040609 Y14.631494 
G1 X-2.168919 Y14.545759 
G1 X-2.311488 Y14.486706 
G1 X-2.462838 Y14.456600 
G1 X-3.618297 Y14.456600 
G1 X-3.668178 Y14.406716 
G0 Z1.000000 
G0 X-9.376600 Y13.240019 
G1 Z-0.080000 F25    
G1 X-9.224200 Y13.087619 F50    
G1 X-9.224200 Y12.312378 
G1 X-9.772378 Y11.764200 
G1 X-10.547619 Y11.764200 
G1 X-11.095797 Y12.312378 
G1 X-11.095797 Y13.087619 
G1 X-10.943397 Y13.240019 
G1 X-10.943397 Y20.397159 
G1 X-10.913291 Y20.548509 
G1 X-10.854237 Y20.691078 
G1 X-10.768503 Y20.819388 
G1 X-10.659387 Y20.928503 
G1 X-9.389387 Y22.198503 
G1 X-9.261078 Y22.284237 
G1 X-9.118509 Y22.343291 
G1 X-8.967159 Y22.373397 
G1 X-6.816234 Y22.373397 
G1 X-6.781234 Y22.396784 
G1 X-6.615553 Y22.465409 
G1 X-6.439666 Y22.500397 
G1 X-6.260331 Y22.500397 
G1 X-6.084444 Y22.465409 
G1 X-5.918762 Y22.396784 
G1 X-5.769653 Y22.297150 
G1 X-5.642847 Y22.170344 
G1 X-5.543213 Y22.021234 
G1 X-5.474588 Y21.855553 
G1 X-5.439600 Y21.679666 
G1 X-5.439600 Y21.500331 
G1 X-5.474588 Y21.324444 
G1 X-5.543213 Y21.158763 
G1 X-5.642847 Y21.009653 
G1 X-5.769653 Y20.882847 
G1 X-5.918762 Y20.783213 
G1 X-6.084444 Y20.714588 
G1 X-6.260331 Y20.679600 
G1 X-6.439666 Y20.679600 
G1 X-6.615553 Y20.714588 
G1 X-6.781234 Y20.783213 
G1 X-6.816234 Y20.806600 
G1 X-8.565503 Y20.806600 
G1 X-9.376600 Y19.995503 
G1 X-9.376600 Y13.240019 
G0 Z1.000000 
G0 X-11.932625 Y16.110900 
G1 Z-0.080000 F25    
G1 X-11.983900 Y16.059625 F50    
G1 X-12.046697 Y16.023369 
G1 X-12.116741 Y16.004600 
G1 X-12.585619 Y16.004600 
G1 X-12.625837 Y15.996600 
G1 X-12.780159 Y15.996600 
G1 X-12.820378 Y16.004600 
G1 X-13.289256 Y16.004600 
G1 X-13.359300 Y16.023369 
G1 X-13.422097 Y16.059625 
G1 X-13.473372 Y16.110900 
G1 X-13.509628 Y16.173697 
G1 X-13.528397 Y16.243741 
G1 X-13.528397 Y17.316256 
G1 X-13.509628 Y17.386300 
G1 X-13.486397 Y17.426534 
G1 X-13.486397 Y20.818206 
G1 X-13.538763 Y20.783213 
G1 X-13.704444 Y20.714588 
G1 X-13.745728 Y20.706378 
G1 X-14.456600 Y19.995503 
G1 X-14.456600 Y17.492072 
G1 X-14.427625 Y17.463097 
G1 X-14.391369 Y17.400300 
G1 X-14.372600 Y17.330256 
G1 X-14.372600 Y16.257741 
G1 X-14.391369 Y16.187697 
G1 X-14.427625 Y16.124900 
G1 X-14.478900 Y16.073625 
G1 X-14.541697 Y16.037369 
G1 X-14.611741 Y16.018600 
G1 X-15.080625 Y16.018600 
G1 X-15.120838 Y16.010600 
G1 X-18.015159 Y16.010600 
G1 X-18.166509 Y16.040706 
G1 X-18.273050 Y16.084837 
G1 X-18.208413 Y16.020203 
G1 X-18.095756 Y15.851603 
G1 X-18.018159 Y15.664262 
G1 X-17.978600 Y15.465388 
G1 X-17.978600 Y15.262609 
G1 X-18.018159 Y15.063734 
G1 X-18.095756 Y14.876394 
G1 X-18.208413 Y14.707794 
G1 X-18.351794 Y14.564412 
G1 X-18.520394 Y14.451756 
G1 X-18.707734 Y14.374159 
G1 X-18.906609 Y14.334600 
G1 X-19.109388 Y14.334600 
G1 X-19.308263 Y14.374159 
G1 X-19.495603 Y14.451756 
G1 X-19.664203 Y14.564412 
G1 X-20.355159 Y14.580600 
G1 X-20.506509 Y14.610706 
G1 X-20.649078 Y14.669759 
G1 X-20.777387 Y14.755494 
G1 X-20.886503 Y14.864609 
G1 X-21.684494 Y15.662600 
G1 X-22.567256 Y15.662600 
G1 X-22.637300 Y15.681369 
G1 X-22.700097 Y15.717625 
G1 X-22.751372 Y15.768900 
G1 X-22.787628 Y15.831697 
G1 X-22.806397 Y15.901741 
G1 X-22.806397 Y16.370619 
G1 X-22.814397 Y16.410837 
G1 X-22.814397 Y18.531506 
G1 X-24.323503 Y20.040609 
G1 X-24.409237 Y20.168919 
G1 X-24.468291 Y20.311487 
G1 X-24.498397 Y20.462837 
G1 X-24.498397 Y22.978159 
G1 X-24.490397 Y23.018372 
G1 X-24.490397 Y23.487256 
G1 X-24.471628 Y23.557300 
G1 X-24.435372 Y23.620097 
G1 X-24.384097 Y23.671372 
G1 X-24.321300 Y23.707628 
G1 X-24.251256 Y23.726397 
G1 X-23.178741 Y23.726397 
G1 X-23.108697 Y23.707628 
G1 X-23.045900 Y23.671372 
G1 X-22.994625 Y23.620097 
G1 X-22.958369 Y23.557300 
G1 X-22.939600 Y23.487256 
G1 X-22.939600 Y23.018372 
G1 X-22.931600 Y22.978159 
G1 X-22.931600 Y20.864494 
G1 X-21.531616 Y19.464506 
G1 X-21.422494 Y19.355387 
G1 X-21.336759 Y19.227078 
G1 X-21.277706 Y19.084509 
G1 X-21.247600 Y18.933159 
G1 X-21.247600 Y17.256031 
G1 X-21.173488 Y17.241291 
G1 X-21.030919 Y17.182237 
G1 X-20.902609 Y17.096503 
G1 X-20.793494 Y16.987388 
G1 X-19.953503 Y16.147397 
G1 X-19.680391 Y16.147397 
G1 X-19.495603 Y16.276241 
G1 X-19.308263 Y16.353838 
G1 X-19.109388 Y16.393397 
G1 X-18.906609 Y16.393397 
G1 X-18.707734 Y16.353838 
G1 X-18.533600 Y16.281709 
G1 X-19.086491 Y16.834600 
G1 X-19.308263 Y16.874159 
G1 X-19.495603 Y16.951756 
G1 X-19.664203 Y17.064412 
G1 X-19.807584 Y17.207794 
G1 X-19.920241 Y17.376394 
G1 X-19.997837 Y17.563734 
G1 X-20.037397 Y17.762609 
G1 X-20.037397 Y17.965387 
G1 X-19.997837 Y18.164262 
G1 X-19.920241 Y18.351603 
G1 X-19.807584 Y18.520203 
G1 X-19.664203 Y18.663584 
G1 X-19.495603 Y18.776241 
G1 X-19.308263 Y18.853838 
G1 X-19.109388 Y18.893397 
G1 X-18.906609 Y18.893397 
G1 X-18.707734 Y18.853838 
G1 X-18.520394 Y18.776241 
G1 X-18.351794 Y18.663584 
G1 X-18.208413 Y18.520203 
G1 X-18.095756 Y18.351603 
G1 X-18.018159 Y18.164262 
G1 X-17.978600 Y17.965387 
G1 X-17.613503 Y17.577397 
G1 X-16.023397 Y17.577397 
G1 X-16.023397 Y20.397159 
G1 X-15.993291 Y20.548509 
G1 X-15.934238 Y20.691078 
G1 X-15.848503 Y20.819388 
G1 X-15.739387 Y20.928503 
G1 X-14.853619 Y21.814269 
G1 X-14.845409 Y21.855553 
G1 X-14.776784 Y22.021234 
G1 X-14.677150 Y22.170344 
G1 X-14.550344 Y22.297150 
G1 X-14.401234 Y22.396784 
G1 X-14.235553 Y22.465409 
G1 X-14.059666 Y22.500397 
G1 X-13.880331 Y22.500397 
G1 X-13.704444 Y22.465409 
G1 X-13.538763 Y22.396784 
G1 X-13.389653 Y22.297150 
G1 X-13.262847 Y22.170344 
G1 X-12.213397 Y23.184494 
G1 X-12.213397 Y26.345503 
G1 X-14.194269 Y28.326378 
G1 X-14.235553 Y28.334588 
G1 X-14.401234 Y28.403212 
G1 X-14.550344 Y28.502847 
G1 X-14.677150 Y28.629653 
G1 X-14.776784 Y28.778762 
G1 X-14.845409 Y28.944444 
G1 X-14.880397 Y29.120331 
G1 X-14.880397 Y29.299666 
G1 X-14.845409 Y29.475553 
G1 X-14.776784 Y29.641234 
G1 X-14.677150 Y29.790344 
G1 X-14.550344 Y29.917150 
G1 X-14.401234 Y30.016784 
G1 X-14.235553 Y30.085409 
G1 X-14.059666 Y30.120397 
G1 X-13.880331 Y30.120397 
G1 X-13.704444 Y30.085409 
G1 X-13.538763 Y30.016784 
G1 X-13.389653 Y29.917150 
G1 X-13.262847 Y29.790344 
G1 X-13.163213 Y29.641234 
G1 X-13.094587 Y29.475553 
G1 X-13.086378 Y29.434269 
G1 X-10.930609 Y27.278503 
G1 X-10.821494 Y27.169387 
G1 X-10.735759 Y27.041078 
G1 X-10.676706 Y26.898509 
G1 X-10.646600 Y26.747159 
G1 X-10.646600 Y22.782837 
G1 X-10.676706 Y22.631487 
G1 X-10.735759 Y22.488919 
G1 X-10.821494 Y22.360609 
G1 X-11.919600 Y21.262503 
G1 X-11.919600 Y17.426534 
G1 X-11.896369 Y17.386300 
G1 X-11.877600 Y17.316256 
G1 X-11.877600 Y16.243741 
G1 X-11.896369 Y16.173697 
G1 X-11.932625 Y16.110900 
G0 Z1.000000 
G0 X-16.875497 Y13.806612 
G1 Z-0.080000 F25    
G1 X-16.875491 Y13.806603 F50    
G1 X-16.789762 Y13.678306 
G1 X-16.766672 Y13.622556 
G1 X-16.730706 Y13.535737 
G1 X-16.723197 Y13.497988 
G1 X-16.700597 Y13.384388 
G1 X-16.700597 Y12.902834 
G1 X-16.730703 Y12.751484 
G1 X-16.789756 Y12.608916 
G1 X-16.875491 Y12.480606 
G1 X-16.984606 Y12.371491 
G1 X-17.112916 Y12.285756 
G1 X-17.255484 Y12.226703 
G1 X-17.406834 Y12.196597 
G1 X-17.958759 Y12.196597 
G1 X-18.110109 Y12.226703 
G1 X-18.252678 Y12.285756 
G1 X-18.380987 Y12.371491 
G1 X-18.490103 Y12.480606 
G1 X-18.575837 Y12.608916 
G1 X-18.634891 Y12.751484 
G1 X-18.664997 Y12.902834 
G1 X-18.664997 Y13.167112 
G1 X-18.634891 Y13.318463 
G1 X-18.575837 Y13.461031 
G1 X-18.490103 Y13.589341 
G1 X-18.380987 Y13.698456 
G1 X-18.252678 Y13.784191 
G1 X-18.017500 Y13.881603 
G1 X-17.983394 Y13.915712 
G1 X-17.855087 Y14.001447 
G1 X-17.799338 Y14.024537 
G1 X-17.712519 Y14.060503 
G1 X-17.674769 Y14.068013 
G1 X-17.561169 Y14.090613 
G1 X-17.406834 Y14.090613 
G1 X-17.335291 Y14.076378 
G1 X-17.255497 Y14.060512 
G1 X-17.112928 Y14.001459 
G1 X-17.019784 Y13.939222 
G1 X-16.984619 Y13.915728 
G1 X-16.926647 Y13.857756 
G1 X-16.875497 Y13.806612 
G0 Z1.000000 
G0 X-21.614169 Y13.788919 
G1 Z-0.080000 F25    
G1 X-21.699903 Y13.660609 F50    
G1 X-22.013059 Y13.347453 
G1 X-22.120469 Y13.240041 
G1 X-22.204497 Y13.183897 
G1 X-22.248781 Y13.154306 
G1 X-22.334000 Y13.119009 
G1 X-22.391347 Y13.095253 
G1 X-22.542697 Y13.065147 
G1 X-22.697022 Y13.065147 
G1 X-22.758934 Y13.077462 
G1 X-22.848366 Y13.095250 
G1 X-22.990938 Y13.154303 
G1 X-23.119247 Y13.240037 
G1 X-23.539822 Y13.660606 
G1 X-23.598244 Y13.748047 
G1 X-23.625556 Y13.788919 
G1 X-23.659441 Y13.870725 
G1 X-23.684609 Y13.931484 
G1 X-23.714716 Y14.082834 
G1 X-23.714716 Y14.237159 
G1 X-23.703078 Y14.295659 
G1 X-23.684613 Y14.388503 
G1 X-23.625559 Y14.531075 
G1 X-23.539825 Y14.659384 
G1 X-23.430709 Y14.768503 
G1 X-23.343269 Y14.826925 
G1 X-23.302397 Y14.854237 
G1 X-23.220591 Y14.888122 
G1 X-23.159831 Y14.913291 
G1 X-23.008481 Y14.943397 
G1 X-22.231247 Y14.943397 
G1 X-22.079897 Y14.913291 
G1 X-21.937328 Y14.854237 
G1 X-21.809019 Y14.768503 
G1 X-21.699903 Y14.659387 
G1 X-21.614169 Y14.531078 
G1 X-21.555116 Y14.388509 
G1 X-21.525009 Y14.237159 
G1 X-21.525009 Y14.082838 
G1 X-21.555116 Y13.931487 
G1 X-21.614169 Y13.788919 
G0 Z1.000000 
G0 X-23.010625 Y15.768900 
G1 Z-0.080000 F25    
G1 X-23.061900 Y15.717625 F50    
G1 X-23.124697 Y15.681369 
G1 X-23.194741 Y15.662600 
G1 X-24.267256 Y15.662600 
G1 X-24.337300 Y15.681369 
G1 X-24.377534 Y15.704600 
G1 X-26.725159 Y15.704600 
G1 X-26.876509 Y15.734706 
G1 X-27.019078 Y15.793759 
G1 X-27.147388 Y15.879494 
G1 X-27.256503 Y15.988609 
G1 X-28.548503 Y17.280609 
G1 X-28.634238 Y17.408919 
G1 X-28.693291 Y17.551488 
G1 X-28.723397 Y17.702838 
G1 X-28.723397 Y19.335881 
G1 X-28.825363 Y19.356162 
G1 X-28.995666 Y19.426703 
G1 X-29.148934 Y19.529116 
G1 X-29.279281 Y19.659463 
G1 X-29.381694 Y19.812731 
G1 X-29.452234 Y19.983034 
G1 X-29.488197 Y20.163828 
G1 X-29.488197 Y20.348169 
G1 X-29.452234 Y20.528962 
G1 X-29.381694 Y20.699266 
G1 X-29.279281 Y20.852534 
G1 X-29.148934 Y20.982881 
G1 X-28.995666 Y21.085294 
G1 X-28.825363 Y21.155834 
G1 X-28.644569 Y21.191797 
G1 X-27.139428 Y21.191797 
G1 X-26.958634 Y21.155834 
G1 X-26.788331 Y21.085294 
G1 X-26.635063 Y20.982881 
G1 X-26.504716 Y20.852534 
G1 X-26.402303 Y20.699266 
G1 X-26.331762 Y20.528962 
G1 X-26.295800 Y20.348169 
G1 X-26.295800 Y20.163828 
G1 X-26.331762 Y19.983034 
G1 X-26.402303 Y19.812731 
G1 X-26.504716 Y19.659463 
G1 X-26.635063 Y19.529116 
G1 X-26.788331 Y19.426703 
G1 X-26.958634 Y19.356162 
G1 X-27.139428 Y19.320200 
G1 X-27.156600 Y18.104494 
G1 X-26.323503 Y17.271397 
G1 X-24.377534 Y17.271397 
G1 X-24.337300 Y17.294628 
G1 X-24.267256 Y17.313397 
G1 X-23.194741 Y17.313397 
G1 X-23.124697 Y17.294628 
G1 X-23.061900 Y17.258372 
G1 X-23.010625 Y17.207097 
G1 X-22.974369 Y17.144300 
G1 X-22.955600 Y17.074256 
G1 X-22.955600 Y16.605378 
G1 X-22.947600 Y16.565159 
G1 X-22.947600 Y16.410837 
G1 X-22.955600 Y16.370619 
G1 X-22.955600 Y15.901741 
G1 X-22.974369 Y15.831697 
G1 X-23.010625 Y15.768900 
G0 Z1.000000 
G0 X-24.682472 Y18.165509 
G1 Z-0.080000 F25    
G1 X-24.682481 Y18.165503 F50    
G1 X-24.783184 Y18.098212 
G1 X-24.810778 Y18.079772 
G1 X-24.909656 Y18.038812 
G1 X-24.953344 Y18.020712 
G1 X-25.044038 Y18.002669 
G1 X-25.104694 Y17.990600 
G1 X-25.181000 Y17.990597 
G1 X-25.259013 Y17.990594 
G1 X-25.342347 Y17.990597 
G1 X-25.493697 Y18.020703 
G1 X-25.636266 Y18.079756 
G1 X-25.764575 Y18.165491 
G1 X-25.873691 Y18.274606 
G1 X-25.959425 Y18.402916 
G1 X-26.018478 Y18.545484 
G1 X-26.048584 Y18.696834 
G1 X-26.048584 Y18.851156 
G1 X-26.018478 Y19.002506 
G1 X-25.959425 Y19.145075 
G1 X-25.873691 Y19.273384 
G1 X-25.758747 Y19.388325 
G1 X-25.722947 Y19.424131 
G1 X-25.620188 Y19.492794 
G1 X-25.594641 Y19.509869 
G1 X-25.494350 Y19.551413 
G1 X-25.452075 Y19.568928 
G1 X-25.359675 Y19.587312 
G1 X-25.300725 Y19.599041 
G1 X-25.222713 Y19.599044 
G1 X-25.146406 Y19.599047 
G1 X-25.077547 Y19.585350 
G1 X-24.995053 Y19.568947 
G1 X-24.889575 Y19.525259 
G1 X-24.852484 Y19.509897 
G1 X-24.755009 Y19.444769 
G1 X-24.724172 Y19.424169 
G1 X-24.682503 Y19.382506 
G1 X-24.611681 Y19.311684 
G1 X-24.573397 Y19.273406 
G1 X-24.506100 Y19.172694 
G1 X-24.487659 Y19.145100 
G1 X-24.446700 Y19.046222 
G1 X-24.428600 Y19.002534 
G1 X-24.410556 Y18.911841 
G1 X-24.398488 Y18.851184 
G1 X-24.398484 Y18.774878 
G1 X-24.398481 Y18.696866 
G1 X-24.411869 Y18.629556 
G1 X-24.428581 Y18.545513 
G1 X-24.470856 Y18.443447 
G1 X-24.487631 Y18.402944 
G1 X-24.551903 Y18.306747 
G1 X-24.573359 Y18.274631 
G1 X-24.645534 Y18.202453 
G1 X-24.682472 Y18.165509 
G0 Z1.000000 
G0 X-26.504716 Y22.199462 
G1 Z-0.080000 F25    
G1 X-26.635063 Y22.069116 F50    
G1 X-26.788331 Y21.966703 
G1 X-26.958634 Y21.896162 
G1 X-27.139428 Y21.860200 
G1 X-28.644569 Y21.860200 
G1 X-28.825363 Y21.896162 
G1 X-28.995666 Y21.966703 
G1 X-29.148934 Y22.069116 
G1 X-29.279281 Y22.199462 
G1 X-29.381694 Y22.352731 
G1 X-29.452234 Y22.523034 
G1 X-29.488197 Y22.703828 
G1 X-29.488197 Y22.888169 
G1 X-29.452234 Y23.068963 
G1 X-29.381694 Y23.239266 
G1 X-29.279281 Y23.392534 
G1 X-29.148934 Y23.522881 
G1 X-28.995666 Y23.625294 
G1 X-28.825363 Y23.695834 
G1 X-28.644569 Y23.731797 
G1 X-27.139428 Y23.731797 
G1 X-26.958634 Y23.695834 
G1 X-26.788331 Y23.625294 
G1 X-26.635063 Y23.522881 
G1 X-26.504716 Y23.392534 
G1 X-26.402303 Y23.239266 
G1 X-26.331762 Y23.068963 
G1 X-26.295800 Y22.888169 
G1 X-26.295800 Y22.703828 
G1 X-26.331762 Y22.523034 
G1 X-26.402303 Y22.352731 
G1 X-26.504716 Y22.199462 
G0 Z1.000000 
G0 X-26.504716 Y24.739462 
G1 Z-0.080000 F25    
G1 X-26.635063 Y24.609116 F50    
G1 X-26.788331 Y24.506703 
G1 X-26.958634 Y24.436162 
G1 X-27.139428 Y24.400200 
G1 X-28.644569 Y24.400200 
G1 X-28.825363 Y24.436162 
G1 X-28.995666 Y24.506703 
G1 X-29.148934 Y24.609116 
G1 X-29.279281 Y24.739462 
G1 X-29.381694 Y24.892731 
G1 X-29.452234 Y25.063034 
G1 X-29.488197 Y25.243828 
G1 X-29.488197 Y25.428169 
G1 X-29.452234 Y25.608963 
G1 X-29.381694 Y25.779266 
G1 X-29.279281 Y25.932534 
G1 X-29.148934 Y26.062881 
G1 X-28.995666 Y26.165294 
G1 X-28.825363 Y26.235834 
G1 X-28.644569 Y26.271797 
G1 X-27.139428 Y26.271797 
G1 X-26.958634 Y26.235834 
G1 X-26.788331 Y26.165294 
G1 X-26.635063 Y26.062881 
G1 X-26.504716 Y25.932534 
G1 X-26.402303 Y25.779266 
G1 X-26.331762 Y25.608963 
G1 X-26.295800 Y25.428169 
G1 X-26.295800 Y25.243828 
G1 X-26.331762 Y25.063034 
G1 X-26.402303 Y24.892731 
G1 X-26.504716 Y24.739462 
G0 Z1.000000 
G0 X-25.487437 Y24.764909 
G1 Z-0.080000 F25    
G1 X-25.521322 Y24.846716 F50    
G1 X-25.546491 Y24.907475 
G1 X-25.576597 Y25.058825 
G1 X-25.576597 Y25.665194 
G1 X-25.763850 Y26.117259 
G1 X-25.793956 Y26.268612 
G1 X-25.793956 Y26.422934 
G1 X-25.763850 Y26.574284 
G1 X-25.704797 Y26.716853 
G1 X-25.648650 Y26.800878 
G1 X-25.619066 Y26.845159 
G1 X-25.509947 Y26.954278 
G1 X-25.381641 Y27.040012 
G1 X-25.239072 Y27.099066 
G1 X-25.087719 Y27.129172 
G1 X-24.933397 Y27.129172 
G1 X-24.782047 Y27.099066 
G1 X-24.639478 Y27.040012 
G1 X-24.555453 Y26.983866 
G1 X-24.511172 Y26.954281 
G1 X-24.402053 Y26.845163 
G1 X-23.966500 Y26.409606 
G1 X-23.579834 Y26.249444 
G1 X-23.445287 Y26.193716 
G1 X-23.316978 Y26.107981 
G1 X-23.046497 Y25.837500 
G1 X-22.943319 Y25.734322 
G1 X-22.851644 Y25.600075 
G1 X-22.817759 Y25.518269 
G1 X-22.792591 Y25.457509 
G1 X-22.762484 Y25.306159 
G1 X-22.762484 Y25.151834 
G1 X-22.774122 Y25.093334 
G1 X-22.792587 Y25.000491 
G1 X-22.851641 Y24.857919 
G1 X-22.937375 Y24.729609 
G1 X-23.046491 Y24.620494 
G1 X-23.174803 Y24.534756 
G1 X-23.256609 Y24.500872 
G1 X-23.317369 Y24.475703 
G1 X-23.468719 Y24.445597 
G1 X-24.412834 Y24.445597 
G1 X-24.474609 Y24.420009 
G1 X-24.564684 Y24.382697 
G1 X-24.716034 Y24.352591 
G1 X-24.870359 Y24.352591 
G1 X-24.919153 Y24.362297 
G1 X-25.021706 Y24.382694 
G1 X-25.106928 Y24.417997 
G1 X-25.164278 Y24.441750 
G1 X-25.248303 Y24.497897 
G1 X-25.292584 Y24.527481 
G1 X-25.401703 Y24.636600 
G1 X-25.487437 Y24.764909 
G0 Z1.000000 
G0 X-26.504716 Y27.279463 
G1 Z-0.080000 F25    
G1 X-26.635063 Y27.149116 F50    
G1 X-26.788331 Y27.046703 
G1 X-26.958634 Y26.976163 
G1 X-27.139428 Y26.940200 
G1 X-28.644569 Y26.940200 
G1 X-28.825363 Y26.976163 
G1 X-28.995666 Y27.046703 
G1 X-29.148934 Y27.149116 
G1 X-29.279281 Y27.279463 
G1 X-29.381694 Y27.432731 
G1 X-29.452234 Y27.603034 
G1 X-29.488197 Y27.783828 
G1 X-29.488197 Y27.968169 
G1 X-29.452234 Y28.148962 
G1 X-29.381694 Y28.319266 
G1 X-29.279281 Y28.472534 
G1 X-29.148934 Y28.602881 
G1 X-28.995666 Y28.705294 
G1 X-28.825363 Y28.775834 
G1 X-28.644569 Y28.811797 
G1 X-27.139428 Y28.811797 
G1 X-26.958634 Y28.775834 
G1 X-26.788331 Y28.705294 
G1 X-26.635063 Y28.602881 
G1 X-26.504716 Y28.472534 
G1 X-26.402303 Y28.319266 
G1 X-26.331762 Y28.148962 
G1 X-26.295800 Y27.968169 
G1 X-26.295800 Y27.783828 
G1 X-26.331762 Y27.603034 
G1 X-26.402303 Y27.432731 
G1 X-26.504716 Y27.279463 
G0 Z1.000000 
G0 X-26.719644 Y29.632600 
G1 Z-0.080000 F25    
G1 X-26.788331 Y29.586703 F50    
G1 X-26.958634 Y29.516163 
G1 X-27.139428 Y29.480200 
G1 X-28.644569 Y29.480200 
G1 X-28.825363 Y29.516163 
G1 X-28.995666 Y29.586703 
G1 X-29.148934 Y29.689116 
G1 X-29.279281 Y29.819463 
G1 X-29.381694 Y29.972731 
G1 X-29.452234 Y30.143034 
G1 X-29.488197 Y30.323828 
G1 X-29.488197 Y30.508169 
G1 X-29.452234 Y30.688962 
G1 X-29.381694 Y30.859266 
G1 X-29.279281 Y31.012534 
G1 X-29.148934 Y31.142881 
G1 X-28.995666 Y31.245294 
G1 X-28.825363 Y31.315834 
G1 X-28.644569 Y31.351797 
G1 X-27.139428 Y31.351797 
G1 X-26.958634 Y31.315834 
G1 X-26.788331 Y31.245294 
G1 X-26.719644 Y31.199397 
G1 X-25.386837 Y31.199397 
G1 X-25.235488 Y31.169291 
G1 X-25.092919 Y31.110238 
G1 X-24.964609 Y31.024503 
G1 X-24.855494 Y30.915388 
G1 X-24.783000 Y30.806891 
G1 X-22.897506 Y28.921397 
G1 X-22.675734 Y28.881837 
G1 X-22.488394 Y28.804241 
G1 X-22.319794 Y28.691584 
G1 X-22.176413 Y28.548203 
G1 X-22.063756 Y28.379603 
G1 X-21.986159 Y28.192262 
G1 X-21.946600 Y27.993388 
G1 X-20.159503 Y26.183397 
G1 X-19.590019 Y26.183397 
G1 X-19.437619 Y26.335797 
G1 X-18.662378 Y26.335797 
G1 X-18.114200 Y25.787619 
G1 X-18.114200 Y25.012378 
G1 X-18.662378 Y24.464200 
G1 X-19.437619 Y24.464200 
G1 X-19.590019 Y24.616600 
G1 X-20.561159 Y24.616600 
G1 X-20.712509 Y24.646706 
G1 X-20.855078 Y24.705759 
G1 X-20.983387 Y24.791494 
G1 X-23.054494 Y26.862600 
G1 X-23.276263 Y26.902159 
G1 X-23.463603 Y26.979756 
G1 X-23.632203 Y27.092412 
G1 X-23.775584 Y27.235794 
G1 X-23.888241 Y27.404394 
G1 X-23.965837 Y27.591734 
G1 X-24.005397 Y27.790609 
G1 X-25.824491 Y29.632600 
G1 X-26.719644 Y29.632600 
G0 Z1.000000 
G0 X-26.719644 Y32.172600 
G1 Z-0.080000 F25    
G1 X-26.788331 Y32.126703 F50    
G1 X-26.958634 Y32.056162 
G1 X-27.139428 Y32.020200 
G1 X-28.644569 Y32.020200 
G1 X-28.825363 Y32.056162 
G1 X-28.995666 Y32.126703 
G1 X-29.148934 Y32.229116 
G1 X-29.279281 Y32.359462 
G1 X-29.381694 Y32.512731 
G1 X-29.452234 Y32.683034 
G1 X-29.488197 Y32.863828 
G1 X-29.488197 Y33.048169 
G1 X-29.452234 Y33.228963 
G1 X-29.381694 Y33.399266 
G1 X-29.279281 Y33.552534 
G1 X-29.148934 Y33.682881 
G1 X-28.995666 Y33.785294 
G1 X-28.825363 Y33.855834 
G1 X-28.644569 Y33.891797 
G1 X-27.139428 Y33.891797 
G1 X-26.958634 Y33.855834 
G1 X-26.788331 Y33.785294 
G1 X-26.719644 Y33.739397 
G1 X-23.664391 Y33.739397 
G1 X-23.632203 Y33.771584 
G1 X-23.463603 Y33.884241 
G1 X-23.276263 Y33.961838 
G1 X-23.077388 Y34.001397 
G1 X-22.874609 Y34.001397 
G1 X-22.675734 Y33.961838 
G1 X-22.488394 Y33.884241 
G1 X-22.367406 Y33.803397 
G1 X-19.590019 Y33.803397 
G1 X-19.437619 Y33.955797 
G1 X-18.662378 Y33.955797 
G1 X-18.114200 Y33.407619 
G1 X-18.114200 Y32.632378 
G1 X-18.662378 Y32.084200 
G1 X-19.437619 Y32.084200 
G1 X-19.590019 Y32.236600 
G1 X-22.255606 Y32.236600 
G1 X-22.319794 Y32.172413 
G1 X-22.488394 Y32.059756 
G1 X-22.675734 Y31.982159 
G1 X-22.874609 Y31.942600 
G1 X-23.077388 Y31.942600 
G1 X-23.276263 Y31.982159 
G1 X-23.463603 Y32.059756 
G1 X-23.632203 Y32.172413 
G1 X-26.719644 Y32.172600 
G0 Z1.000000 
G0 X-31.855625 Y32.304900 
G1 Z-0.080000 F25    
G1 X-31.906900 Y32.253625 F50    
G1 X-31.969697 Y32.217369 
G1 X-32.039741 Y32.198600 
G1 X-32.436134 Y32.198600 
G1 X-32.566837 Y32.172600 
G1 X-34.339644 Y32.172600 
G1 X-34.408331 Y32.126703 
G1 X-34.578634 Y32.056162 
G1 X-34.759428 Y32.020200 
G1 X-36.264569 Y32.020200 
G1 X-36.445363 Y32.056162 
G1 X-36.615666 Y32.126703 
G1 X-36.768934 Y32.229116 
G1 X-36.899281 Y32.359462 
G1 X-37.001694 Y32.512731 
G1 X-37.072234 Y32.683034 
G1 X-37.108197 Y32.863828 
G1 X-37.108197 Y33.048169 
G1 X-37.072234 Y33.228963 
G1 X-37.001694 Y33.399266 
G1 X-36.899281 Y33.552534 
G1 X-36.768934 Y33.682881 
G1 X-36.615666 Y33.785294 
G1 X-36.445363 Y33.855834 
G1 X-36.264569 Y33.891797 
G1 X-34.759428 Y33.891797 
G1 X-34.578634 Y33.855834 
G1 X-34.408331 Y33.785294 
G1 X-34.339644 Y33.739397 
G1 X-33.298506 Y33.739397 
G1 X-33.245097 Y33.794372 
G1 X-33.182300 Y33.830628 
G1 X-33.112256 Y33.849397 
G1 X-32.039741 Y33.849397 
G1 X-31.969697 Y33.830628 
G1 X-31.906900 Y33.794372 
G1 X-31.855625 Y33.743097 
G1 X-31.819369 Y33.680300 
G1 X-31.800600 Y33.610256 
G1 X-31.800600 Y33.141372 
G1 X-31.792600 Y33.101159 
G1 X-31.792600 Y32.946838 
G1 X-31.800600 Y32.906625 
G1 X-31.800600 Y32.437741 
G1 X-31.819369 Y32.367697 
G1 X-31.855625 Y32.304900 
G0 Z1.000000 
G0 X-34.255063 Y31.142881 
G1 Z-0.080000 F25    
G1 X-34.124716 Y31.012534 F50    
G1 X-34.022303 Y30.859266 
G1 X-33.951763 Y30.688962 
G1 X-33.915800 Y30.508169 
G1 X-33.915800 Y30.323828 
G1 X-33.951763 Y30.143034 
G1 X-34.022303 Y29.972731 
G1 X-34.124716 Y29.819463 
G1 X-34.255063 Y29.689116 
G1 X-34.408331 Y29.586703 
G1 X-34.578634 Y29.516163 
G1 X-34.759428 Y29.480200 
G1 X-36.264569 Y29.480200 
G1 X-36.445363 Y29.516163 
G1 X-36.615666 Y29.586703 
G1 X-36.768934 Y29.689116 
G1 X-37.924294 Y29.696600 
G1 X-38.064281 Y29.592734 
G1 X-38.209775 Y29.518603 
G1 X-38.365072 Y29.468144 
G1 X-38.526353 Y29.442600 
G1 X-40.213644 Y29.442600 
G1 X-40.374925 Y29.468144 
G1 X-40.530222 Y29.518603 
G1 X-40.675716 Y29.592734 
G1 X-40.807819 Y29.688716 
G1 X-40.923281 Y29.804178 
G1 X-41.019263 Y29.936281 
G1 X-41.093394 Y30.081775 
G1 X-41.143853 Y30.237072 
G1 X-41.169397 Y30.398353 
G1 X-41.169397 Y30.561644 
G1 X-41.143853 Y30.722925 
G1 X-41.093394 Y30.878222 
G1 X-41.019263 Y31.023716 
G1 X-40.923281 Y31.155819 
G1 X-40.807819 Y31.271281 
G1 X-40.675716 Y31.367262 
G1 X-40.530222 Y31.441394 
G1 X-40.374925 Y31.491853 
G1 X-40.213644 Y31.517397 
G1 X-38.526353 Y31.517397 
G1 X-38.365072 Y31.491853 
G1 X-38.209775 Y31.441394 
G1 X-38.064281 Y31.367262 
G1 X-37.932178 Y31.271281 
G1 X-36.571959 Y31.263397 
G1 X-36.445363 Y31.315834 
G1 X-36.264569 Y31.351797 
G1 X-34.759428 Y31.351797 
G1 X-34.578634 Y31.315834 
G1 X-34.408331 Y31.245294 
G1 X-34.255063 Y31.142881 
G0 Z1.000000 
G0 X-34.255063 Y28.602881 
G1 Z-0.080000 F25    
G1 X-34.124716 Y28.472534 F50    
G1 X-34.022303 Y28.319266 
G1 X-33.951763 Y28.148962 
G1 X-33.915800 Y27.968169 
G1 X-33.915800 Y27.783828 
G1 X-33.951763 Y27.603034 
G1 X-34.022303 Y27.432731 
G1 X-34.124716 Y27.279463 
G1 X-34.255063 Y27.149116 
G1 X-34.408331 Y27.046703 
G1 X-34.578634 Y26.976163 
G1 X-34.759428 Y26.940200 
G1 X-36.264569 Y26.940200 
G1 X-36.445363 Y26.976163 
G1 X-36.615666 Y27.046703 
G1 X-36.768934 Y27.149116 
G1 X-37.924297 Y27.156600 
G1 X-38.064281 Y27.052734 
G1 X-38.209775 Y26.978603 
G1 X-38.365072 Y26.928144 
G1 X-38.526353 Y26.902600 
G1 X-40.213644 Y26.902600 
G1 X-40.374925 Y26.928144 
G1 X-40.530222 Y26.978603 
G1 X-40.675716 Y27.052734 
G1 X-40.807819 Y27.148716 
G1 X-40.923281 Y27.264178 
G1 X-41.019263 Y27.396281 
G1 X-41.093394 Y27.541775 
G1 X-41.143853 Y27.697072 
G1 X-41.169397 Y27.858353 
G1 X-41.169397 Y28.021644 
G1 X-41.143853 Y28.182925 
G1 X-41.093394 Y28.338222 
G1 X-41.019263 Y28.483716 
G1 X-40.923281 Y28.615819 
G1 X-40.807819 Y28.731281 
G1 X-40.675716 Y28.827262 
G1 X-40.530222 Y28.901394 
G1 X-40.374925 Y28.951853 
G1 X-40.213644 Y28.977397 
G1 X-38.526353 Y28.977397 
G1 X-38.365072 Y28.951853 
G1 X-38.209775 Y28.901394 
G1 X-38.064281 Y28.827262 
G1 X-37.932178 Y28.731281 
G1 X-36.571959 Y28.723397 
G1 X-36.445363 Y28.775834 
G1 X-36.264569 Y28.811797 
G1 X-34.759428 Y28.811797 
G1 X-34.578634 Y28.775834 
G1 X-34.408331 Y28.705294 
G1 X-34.255063 Y28.602881 
G0 Z1.000000 
G0 X-34.255063 Y26.062881 
G1 Z-0.080000 F25    
G1 X-34.124716 Y25.932534 F50    
G1 X-34.022303 Y25.779266 
G1 X-33.951763 Y25.608963 
G1 X-33.915800 Y25.428169 
G1 X-33.915800 Y25.243828 
G1 X-33.951763 Y25.063034 
G1 X-34.022303 Y24.892731 
G1 X-34.124716 Y24.739462 
G1 X-34.255063 Y24.609116 
G1 X-34.408331 Y24.506703 
G1 X-34.578634 Y24.436162 
G1 X-34.759428 Y24.400200 
G1 X-36.264569 Y24.400200 
G1 X-36.445363 Y24.436162 
G1 X-36.615666 Y24.506703 
G1 X-36.768934 Y24.609116 
G1 X-37.924297 Y24.616600 
G1 X-38.064281 Y24.512734 
G1 X-38.209775 Y24.438603 
G1 X-38.365072 Y24.388144 
G1 X-38.526353 Y24.362600 
G1 X-40.213644 Y24.362600 
G1 X-40.374925 Y24.388144 
G1 X-40.530222 Y24.438603 
G1 X-40.675716 Y24.512734 
G1 X-40.807819 Y24.608716 
G1 X-40.923281 Y24.724178 
G1 X-41.019263 Y24.856281 
G1 X-41.093394 Y25.001775 
G1 X-41.143853 Y25.157072 
G1 X-41.169397 Y25.318353 
G1 X-41.169397 Y25.481644 
G1 X-41.143853 Y25.642925 
G1 X-41.093394 Y25.798222 
G1 X-41.019263 Y25.943716 
G1 X-40.923281 Y26.075819 
G1 X-40.807819 Y26.191281 
G1 X-40.675716 Y26.287263 
G1 X-40.530222 Y26.361394 
G1 X-40.374925 Y26.411853 
G1 X-40.213644 Y26.437397 
G1 X-38.526353 Y26.437397 
G1 X-38.365072 Y26.411853 
G1 X-38.209775 Y26.361394 
G1 X-38.064281 Y26.287263 
G1 X-37.932178 Y26.191281 
G1 X-36.571959 Y26.183397 
G1 X-36.445363 Y26.235834 
G1 X-36.264569 Y26.271797 
G1 X-34.759428 Y26.271797 
G1 X-34.578634 Y26.235834 
G1 X-34.408331 Y26.165294 
G1 X-34.255063 Y26.062881 
G0 Z1.000000 
G0 X-34.255063 Y23.522881 
G1 Z-0.080000 F25    
G1 X-34.124716 Y23.392534 F50    
G1 X-34.022303 Y23.239266 
G1 X-33.951763 Y23.068963 
G1 X-33.915800 Y22.888169 
G1 X-33.915800 Y22.703828 
G1 X-33.951763 Y22.523034 
G1 X-34.022303 Y22.352731 
G1 X-34.124716 Y22.199462 
G1 X-34.255063 Y22.069116 
G1 X-34.408331 Y21.966703 
G1 X-34.578634 Y21.896162 
G1 X-34.759428 Y21.860200 
G1 X-36.264569 Y21.860200 
G1 X-36.445363 Y21.896162 
G1 X-36.615666 Y21.966703 
G1 X-36.768934 Y22.069116 
G1 X-37.924297 Y22.076600 
G1 X-38.064281 Y21.972734 
G1 X-38.209775 Y21.898603 
G1 X-38.365072 Y21.848144 
G1 X-38.526353 Y21.822600 
G1 X-40.213644 Y21.822600 
G1 X-40.374925 Y21.848144 
G1 X-40.530222 Y21.898603 
G1 X-40.675716 Y21.972734 
G1 X-40.807819 Y22.068716 
G1 X-40.923281 Y22.184178 
G1 X-41.019263 Y22.316281 
G1 X-41.093394 Y22.461775 
G1 X-41.143853 Y22.617072 
G1 X-41.169397 Y22.778353 
G1 X-41.169397 Y22.941644 
G1 X-41.143853 Y23.102925 
G1 X-41.093394 Y23.258222 
G1 X-41.019263 Y23.403716 
G1 X-40.923281 Y23.535819 
G1 X-40.807819 Y23.651281 
G1 X-40.675716 Y23.747263 
G1 X-40.530222 Y23.821394 
G1 X-40.374925 Y23.871853 
G1 X-40.213644 Y23.897397 
G1 X-38.526353 Y23.897397 
G1 X-38.365072 Y23.871853 
G1 X-38.209775 Y23.821394 
G1 X-38.064281 Y23.747263 
G1 X-37.932178 Y23.651281 
G1 X-36.571959 Y23.643397 
G1 X-36.445363 Y23.695834 
G1 X-36.264569 Y23.731797 
G1 X-34.759428 Y23.731797 
G1 X-34.578634 Y23.695834 
G1 X-34.408331 Y23.625294 
G1 X-34.255063 Y23.522881 
G0 Z1.000000 
G0 X-34.255063 Y20.982881 
G1 Z-0.080000 F25    
G1 X-34.124716 Y20.852534 F50    
G1 X-34.022303 Y20.699266 
G1 X-33.951763 Y20.528962 
G1 X-33.915800 Y20.348169 
G1 X-33.915800 Y20.163828 
G1 X-33.951763 Y19.983034 
G1 X-34.022303 Y19.812731 
G1 X-34.124716 Y19.659463 
G1 X-34.255063 Y19.529116 
G1 X-34.408331 Y19.426703 
G1 X-34.578634 Y19.356162 
G1 X-34.759428 Y19.320200 
G1 X-36.264569 Y19.320200 
G1 X-36.445363 Y19.356162 
G1 X-36.615666 Y19.426703 
G1 X-36.768934 Y19.529116 
G1 X-37.924297 Y19.536600 
G1 X-38.064281 Y19.432734 
G1 X-38.209775 Y19.358603 
G1 X-38.365072 Y19.308144 
G1 X-38.526353 Y19.282600 
G1 X-40.213644 Y19.282600 
G1 X-40.374925 Y19.308144 
G1 X-40.530222 Y19.358603 
G1 X-40.675716 Y19.432734 
G1 X-40.807819 Y19.528716 
G1 X-40.923281 Y19.644178 
G1 X-41.019263 Y19.776281 
G1 X-41.093394 Y19.921775 
G1 X-41.143853 Y20.077072 
G1 X-41.169397 Y20.238353 
G1 X-41.169397 Y20.401644 
G1 X-41.143853 Y20.562925 
G1 X-41.093394 Y20.718222 
G1 X-41.019263 Y20.863716 
G1 X-40.923281 Y20.995819 
G1 X-40.807819 Y21.111281 
G1 X-40.675716 Y21.207262 
G1 X-40.530222 Y21.281394 
G1 X-40.374925 Y21.331853 
G1 X-40.213644 Y21.357397 
G1 X-38.526353 Y21.357397 
G1 X-38.365072 Y21.331853 
G1 X-38.209775 Y21.281394 
G1 X-38.064281 Y21.207262 
G1 X-37.932178 Y21.111281 
G1 X-36.571959 Y21.103397 
G1 X-36.445363 Y21.155834 
G1 X-36.264569 Y21.191797 
G1 X-34.759428 Y21.191797 
G1 X-34.578634 Y21.155834 
G1 X-34.408331 Y21.085294 
G1 X-34.255063 Y20.982881 
G0 Z1.000000 
G0 X-33.770500 Y18.996575 
G1 Z-0.080000 F25    
G1 X-33.667912 Y19.099159 F50    
G1 X-33.533075 Y19.191425 
G1 X-33.451269 Y19.225309 
G1 X-33.390509 Y19.250478 
G1 X-33.239159 Y19.280584 
G1 X-33.084834 Y19.280584 
G1 X-33.026334 Y19.268947 
G1 X-32.933491 Y19.250481 
G1 X-32.790919 Y19.191428 
G1 X-32.662609 Y19.105694 
G1 X-32.553494 Y18.996578 
G1 X-32.467756 Y18.868266 
G1 X-32.433872 Y18.786459 
G1 X-32.408703 Y18.725700 
G1 X-32.378597 Y18.574350 
G1 X-32.378597 Y13.457722 
G1 X-32.408703 Y13.306372 
G1 X-32.467756 Y13.163803 
G1 X-32.553491 Y13.035494 
G1 X-32.662606 Y12.926378 
G1 X-32.790916 Y12.840644 
G1 X-32.933484 Y12.781591 
G1 X-33.084834 Y12.751484 
G1 X-33.239156 Y12.751484 
G1 X-33.390506 Y12.781591 
G1 X-33.533075 Y12.840644 
G1 X-33.661384 Y12.926378 
G1 X-33.770500 Y13.035494 
G1 X-35.978844 Y15.243844 
G1 X-36.254159 Y15.357881 
G1 X-36.396734 Y15.416934 
G1 X-36.480759 Y15.473081 
G1 X-36.525041 Y15.502666 
G1 X-36.634159 Y15.611784 
G1 X-38.422566 Y17.400191 
G1 X-38.508300 Y17.528500 
G1 X-38.567353 Y17.671069 
G1 X-38.597459 Y17.822419 
G1 X-38.597459 Y17.976741 
G1 X-38.567353 Y18.128091 
G1 X-38.508300 Y18.270659 
G1 X-38.422566 Y18.398969 
G1 X-38.313450 Y18.508084 
G1 X-38.185141 Y18.593819 
G1 X-37.860625 Y18.728234 
G1 X-37.727962 Y18.783188 
G1 X-37.566706 Y18.817397 
G1 X-37.102697 Y18.817397 
G1 X-36.951347 Y18.787291 
G1 X-36.808778 Y18.728237 
G1 X-36.501594 Y18.600997 
G1 X-34.522397 Y18.600997 
G1 X-33.914116 Y18.852953 
G1 X-33.770500 Y18.996572 
G0 Z1.000000 
G0 X-36.330609 Y14.578503 
G1 Z-0.080000 F25    
G1 X-32.405494 Y10.653387 F50    
G1 X-32.319759 Y10.525078 
G1 X-32.260706 Y10.382509 
G1 X-32.230600 Y10.231159 
G1 X-32.230600 Y8.993700 
G1 X-32.126734 Y8.853716 
G1 X-32.052603 Y8.708222 
G1 X-32.002144 Y8.552925 
G1 X-31.976600 Y8.391644 
G1 X-31.976600 Y6.704353 
G1 X-32.002144 Y6.543072 
G1 X-32.052603 Y6.387775 
G1 X-32.126734 Y6.242281 
G1 X-32.222716 Y6.110178 
G1 X-32.236600 Y5.180397 
G1 X-32.106741 Y5.180397 
G1 X-32.036697 Y5.161628 
G1 X-31.973900 Y5.125372 
G1 X-31.922625 Y5.074097 
G1 X-31.886369 Y5.011300 
G1 X-31.867600 Y4.941256 
G1 X-31.867600 Y4.472375 
G1 X-31.859600 Y4.432159 
G1 X-31.859600 Y4.277838 
G1 X-31.867600 Y4.237622 
G1 X-31.867600 Y3.768741 
G1 X-31.886369 Y3.698697 
G1 X-31.922625 Y3.635900 
G1 X-31.973900 Y3.584625 
G1 X-32.036697 Y3.548369 
G1 X-32.106741 Y3.529600 
G1 X-33.179256 Y3.529600 
G1 X-33.249300 Y3.548369 
G1 X-33.312097 Y3.584625 
G1 X-33.363372 Y3.635900 
G1 X-33.399628 Y3.698697 
G1 X-33.418397 Y3.768741 
G1 X-33.418397 Y4.022503 
G1 X-33.519388 Y4.123494 
G1 X-33.628503 Y4.232609 
G1 X-33.714238 Y4.360919 
G1 X-33.773291 Y4.503488 
G1 X-33.803397 Y4.654838 
G1 X-33.803397 Y6.108297 
G1 X-33.901263 Y6.242281 
G1 X-33.975394 Y6.387775 
G1 X-34.025853 Y6.543072 
G1 X-34.051397 Y6.704353 
G1 X-34.051397 Y8.391644 
G1 X-34.025853 Y8.552925 
G1 X-33.975394 Y8.708222 
G1 X-33.901263 Y8.853716 
G1 X-33.805281 Y8.985819 
G1 X-33.797397 Y9.829503 
G1 X-37.438503 Y13.470609 
G1 X-37.524237 Y13.598919 
G1 X-37.583291 Y13.741487 
G1 X-37.613397 Y13.892838 
G1 X-37.613397 Y13.932872 
G1 X-42.279853 Y18.599328 
G1 X-42.360669 Y18.680144 
G1 X-42.424163 Y18.775172 
G1 X-42.467900 Y18.880759 
G1 X-42.490197 Y18.992853 
G1 X-42.490197 Y48.317144 
G1 X-42.467900 Y48.429237 
G1 X-42.424163 Y48.534825 
G1 X-42.360669 Y48.629853 
G1 X-42.279853 Y48.710669 
G1 X-40.153397 Y50.837125 
G1 X-40.153397 Y50.877159 
G1 X-40.123291 Y51.028509 
G1 X-40.064237 Y51.171078 
G1 X-39.978503 Y51.299388 
G1 X-39.869388 Y51.408503 
G1 X-39.741078 Y51.494237 
G1 X-39.598509 Y51.553291 
G1 X-39.447159 Y51.583397 
G1 X-36.571959 Y51.583397 
G1 X-36.445363 Y51.635834 
G1 X-36.264569 Y51.671797 
G1 X-34.759428 Y51.671797 
G1 X-34.578634 Y51.635834 
G1 X-34.408331 Y51.565294 
G1 X-34.255063 Y51.462881 
G1 X-34.124716 Y51.332534 
G1 X-34.022303 Y51.179266 
G1 X-33.951763 Y51.008963 
G1 X-33.915800 Y50.828169 
G1 X-33.915800 Y50.643828 
G1 X-33.951763 Y50.463034 
G1 X-34.022303 Y50.292731 
G1 X-34.124716 Y50.139463 
G1 X-34.255063 Y50.009116 
G1 X-34.408331 Y49.906703 
G1 X-34.578634 Y49.836163 
G1 X-34.759428 Y49.800200 
G1 X-36.264569 Y49.800200 
G1 X-36.445363 Y49.836163 
G1 X-36.615666 Y49.906703 
G1 X-36.768934 Y50.009116 
G1 X-39.332872 Y50.016600 
G1 X-41.329800 Y48.019672 
G1 X-41.329800 Y19.290325 
G1 X-36.792872 Y14.753397 
G1 X-36.752837 Y14.753397 
G1 X-36.601487 Y14.723291 
G1 X-36.458919 Y14.664238 
G1 X-36.330609 Y14.578503 
G0 Z1.000000 
G0 X-38.235609 Y12.673503 
G1 Z-0.080000 F25    
G1 X-34.945494 Y9.383387 F50    
G1 X-34.859759 Y9.255078 
G1 X-34.800706 Y9.112509 
G1 X-34.778681 Y9.001781 
G1 X-34.666734 Y8.853716 
G1 X-34.592603 Y8.708222 
G1 X-34.542144 Y8.552925 
G1 X-34.516600 Y8.391644 
G1 X-34.516600 Y6.704353 
G1 X-34.542144 Y6.543072 
G1 X-34.592603 Y6.387775 
G1 X-34.666734 Y6.242281 
G1 X-34.762716 Y6.110178 
G1 X-34.878178 Y5.994716 
G1 X-35.010281 Y5.898734 
G1 X-35.155775 Y5.824603 
G1 X-35.311072 Y5.774144 
G1 X-35.472353 Y5.748600 
G1 X-35.635644 Y5.748600 
G1 X-35.796925 Y5.774144 
G1 X-35.952222 Y5.824603 
G1 X-36.097716 Y5.898734 
G1 X-36.229819 Y5.994716 
G1 X-36.345281 Y6.110178 
G1 X-36.441263 Y6.242281 
G1 X-36.515394 Y6.387775 
G1 X-36.565853 Y6.543072 
G1 X-36.591397 Y6.704353 
G1 X-36.591397 Y8.391644 
G1 X-36.565853 Y8.552925 
G1 X-36.515394 Y8.708222 
G1 X-39.343503 Y11.565609 
G1 X-39.429237 Y11.693919 
G1 X-39.488291 Y11.836488 
G1 X-39.518397 Y11.987837 
G1 X-39.518397 Y12.027872 
G1 X-44.011669 Y16.521144 
G1 X-44.075162 Y16.616172 
G1 X-44.118900 Y16.721759 
G1 X-44.141197 Y16.833853 
G1 X-44.141197 Y50.476144 
G1 X-44.118900 Y50.588237 
G1 X-44.075162 Y50.693825 
G1 X-44.011669 Y50.788853 
G1 X-43.930853 Y50.869669 
G1 X-41.423397 Y53.377125 
G1 X-41.423397 Y53.417159 
G1 X-41.393291 Y53.568509 
G1 X-41.334238 Y53.711078 
G1 X-41.248503 Y53.839388 
G1 X-41.139387 Y53.948503 
G1 X-41.011078 Y54.034238 
G1 X-40.868509 Y54.093291 
G1 X-40.717159 Y54.123397 
G1 X-36.571959 Y54.123397 
G1 X-36.445363 Y54.175834 
G1 X-36.264569 Y54.211797 
G1 X-34.759428 Y54.211797 
G1 X-34.578634 Y54.175834 
G1 X-34.408331 Y54.105294 
G1 X-34.255063 Y54.002881 
G1 X-34.124716 Y53.872534 
G1 X-34.022303 Y53.719266 
G1 X-33.951763 Y53.548963 
G1 X-33.915800 Y53.368169 
G1 X-33.915800 Y53.183828 
G1 X-33.951763 Y53.003034 
G1 X-34.022303 Y52.832731 
G1 X-34.124716 Y52.679462 
G1 X-34.255063 Y52.549116 
G1 X-34.408331 Y52.446703 
G1 X-34.578634 Y52.376162 
G1 X-34.759428 Y52.340200 
G1 X-36.264569 Y52.340200 
G1 X-36.445363 Y52.376162 
G1 X-36.615666 Y52.446703 
G1 X-36.768934 Y52.549116 
G1 X-40.602872 Y52.556600 
G1 X-42.980800 Y50.178672 
G1 X-42.980800 Y17.131325 
G1 X-38.697872 Y12.848397 
G1 X-38.657837 Y12.848397 
G1 X-38.506487 Y12.818291 
G1 X-38.363919 Y12.759237 
G1 X-38.235609 Y12.673503 
G0 Z1.000000 
G0 X-38.239716 Y32.325756 
G1 Z-0.080000 F25    
G1 X-38.382284 Y32.266703 F50    
G1 X-38.533634 Y32.236597 
G1 X-39.904359 Y32.236597 
G1 X-40.055709 Y32.266703 
G1 X-40.198278 Y32.325756 
G1 X-40.326588 Y32.411491 
G1 X-40.435703 Y32.520606 
G1 X-40.521437 Y32.648916 
G1 X-40.580491 Y32.791484 
G1 X-40.610597 Y32.942834 
G1 X-40.610597 Y33.097156 
G1 X-40.610597 Y33.197984 
G1 X-40.610597 Y33.275163 
G1 X-40.610597 Y33.352191 
G1 X-40.595687 Y33.427128 
G1 X-40.580491 Y33.503541 
G1 X-40.549450 Y33.578478 
G1 X-40.521437 Y33.646109 
G1 X-40.478812 Y33.709897 
G1 X-40.435703 Y33.774419 
G1 X-40.383653 Y33.826466 
G1 X-40.326588 Y33.883534 
G1 X-40.264169 Y33.925238 
G1 X-40.198278 Y33.969269 
G1 X-40.126041 Y33.999187 
G1 X-40.055709 Y34.028322 
G1 X-39.975231 Y34.044328 
G1 X-39.904359 Y34.058428 
G1 X-39.827066 Y34.058428 
G1 X-39.750037 Y34.058428 
G1 X-38.533634 Y34.057397 
G1 X-38.382284 Y34.027291 
G1 X-38.239716 Y33.968238 
G1 X-38.111406 Y33.882503 
G1 X-38.002291 Y33.773387 
G1 X-37.916556 Y33.645078 
G1 X-37.857503 Y33.502509 
G1 X-37.827397 Y33.351159 
G1 X-37.827397 Y32.942834 
G1 X-37.857503 Y32.791484 
G1 X-37.916556 Y32.648916 
G1 X-38.002291 Y32.520606 
G1 X-38.111406 Y32.411491 
G1 X-38.239716 Y32.325756 
G0 Z1.000000 
G0 X-39.447159 Y34.776600 
G1 Z-0.080000 F25    
G1 X-39.598509 Y34.806706 F50    
G1 X-39.741078 Y34.865759 
G1 X-39.869388 Y34.951494 
G1 X-39.993387 Y35.075494 
G1 X-40.102503 Y35.184609 
G1 X-40.163097 Y35.231625 
G1 X-40.214372 Y35.282900 
G1 X-40.250628 Y35.345697 
G1 X-40.269397 Y35.415741 
G1 X-40.269397 Y35.566622 
G1 X-40.277397 Y35.606837 
G1 X-40.277397 Y36.079159 
G1 X-40.269397 Y36.119375 
G1 X-40.269397 Y36.588256 
G1 X-40.250628 Y36.658300 
G1 X-40.214372 Y36.721097 
G1 X-40.163097 Y36.772372 
G1 X-40.100300 Y36.808628 
G1 X-40.030256 Y36.827397 
G1 X-38.957741 Y36.827397 
G1 X-38.887697 Y36.808628 
G1 X-38.824900 Y36.772372 
G1 X-38.773625 Y36.721097 
G1 X-38.737369 Y36.658300 
G1 X-38.718600 Y36.588256 
G1 X-38.718600 Y36.343397 
G1 X-36.571959 Y36.343397 
G1 X-36.445363 Y36.395834 
G1 X-36.264569 Y36.431797 
G1 X-34.759428 Y36.431797 
G1 X-34.578634 Y36.395834 
G1 X-34.408331 Y36.325294 
G1 X-34.255063 Y36.222881 
G1 X-34.124716 Y36.092534 
G1 X-34.022303 Y35.939266 
G1 X-33.951763 Y35.768963 
G1 X-33.915800 Y35.588169 
G1 X-33.915800 Y35.403828 
G1 X-33.951763 Y35.223034 
G1 X-34.022303 Y35.052731 
G1 X-34.124716 Y34.899462 
G1 X-34.255063 Y34.769116 
G1 X-34.408331 Y34.666703 
G1 X-34.578634 Y34.596162 
G1 X-34.759428 Y34.560200 
G1 X-36.264569 Y34.560200 
G1 X-36.445363 Y34.596162 
G1 X-36.615666 Y34.666703 
G1 X-36.768934 Y34.769116 
G1 X-39.447159 Y34.776600 
G0 Z1.000000 
G0 X-38.957741 Y36.876600 
G1 Z-0.080000 F25    
G1 X-40.030256 Y36.876600 F50    
G1 X-40.100300 Y36.895369 
G1 X-40.163097 Y36.931625 
G1 X-40.214372 Y36.982900 
G1 X-40.250628 Y37.045697 
G1 X-40.269397 Y37.115741 
G1 X-40.269397 Y37.584616 
G1 X-40.277397 Y37.624837 
G1 X-40.277397 Y37.779159 
G1 X-40.269397 Y37.819381 
G1 X-40.269397 Y38.288256 
G1 X-40.250628 Y38.358300 
G1 X-40.214372 Y38.421097 
G1 X-40.163097 Y38.472372 
G1 X-40.100300 Y38.508628 
G1 X-40.030256 Y38.527397 
G1 X-39.776494 Y38.527397 
G1 X-39.595388 Y38.708503 
G1 X-39.467078 Y38.794238 
G1 X-39.324509 Y38.853291 
G1 X-39.173159 Y38.883397 
G1 X-38.258587 Y38.883397 
G1 X-37.881309 Y39.039666 
G1 X-37.825153 Y39.065556 
G1 X-37.795763 Y39.075103 
G1 X-37.735206 Y39.087147 
G1 X-37.675100 Y39.101578 
G1 X-37.644413 Y39.105209 
G1 X-37.582644 Y39.105209 
G1 X-37.520900 Y39.107634 
G1 X-37.490094 Y39.105209 
G1 X-37.429494 Y39.093153 
G1 X-37.368484 Y39.083491 
G1 X-37.338744 Y39.075103 
G1 X-37.281666 Y39.051459 
G1 X-37.223706 Y39.030078 
G1 X-37.196175 Y39.016050 
G1 X-37.144822 Y38.981734 
G1 X-37.092131 Y38.949447 
G1 X-37.024209 Y38.886656 
G1 X-36.571959 Y38.883397 
G1 X-36.445363 Y38.935834 
G1 X-36.264569 Y38.971797 
G1 X-34.759428 Y38.971797 
G1 X-34.578634 Y38.935834 
G1 X-34.408331 Y38.865294 
G1 X-34.339663 Y38.819409 
G1 X-34.218644 Y38.819409 
G1 X-34.199194 Y38.865600 
G1 X-34.182000 Y38.891325 
G1 X-34.167963 Y38.918881 
G1 X-34.139238 Y38.955316 
G1 X-34.113453 Y38.993906 
G1 X-34.072431 Y39.040069 
G1 X-34.037141 Y39.070209 
G1 X-34.004331 Y39.103016 
G1 X-33.978609 Y39.120200 
G1 X-33.936206 Y39.150863 
G1 X-33.448556 Y39.638516 
G1 X-33.196597 Y40.246797 
G1 X-33.196597 Y40.905197 
G1 X-33.432581 Y41.474913 
G1 X-33.457331 Y41.534666 
G1 X-33.491638 Y41.617484 
G1 X-33.521744 Y41.768834 
G1 X-33.521744 Y41.923156 
G1 X-33.491638 Y42.074506 
G1 X-33.196597 Y42.786797 
G1 X-33.196597 Y43.536666 
G1 X-33.166491 Y43.688016 
G1 X-33.107438 Y43.830584 
G1 X-33.021703 Y43.958894 
G1 X-32.912588 Y44.068009 
G1 X-32.871716 Y44.095319 
G1 X-32.784278 Y44.153744 
G1 X-32.641709 Y44.212797 
G1 X-32.232844 Y44.382150 
G1 X-31.298437 Y45.316559 
G1 X-31.170128 Y45.402294 
G1 X-31.027559 Y45.461347 
G1 X-30.876209 Y45.491453 
G1 X-30.721888 Y45.491453 
G1 X-30.570538 Y45.461347 
G1 X-30.427969 Y45.402294 
G1 X-30.299659 Y45.316559 
G1 X-30.190544 Y45.207444 
G1 X-30.104809 Y45.079134 
G1 X-29.971412 Y44.757078 
G1 X-29.955619 Y44.718950 
G1 X-29.912356 Y44.614509 
G1 X-29.882250 Y44.463156 
G1 X-29.882250 Y44.308838 
G1 X-29.912356 Y44.157488 
G1 X-29.971409 Y44.014919 
G1 X-30.207397 Y43.445197 
G1 X-30.207397 Y42.786797 
G1 X-29.971412 Y42.217081 
G1 X-29.946662 Y42.157328 
G1 X-29.912356 Y42.074509 
G1 X-29.882250 Y41.923159 
G1 X-29.882250 Y41.768837 
G1 X-29.912356 Y41.617488 
G1 X-30.207397 Y40.905197 
G1 X-30.207397 Y40.246797 
G1 X-30.138725 Y40.081006 
G1 X-30.082387 Y39.944997 
G1 X-30.049563 Y39.787084 
G1 X-30.049563 Y39.632762 
G1 X-30.079669 Y39.481412 
G1 X-30.138722 Y39.338844 
G1 X-30.194869 Y39.254819 
G1 X-30.224453 Y39.210538 
G1 X-30.333572 Y39.101419 
G1 X-32.149844 Y37.285150 
G1 X-32.301475 Y36.919078 
G1 X-32.348425 Y36.805728 
G1 X-32.360528 Y36.776503 
G1 X-32.401978 Y36.714469 
G1 X-32.446259 Y36.648194 
G1 X-32.555378 Y36.539075 
G1 X-32.596250 Y36.511766 
G1 X-32.683687 Y36.453341 
G1 X-32.744450 Y36.428175 
G1 X-32.826259 Y36.394284 
G1 X-32.945800 Y36.370509 
G1 X-32.977606 Y36.364181 
G1 X-33.131928 Y36.364181 
G1 X-33.283281 Y36.394287 
G1 X-33.399681 Y36.442506 
G1 X-33.425844 Y36.453341 
G1 X-33.487878 Y36.494791 
G1 X-33.554153 Y36.539072 
G1 X-33.663272 Y36.648191 
G1 X-33.936209 Y36.921131 
G1 X-33.978606 Y36.951794 
G1 X-34.004331 Y36.968978 
G1 X-34.037141 Y37.001784 
G1 X-34.072431 Y37.031925 
G1 X-34.113453 Y37.078088 
G1 X-34.139238 Y37.116678 
G1 X-34.167963 Y37.153112 
G1 X-34.182000 Y37.180669 
G1 X-34.199194 Y37.206394 
G1 X-34.216959 Y37.249281 
G1 X-34.339672 Y37.252581 
G1 X-34.408331 Y37.206703 
G1 X-34.578634 Y37.136162 
G1 X-34.759428 Y37.100200 
G1 X-36.264569 Y37.100200 
G1 X-36.445363 Y37.136162 
G1 X-36.615666 Y37.206703 
G1 X-36.684325 Y37.252581 
G1 X-37.067953 Y37.252581 
G1 X-37.095916 Y37.228891 
G1 X-37.159987 Y37.186078 
G1 X-37.211350 Y37.151756 
G1 X-37.238869 Y37.137734 
G1 X-37.296844 Y37.116347 
G1 X-37.353919 Y37.092703 
G1 X-37.383644 Y37.084319 
G1 X-37.444688 Y37.074650 
G1 X-37.505269 Y37.062597 
G1 X-37.536059 Y37.060172 
G1 X-37.597837 Y37.062597 
G1 X-37.850694 Y37.062597 
G1 X-38.002044 Y37.092703 
G1 X-38.059391 Y37.116459 
G1 X-38.144609 Y37.151756 
G1 X-38.272919 Y37.237491 
G1 X-38.352028 Y37.316600 
G1 X-38.718600 Y37.316600 
G1 X-38.718600 Y37.115741 
G1 X-38.737369 Y37.045697 
G1 X-38.773625 Y36.982900 
G1 X-38.824900 Y36.931625 
G1 X-38.887697 Y36.895369 
G1 X-38.957741 Y36.876600 
G0 Z1.000000 
G0 X-38.526353 Y39.602600 
G1 Z-0.080000 F25    
G1 X-40.213644 Y39.602600 F50    
G1 X-40.374925 Y39.628144 
G1 X-40.530222 Y39.678603 
G1 X-40.675716 Y39.752734 
G1 X-40.807819 Y39.848716 
G1 X-40.923281 Y39.964178 
G1 X-41.019263 Y40.096281 
G1 X-41.093394 Y40.241775 
G1 X-41.143853 Y40.397072 
G1 X-41.169397 Y40.558353 
G1 X-41.169397 Y40.721644 
G1 X-41.143853 Y40.882925 
G1 X-41.093394 Y41.038222 
G1 X-41.019263 Y41.183716 
G1 X-40.923281 Y41.315819 
G1 X-40.807819 Y41.431281 
G1 X-40.675716 Y41.527262 
G1 X-40.530222 Y41.601394 
G1 X-40.374925 Y41.651853 
G1 X-40.213644 Y41.677397 
G1 X-38.526353 Y41.677397 
G1 X-38.365072 Y41.651853 
G1 X-38.209775 Y41.601394 
G1 X-38.064281 Y41.527262 
G1 X-37.932178 Y41.431281 
G1 X-36.571959 Y41.423397 
G1 X-36.445363 Y41.475834 
G1 X-36.264569 Y41.511797 
G1 X-34.759428 Y41.511797 
G1 X-34.578634 Y41.475834 
G1 X-34.408331 Y41.405294 
G1 X-34.255063 Y41.302881 
G1 X-34.124716 Y41.172534 
G1 X-34.022303 Y41.019266 
G1 X-33.951763 Y40.848962 
G1 X-33.915800 Y40.668169 
G1 X-33.915800 Y40.483828 
G1 X-33.951763 Y40.303034 
G1 X-34.022303 Y40.132731 
G1 X-34.124716 Y39.979462 
G1 X-34.255063 Y39.849116 
G1 X-34.408331 Y39.746703 
G1 X-34.578634 Y39.676162 
G1 X-34.759428 Y39.640200 
G1 X-36.264569 Y39.640200 
G1 X-36.445363 Y39.676162 
G1 X-36.615666 Y39.746703 
G1 X-36.768934 Y39.849116 
G1 X-37.924294 Y39.856600 
G1 X-38.064281 Y39.752734 
G1 X-38.209775 Y39.678603 
G1 X-38.365072 Y39.628144 
G1 X-38.526353 Y39.602600 
G0 Z1.000000 
G0 X-38.526353 Y42.142600 
G1 Z-0.080000 F25    
G1 X-40.213644 Y42.142600 F50    
G1 X-40.374925 Y42.168144 
G1 X-40.530222 Y42.218603 
G1 X-40.675716 Y42.292734 
G1 X-40.807819 Y42.388716 
G1 X-40.923281 Y42.504178 
G1 X-41.019263 Y42.636281 
G1 X-41.093394 Y42.781775 
G1 X-41.143853 Y42.937072 
G1 X-41.169397 Y43.098353 
G1 X-41.169397 Y43.261644 
G1 X-41.143853 Y43.422925 
G1 X-41.093394 Y43.578222 
G1 X-41.019263 Y43.723716 
G1 X-40.923281 Y43.855819 
G1 X-40.807819 Y43.971281 
G1 X-40.675716 Y44.067262 
G1 X-40.530222 Y44.141394 
G1 X-40.374925 Y44.191853 
G1 X-40.213644 Y44.217397 
G1 X-38.526353 Y44.217397 
G1 X-38.365072 Y44.191853 
G1 X-38.209775 Y44.141394 
G1 X-38.064281 Y44.067262 
G1 X-37.932178 Y43.971281 
G1 X-36.571959 Y43.963397 
G1 X-36.445363 Y44.015834 
G1 X-36.264569 Y44.051797 
G1 X-34.759428 Y44.051797 
G1 X-34.578634 Y44.015834 
G1 X-34.408331 Y43.945294 
G1 X-34.255063 Y43.842881 
G1 X-34.124716 Y43.712534 
G1 X-34.022303 Y43.559266 
G1 X-33.951763 Y43.388962 
G1 X-33.915800 Y43.208169 
G1 X-33.915800 Y43.023828 
G1 X-33.951763 Y42.843034 
G1 X-34.022303 Y42.672731 
G1 X-34.124716 Y42.519463 
G1 X-34.255063 Y42.389116 
G1 X-34.408331 Y42.286703 
G1 X-34.578634 Y42.216163 
G1 X-34.759428 Y42.180200 
G1 X-36.264569 Y42.180200 
G1 X-36.445363 Y42.216163 
G1 X-36.615666 Y42.286703 
G1 X-36.768934 Y42.389116 
G1 X-37.924294 Y42.396600 
G1 X-38.064281 Y42.292734 
G1 X-38.209775 Y42.218603 
G1 X-38.365072 Y42.168144 
G1 X-38.526353 Y42.142600 
G0 Z1.000000 
G0 X-38.533634 Y44.936597 
G1 Z-0.080000 F25    
G1 X-39.904359 Y44.936597 F50    
G1 X-40.055709 Y44.966703 
G1 X-40.198278 Y45.025756 
G1 X-40.326588 Y45.111491 
G1 X-40.435703 Y45.220606 
G1 X-40.521437 Y45.348916 
G1 X-40.580491 Y45.491484 
G1 X-40.610597 Y45.642834 
G1 X-40.610597 Y45.797156 
G1 X-40.610597 Y47.474434 
G1 X-40.580491 Y47.625784 
G1 X-40.521437 Y47.768353 
G1 X-40.435706 Y47.896659 
G1 X-39.318981 Y49.013388 
G1 X-39.229031 Y49.103334 
G1 X-39.081556 Y49.208238 
G1 X-38.938988 Y49.267291 
G1 X-38.787638 Y49.297397 
G1 X-38.533634 Y49.297397 
G1 X-38.382284 Y49.267291 
G1 X-38.239716 Y49.208238 
G1 X-38.111406 Y49.122503 
G1 X-38.002291 Y49.013388 
G1 X-37.916556 Y48.885078 
G1 X-37.857503 Y48.742509 
G1 X-37.827397 Y48.591159 
G1 X-37.827397 Y47.866797 
G1 X-37.532356 Y47.154506 
G1 X-37.502250 Y47.003156 
G1 X-37.502250 Y46.848834 
G1 X-37.532356 Y46.697484 
G1 X-37.564734 Y46.619316 
G1 X-37.591409 Y46.554916 
G1 X-37.827397 Y45.985197 
G1 X-37.827397 Y45.642834 
G1 X-37.857503 Y45.491484 
G1 X-37.916556 Y45.348916 
G1 X-38.002291 Y45.220606 
G1 X-38.111406 Y45.111491 
G1 X-38.239716 Y45.025756 
G1 X-38.382284 Y44.966703 
G1 X-38.533634 Y44.936597 
G0 Z1.000000 
G0 X-36.899281 Y45.059463 
G1 Z-0.080000 F25    
G1 X-37.001694 Y45.212731 F50    
G1 X-37.072234 Y45.383034 
G1 X-37.108197 Y45.563828 
G1 X-37.108197 Y45.748169 
G1 X-37.072234 Y45.928962 
G1 X-37.001694 Y46.099266 
G1 X-36.899281 Y46.252534 
G1 X-36.768934 Y46.382881 
G1 X-36.615666 Y46.485294 
G1 X-36.445363 Y46.555834 
G1 X-36.264569 Y46.591797 
G1 X-34.759428 Y46.591797 
G1 X-34.578634 Y46.555834 
G1 X-34.408331 Y46.485294 
G1 X-34.339644 Y46.439397 
G1 X-33.408491 Y46.439397 
G1 X-31.263397 Y48.584494 
G1 X-31.263397 Y64.826503 
G1 X-31.447491 Y65.010600 
G1 X-32.159256 Y65.010600 
G1 X-32.229300 Y65.029369 
G1 X-32.292097 Y65.065625 
G1 X-32.343372 Y65.116900 
G1 X-32.379628 Y65.179697 
G1 X-32.398397 Y65.249741 
G1 X-32.398397 Y66.830256 
G1 X-32.379628 Y66.900300 
G1 X-32.343372 Y66.963097 
G1 X-32.292097 Y67.014372 
G1 X-32.229300 Y67.050628 
G1 X-32.159256 Y67.069397 
G1 X-30.578741 Y67.069397 
G1 X-30.508697 Y67.050628 
G1 X-30.445900 Y67.014372 
G1 X-30.394625 Y66.963097 
G1 X-30.358369 Y66.900300 
G1 X-30.339600 Y66.830256 
G1 X-30.339600 Y66.118491 
G1 X-29.871494 Y65.650387 
G1 X-29.785759 Y65.522078 
G1 X-29.726706 Y65.379509 
G1 X-29.696600 Y65.228159 
G1 X-29.696600 Y48.182837 
G1 X-29.726706 Y48.031487 
G1 X-29.785759 Y47.888919 
G1 X-29.871494 Y47.760609 
G1 X-32.475491 Y45.156616 
G1 X-32.584609 Y45.047494 
G1 X-32.712919 Y44.961759 
G1 X-32.855488 Y44.902706 
G1 X-33.006838 Y44.872600 
G1 X-34.339644 Y44.872600 
G1 X-34.408331 Y44.826703 
G1 X-34.578634 Y44.756163 
G1 X-34.759428 Y44.720200 
G1 X-36.264569 Y44.720200 
G1 X-36.445363 Y44.756163 
G1 X-36.615666 Y44.826703 
G1 X-36.768934 Y44.929116 
G1 X-36.899281 Y45.059463 
G0 Z1.000000 
G0 X-36.768934 Y47.469116 
G1 Z-0.080000 F25    
G1 X-36.899281 Y47.599463 F50    
G1 X-37.001694 Y47.752731 
G1 X-37.072234 Y47.923034 
G1 X-37.108197 Y48.103828 
G1 X-37.108197 Y48.288169 
G1 X-37.072234 Y48.468963 
G1 X-37.001694 Y48.639266 
G1 X-36.899281 Y48.792534 
G1 X-36.768934 Y48.922881 
G1 X-36.615666 Y49.025294 
G1 X-36.445363 Y49.095834 
G1 X-36.264569 Y49.131797 
G1 X-34.759428 Y49.131797 
G1 X-34.578634 Y49.095834 
G1 X-33.803397 Y49.854494 
G1 X-33.803397 Y62.366503 
G1 X-36.447494 Y65.010600 
G1 X-37.159256 Y65.010600 
G1 X-37.229300 Y65.029369 
G1 X-37.292097 Y65.065625 
G1 X-37.343372 Y65.116900 
G1 X-37.379628 Y65.179697 
G1 X-37.398397 Y65.249741 
G1 X-37.398397 Y66.830256 
G1 X-37.379628 Y66.900300 
G1 X-37.343372 Y66.963097 
G1 X-37.292097 Y67.014372 
G1 X-37.229300 Y67.050628 
G1 X-37.159256 Y67.069397 
G1 X-35.578741 Y67.069397 
G1 X-35.508697 Y67.050628 
G1 X-35.445900 Y67.014372 
G1 X-35.394625 Y66.963097 
G1 X-35.358369 Y66.900300 
G1 X-35.339600 Y66.830256 
G1 X-35.339600 Y66.118494 
G1 X-32.520609 Y63.299503 
G1 X-32.411494 Y63.190387 
G1 X-32.325759 Y63.062078 
G1 X-32.266706 Y62.919509 
G1 X-32.236600 Y62.768159 
G1 X-32.236600 Y49.452838 
G1 X-32.266706 Y49.301488 
G1 X-32.325759 Y49.158919 
G1 X-32.411494 Y49.030609 
G1 X-32.520609 Y48.921494 
G1 X-33.854609 Y47.587494 
G1 X-33.982919 Y47.501759 
G1 X-34.125487 Y47.442706 
G1 X-34.276837 Y47.412600 
G1 X-34.339644 Y47.412600 
G1 X-34.408331 Y47.366703 
G1 X-34.578634 Y47.296163 
G1 X-34.759428 Y47.260200 
G1 X-36.264569 Y47.260200 
G1 X-36.445363 Y47.296163 
G1 X-36.615666 Y47.366703 
G1 X-36.768934 Y47.469116 
G0 Z1.000000 
G0 X-29.148934 Y47.469116 
G1 Z-0.080000 F25    
G1 X-29.279281 Y47.599463 F50    
G1 X-29.381694 Y47.752731 
G1 X-29.452234 Y47.923034 
G1 X-29.488197 Y48.103828 
G1 X-29.488197 Y48.288169 
G1 X-29.452234 Y48.468963 
G1 X-29.381694 Y48.639266 
G1 X-29.279281 Y48.792534 
G1 X-29.148934 Y48.922881 
G1 X-28.995666 Y49.025294 
G1 X-28.825363 Y49.095834 
G1 X-28.644569 Y49.131797 
G1 X-27.139428 Y49.131797 
G1 X-26.958634 Y49.095834 
G1 X-26.788331 Y49.025294 
G1 X-26.719644 Y48.979397 
G1 X-23.465700 Y48.979397 
G1 X-23.396819 Y49.048281 
G1 X-23.264716 Y49.144263 
G1 X-23.119222 Y49.218394 
G1 X-22.963925 Y49.268853 
G1 X-22.802644 Y49.294397 
G1 X-21.115353 Y49.294397 
G1 X-20.954072 Y49.268853 
G1 X-20.798775 Y49.218394 
G1 X-20.653281 Y49.144263 
G1 X-20.521178 Y49.048281 
G1 X-20.405716 Y48.932819 
G1 X-20.309734 Y48.800716 
G1 X-20.235603 Y48.655222 
G1 X-20.185144 Y48.499925 
G1 X-20.159600 Y48.338644 
G1 X-20.159600 Y48.175353 
G1 X-20.185144 Y48.014072 
G1 X-20.235603 Y47.858775 
G1 X-20.309734 Y47.713281 
G1 X-20.405716 Y47.581178 
G1 X-20.521178 Y47.465716 
G1 X-20.653281 Y47.369734 
G1 X-20.798775 Y47.295603 
G1 X-20.954072 Y47.245144 
G1 X-21.115353 Y47.219600 
G1 X-22.802644 Y47.219600 
G1 X-22.963925 Y47.245144 
G1 X-23.119222 Y47.295603 
G1 X-23.264716 Y47.369734 
G1 X-23.323712 Y47.412600 
G1 X-26.719644 Y47.412600 
G1 X-26.788331 Y47.366703 
G1 X-26.958634 Y47.296163 
G1 X-27.139428 Y47.260200 
G1 X-28.644569 Y47.260200 
G1 X-28.825363 Y47.296163 
G1 X-28.995666 Y47.366703 
G1 X-29.148934 Y47.469116 
G0 Z1.000000 
G0 X-29.148934 Y46.382881 
G1 Z-0.080000 F25    
G1 X-28.995666 Y46.485294 F50    
G1 X-28.825363 Y46.555834 
G1 X-28.644569 Y46.591797 
G1 X-27.139428 Y46.591797 
G1 X-26.958634 Y46.555834 
G1 X-26.788331 Y46.485294 
G1 X-26.719644 Y46.439397 
G1 X-26.589069 Y46.439397 
G1 X-26.538097 Y46.490372 
G1 X-26.475300 Y46.526628 
G1 X-26.405256 Y46.545397 
G1 X-25.332741 Y46.545397 
G1 X-25.262697 Y46.526628 
G1 X-25.199900 Y46.490372 
G1 X-25.148625 Y46.439097 
G1 X-25.112369 Y46.376300 
G1 X-25.093600 Y46.306256 
G1 X-25.093600 Y45.837378 
G1 X-25.085600 Y45.797159 
G1 X-25.085600 Y45.642837 
G1 X-25.093600 Y45.602619 
G1 X-25.093600 Y45.133741 
G1 X-25.112369 Y45.063697 
G1 X-25.148625 Y45.000900 
G1 X-25.199900 Y44.949625 
G1 X-25.262697 Y44.913369 
G1 X-25.332741 Y44.894600 
G1 X-25.745238 Y44.894600 
G1 X-25.855837 Y44.872600 
G1 X-26.719644 Y44.872600 
G1 X-26.788331 Y44.826703 
G1 X-26.958634 Y44.756163 
G1 X-27.139428 Y44.720200 
G1 X-28.644569 Y44.720200 
G1 X-28.825363 Y44.756163 
G1 X-28.995666 Y44.826703 
G1 X-29.148934 Y44.929116 
G1 X-29.279281 Y45.059463 
G1 X-29.381694 Y45.212731 
G1 X-29.452234 Y45.383034 
G1 X-29.488197 Y45.563828 
G1 X-29.488197 Y45.748169 
G1 X-29.452234 Y45.928962 
G1 X-29.381694 Y46.099266 
G1 X-29.279281 Y46.252534 
G1 X-29.148934 Y46.382881 
G0 Z1.000000 
G0 X-29.148934 Y43.842881 
G1 Z-0.080000 F25    
G1 X-28.995666 Y43.945294 F50    
G1 X-28.825363 Y44.015834 
G1 X-28.644569 Y44.051797 
G1 X-27.139428 Y44.051797 
G1 X-26.958634 Y44.015834 
G1 X-26.788331 Y43.945294 
G1 X-26.719644 Y43.899397 
G1 X-26.589069 Y43.899397 
G1 X-26.538097 Y43.950372 
G1 X-26.475300 Y43.986628 
G1 X-26.405256 Y44.005397 
G1 X-25.332741 Y44.005397 
G1 X-25.262697 Y43.986628 
G1 X-25.199900 Y43.950372 
G1 X-25.148625 Y43.899097 
G1 X-25.112369 Y43.836300 
G1 X-25.093600 Y43.766256 
G1 X-25.093600 Y43.297378 
G1 X-25.085600 Y43.257159 
G1 X-25.085600 Y43.102837 
G1 X-25.093600 Y43.062619 
G1 X-25.093600 Y42.593741 
G1 X-25.112369 Y42.523697 
G1 X-25.148625 Y42.460900 
G1 X-25.199900 Y42.409625 
G1 X-25.262697 Y42.373369 
G1 X-25.332741 Y42.354600 
G1 X-25.745238 Y42.354600 
G1 X-25.855837 Y42.332600 
G1 X-26.719644 Y42.332600 
G1 X-26.788331 Y42.286703 
G1 X-26.958634 Y42.216163 
G1 X-27.139428 Y42.180200 
G1 X-28.644569 Y42.180200 
G1 X-28.825363 Y42.216163 
G1 X-28.995666 Y42.286703 
G1 X-29.148934 Y42.389116 
G1 X-29.279281 Y42.519463 
G1 X-29.381694 Y42.672731 
G1 X-29.452234 Y42.843034 
G1 X-29.488197 Y43.023828 
G1 X-29.488197 Y43.208169 
G1 X-29.452234 Y43.388962 
G1 X-29.381694 Y43.559266 
G1 X-29.279281 Y43.712534 
G1 X-29.148934 Y43.842881 
G0 Z1.000000 
G0 X-29.148934 Y41.302881 
G1 Z-0.080000 F25    
G1 X-28.995666 Y41.405294 F50    
G1 X-28.825363 Y41.475834 
G1 X-28.644569 Y41.511797 
G1 X-27.139428 Y41.511797 
G1 X-26.958634 Y41.475834 
G1 X-26.788331 Y41.405294 
G1 X-26.719644 Y41.359397 
G1 X-26.589069 Y41.359397 
G1 X-26.538097 Y41.410372 
G1 X-26.475300 Y41.446628 
G1 X-26.405256 Y41.465397 
G1 X-25.332741 Y41.465397 
G1 X-25.262697 Y41.446628 
G1 X-25.199900 Y41.410372 
G1 X-25.148625 Y41.359097 
G1 X-25.112369 Y41.296300 
G1 X-25.093600 Y41.226256 
G1 X-25.093600 Y40.757378 
G1 X-25.085600 Y40.717159 
G1 X-25.085600 Y40.562838 
G1 X-25.093600 Y40.522619 
G1 X-25.093600 Y40.053741 
G1 X-25.112369 Y39.983697 
G1 X-25.148625 Y39.920900 
G1 X-25.199900 Y39.869625 
G1 X-25.262697 Y39.833369 
G1 X-25.332741 Y39.814600 
G1 X-25.745238 Y39.814600 
G1 X-25.855837 Y39.792600 
G1 X-26.719644 Y39.792600 
G1 X-26.788331 Y39.746703 
G1 X-26.958634 Y39.676162 
G1 X-27.139428 Y39.640200 
G1 X-28.644569 Y39.640200 
G1 X-28.825363 Y39.676162 
G1 X-28.995666 Y39.746703 
G1 X-29.148934 Y39.849116 
G1 X-29.279281 Y39.979462 
G1 X-29.381694 Y40.132731 
G1 X-29.452234 Y40.303034 
G1 X-29.488197 Y40.483828 
G1 X-29.488197 Y40.668169 
G1 X-29.452234 Y40.848962 
G1 X-29.381694 Y41.019266 
G1 X-29.279281 Y41.172534 
G1 X-29.148934 Y41.302881 
G0 Z1.000000 
G0 X-24.925628 Y41.296300 
G1 Z-0.080000 F25    
G1 X-24.889372 Y41.359097 F50    
G1 X-24.838097 Y41.410372 
G1 X-24.775300 Y41.446628 
G1 X-24.705256 Y41.465397 
G1 X-23.632741 Y41.465397 
G1 X-23.562697 Y41.446628 
G1 X-23.522462 Y41.423397 
G1 X-23.401700 Y41.423397 
G1 X-23.264716 Y41.524262 
G1 X-23.119222 Y41.598394 
G1 X-22.963925 Y41.648853 
G1 X-22.802644 Y41.674397 
G1 X-21.115353 Y41.674397 
G1 X-20.954072 Y41.648853 
G1 X-20.798775 Y41.598394 
G1 X-20.653281 Y41.524262 
G1 X-20.521178 Y41.428281 
G1 X-20.405716 Y41.312819 
G1 X-20.309734 Y41.180716 
G1 X-20.235603 Y41.035222 
G1 X-20.185144 Y40.879925 
G1 X-20.159600 Y40.718644 
G1 X-20.159600 Y40.555353 
G1 X-20.185144 Y40.394072 
G1 X-20.235603 Y40.238775 
G1 X-20.309734 Y40.093281 
G1 X-20.405716 Y39.961178 
G1 X-20.521178 Y39.845716 
G1 X-20.653281 Y39.749734 
G1 X-20.798775 Y39.675603 
G1 X-20.954072 Y39.625144 
G1 X-21.115353 Y39.599600 
G1 X-22.802644 Y39.599600 
G1 X-22.963925 Y39.625144 
G1 X-23.119222 Y39.675603 
G1 X-23.264716 Y39.749734 
G1 X-23.396819 Y39.845716 
G1 X-23.522462 Y39.856600 
G1 X-23.562697 Y39.833369 
G1 X-23.632741 Y39.814600 
G1 X-24.705256 Y39.814600 
G1 X-24.775300 Y39.833369 
G1 X-24.838097 Y39.869625 
G1 X-24.889372 Y39.920900 
G1 X-24.925628 Y39.983697 
G1 X-24.944397 Y40.053741 
G1 X-24.944397 Y40.522619 
G1 X-24.952397 Y40.562838 
G1 X-24.952397 Y40.717159 
G1 X-24.944397 Y40.757378 
G1 X-24.944397 Y41.226256 
G1 X-24.925628 Y41.296300 
G0 Z1.000000 
G0 X-24.838097 Y42.409625 
G1 Z-0.080000 F25    
G1 X-24.889372 Y42.460900 F50    
G1 X-24.925628 Y42.523697 
G1 X-24.944397 Y42.593741 
G1 X-24.944397 Y43.062619 
G1 X-24.952397 Y43.102837 
G1 X-24.952397 Y43.257159 
G1 X-24.944397 Y43.297378 
G1 X-24.944397 Y43.766256 
G1 X-24.925628 Y43.836300 
G1 X-24.889372 Y43.899097 
G1 X-24.838097 Y43.950372 
G1 X-24.775300 Y43.986628 
G1 X-24.705256 Y44.005397 
G1 X-23.632741 Y44.005397 
G1 X-23.562697 Y43.986628 
G1 X-23.522462 Y43.963397 
G1 X-23.401700 Y43.963397 
G1 X-23.264716 Y44.064262 
G1 X-23.119222 Y44.138394 
G1 X-22.963925 Y44.188853 
G1 X-22.802644 Y44.214397 
G1 X-21.115353 Y44.214397 
G1 X-20.954072 Y44.188853 
G1 X-20.798775 Y44.138394 
G1 X-20.653281 Y44.064262 
G1 X-20.521178 Y43.968281 
G1 X-20.405716 Y43.852819 
G1 X-20.309734 Y43.720716 
G1 X-20.235603 Y43.575222 
G1 X-20.185144 Y43.419925 
G1 X-20.159600 Y43.258644 
G1 X-20.159600 Y43.095353 
G1 X-20.185144 Y42.934072 
G1 X-20.235603 Y42.778775 
G1 X-20.309734 Y42.633281 
G1 X-20.405716 Y42.501178 
G1 X-20.521178 Y42.385716 
G1 X-20.653281 Y42.289734 
G1 X-20.798775 Y42.215603 
G1 X-20.954072 Y42.165144 
G1 X-21.115353 Y42.139600 
G1 X-22.802644 Y42.139600 
G1 X-22.963925 Y42.165144 
G1 X-23.119222 Y42.215603 
G1 X-23.264716 Y42.289734 
G1 X-23.396819 Y42.385716 
G1 X-23.522462 Y42.396600 
G1 X-23.562697 Y42.373369 
G1 X-23.632741 Y42.354600 
G1 X-24.705256 Y42.354600 
G1 X-24.775300 Y42.373369 
G1 X-24.838097 Y42.409625 
G0 Z1.000000 
G0 X-23.323712 Y49.952600 
G1 Z-0.080000 F25    
G1 X-26.719644 Y49.952600 F50    
G1 X-26.788331 Y49.906703 
G1 X-26.958634 Y49.836163 
G1 X-27.139428 Y49.800200 
G1 X-28.644569 Y49.800200 
G1 X-28.825363 Y49.836163 
G1 X-28.995666 Y49.906703 
G1 X-29.148934 Y50.009116 
G1 X-29.279281 Y50.139463 
G1 X-29.381694 Y50.292731 
G1 X-29.452234 Y50.463034 
G1 X-29.488197 Y50.643828 
G1 X-29.488197 Y50.828169 
G1 X-29.452234 Y51.008963 
G1 X-29.381694 Y51.179266 
G1 X-29.279281 Y51.332534 
G1 X-29.148934 Y51.462881 
G1 X-28.995666 Y51.565294 
G1 X-28.825363 Y51.635834 
G1 X-28.644569 Y51.671797 
G1 X-27.139428 Y51.671797 
G1 X-26.958634 Y51.635834 
G1 X-26.788331 Y51.565294 
G1 X-26.719644 Y51.519397 
G1 X-23.465700 Y51.519397 
G1 X-23.396819 Y51.588281 
G1 X-23.264716 Y51.684263 
G1 X-23.119222 Y51.758394 
G1 X-22.963925 Y51.808853 
G1 X-22.802644 Y51.834397 
G1 X-21.115353 Y51.834397 
G1 X-20.954072 Y51.808853 
G1 X-20.798775 Y51.758394 
G1 X-20.653281 Y51.684263 
G1 X-20.521178 Y51.588281 
G1 X-20.405716 Y51.472819 
G1 X-20.309734 Y51.340716 
G1 X-20.235603 Y51.195222 
G1 X-20.185144 Y51.039925 
G1 X-20.159600 Y50.878644 
G1 X-20.159600 Y50.715353 
G1 X-20.185144 Y50.554072 
G1 X-20.235603 Y50.398775 
G1 X-20.309734 Y50.253281 
G1 X-20.405716 Y50.121178 
G1 X-20.521178 Y50.005716 
G1 X-20.653281 Y49.909734 
G1 X-20.798775 Y49.835603 
G1 X-20.954072 Y49.785144 
G1 X-21.115353 Y49.759600 
G1 X-22.802644 Y49.759600 
G1 X-22.963925 Y49.785144 
G1 X-23.119222 Y49.835603 
G1 X-23.264716 Y49.909734 
G1 X-23.323712 Y49.952600 
G0 Z1.000000 
G0 X-23.264716 Y52.449734 
G1 Z-0.080000 F25    
G1 X-23.396819 Y52.545716 F50    
G1 X-24.243159 Y52.553600 
G1 X-24.298456 Y52.564600 
G1 X-24.755256 Y52.564600 
G1 X-24.825300 Y52.583369 
G1 X-24.888097 Y52.619625 
G1 X-24.939372 Y52.670900 
G1 X-24.975628 Y52.733697 
G1 X-24.994397 Y52.803741 
G1 X-24.994397 Y53.876256 
G1 X-24.975628 Y53.946300 
G1 X-24.939372 Y54.009097 
G1 X-24.888097 Y54.060372 
G1 X-24.825300 Y54.096628 
G1 X-24.755256 Y54.115397 
G1 X-24.286375 Y54.115397 
G1 X-24.246159 Y54.123397 
G1 X-24.091838 Y54.123397 
G1 X-23.404700 Y54.120397 
G1 X-23.264716 Y54.224263 
G1 X-23.119222 Y54.298394 
G1 X-22.963925 Y54.348853 
G1 X-22.802644 Y54.374397 
G1 X-21.115353 Y54.374397 
G1 X-20.954072 Y54.348853 
G1 X-20.798775 Y54.298394 
G1 X-20.653281 Y54.224263 
G1 X-20.521178 Y54.128281 
G1 X-20.405716 Y54.012819 
G1 X-20.309734 Y53.880716 
G1 X-20.235603 Y53.735222 
G1 X-20.185144 Y53.579925 
G1 X-20.159600 Y53.418644 
G1 X-20.159600 Y53.255353 
G1 X-20.185144 Y53.094072 
G1 X-20.235603 Y52.938775 
G1 X-20.309734 Y52.793281 
G1 X-20.405716 Y52.661178 
G1 X-20.521178 Y52.545716 
G1 X-20.653281 Y52.449734 
G1 X-20.798775 Y52.375603 
G1 X-20.954072 Y52.325144 
G1 X-21.115353 Y52.299600 
G1 X-22.802644 Y52.299600 
G1 X-22.963925 Y52.325144 
G1 X-23.119222 Y52.375603 
G1 X-23.264716 Y52.449734 
G0 Z1.000000 
G0 X-25.098625 Y52.670900 
G1 Z-0.080000 F25    
G1 X-25.149900 Y52.619625 F50    
G1 X-25.212697 Y52.583369 
G1 X-25.282741 Y52.564600 
G1 X-25.603341 Y52.564600 
G1 X-25.629919 Y52.553591 
G1 X-25.704447 Y52.522716 
G1 X-25.759553 Y52.511753 
G1 X-25.855794 Y52.492603 
G1 X-25.932100 Y52.492600 
G1 X-26.010113 Y52.492597 
G1 X-26.719644 Y52.492600 
G1 X-26.788331 Y52.446703 
G1 X-26.958634 Y52.376162 
G1 X-27.139428 Y52.340200 
